;FLAVOR:Marlin
;TIME:4443
;Filament used: 2.77837m
;Layer height: 0.2
;MINX:103.037
;MINY:94.241
;MINZ:0.28
;MAXX:196.959
;MAXY:205.763
;MAXZ:3.88
;Generated with Cura_SteamEngine 5.2.1
M140 S100
M105
M190 S100
M82 ;absolute extrusion mode
M201 X500.00 Y500.00 Z100.00 E5000.00 ;Setup machine max acceleration
M203 X500.00 Y500.00 Z10.00 E50.00 ;Setup machine max feedrate
M204 P500.00 R1000.00 T500.00 ;Setup Print/Retract/Travel acceleration
M205 X8.00 Y8.00 Z0.40 E5.00 ;Setup Jerk
M220 S100 ;Reset Feedrate
M221 S100 ;Reset Flowrate
M140 S100.0 ; set bed temp
M190 S100.0 ; wait for bed temp
G28; home all
G29;
G92 E0 ;Reset Extruder
G1 Z2.0 F3000 ;Move Z Axis up
G1 X10.1 Y20 Z0.28 F5000.0 ;Move to start position
M104 S235 ; wait for extruder printing temp
M109 S235 ; wait for extruder printing temp
G1 X10.1 Y200.0 Z0.28 F1500.0 E15 ;Draw the first line
G1 X10.4 Y200.0 Z0.28 F5000.0 ;Move to side a little
G1 X10.4 Y20 Z0.28 F1500.0 E30 ;Draw the second line
G92 E0 ;Reset Extruder
G1 Z2.0 F3000 ;Move Z Axis up
G92 E0
G92 E0
G1 F1800 E-2
;LAYER_COUNT:19
;LAYER:0
M107
G0 F6000 X125.836 Y100.975 Z0.28
;TYPE:SKIRT
G1 F1800 E0
G1 F1200 X126.802 Y99.798 E0.0709
G1 X127.333 Y99.213 E0.10769
G1 X127.631 Y98.932 E0.12676
G1 X128.539 Y98.12 E0.18348
G1 X129.477 Y97.401 E0.23852
G1 X130.754 Y96.568 E0.30951
G1 X131.437 Y96.171 E0.3463
G1 X131.802 Y95.994 E0.36518
G1 X132.91 Y95.493 E0.42181
G1 X133.903 Y95.123 E0.47115
G1 X135.071 Y94.776 E0.52789
G1 X136.109 Y94.543 E0.57742
G1 X137.315 Y94.358 E0.63424
G1 X138.233 Y94.273 E0.67717
G1 X139.145 Y94.242 E0.71966
G1 X139.815 Y94.248 E0.75086
G1 X140.449 Y94.281 E0.78042
G1 X141.239 Y94.362 E0.8174
G1 X142.419 Y94.545 E0.873
G1 X143.445 Y94.776 E0.92197
G1 X144.613 Y95.123 E0.97871
G1 X145.606 Y95.493 E1.02805
G1 X146.714 Y95.994 E1.08467
G1 X147.416 Y96.355 E1.12143
G1 X147.762 Y96.568 E1.14035
G1 X149.039 Y97.401 E1.21134
G1 X149.999 Y98.139 E1.26773
G1 X150.632 Y97.626 E1.30567
G1 X150.961 Y97.4 E1.32425
G1 X152.239 Y96.567 E1.39529
G1 X152.921 Y96.169 E1.43205
G1 X153.284 Y95.994 E1.45082
G1 X154.392 Y95.493 E1.50744
G1 X155.383 Y95.124 E1.55668
G1 X156.55 Y94.777 E1.61337
G1 X157.59 Y94.543 E1.66301
G1 X158.796 Y94.358 E1.71982
G1 X159.714 Y94.272 E1.76276
G1 X160.627 Y94.241 E1.80529
G1 X161.297 Y94.248 E1.83649
G1 X161.931 Y94.281 E1.86606
G1 X162.721 Y94.362 E1.90303
G1 X163.901 Y94.545 E1.95864
G1 X164.929 Y94.777 E2.00771
G1 X166.096 Y95.124 E2.0644
G1 X167.087 Y95.493 E2.11364
G1 X168.195 Y95.994 E2.17026
G1 X168.897 Y96.355 E2.20702
G1 X169.24 Y96.567 E2.2258
G1 X170.518 Y97.4 E2.29683
G1 X171.157 Y97.864 E2.3336
G1 X171.461 Y98.122 E2.35217
G1 X172.366 Y98.932 E2.40872
G1 X173.018 Y99.59 E2.45186
G1 X173.622 Y100.276 E2.49442
G1 X174.266 Y101.115 E2.54367
G1 X175.11 Y102.386 E2.61471
G1 X175.513 Y103.065 E2.65148
G1 X175.693 Y103.43 E2.67043
G1 X176.203 Y104.534 E2.72705
G1 X176.581 Y105.524 E2.7764
G1 X176.937 Y106.688 E2.83308
G1 X177.154 Y107.583 E2.87596
G1 X177.317 Y108.486 E2.91869
G1 X177.427 Y109.409 E2.96197
G1 X177.499 Y110.621 E3.0185
G1 X177.49 Y111.679 E3.06777
G1 X177.397 Y112.895 E3.12456
G1 X177.271 Y113.817 E3.16789
G1 X177.093 Y114.715 E3.21052
G1 X176.823 Y115.721 E3.25902
G1 X176.34 Y117.134 E3.32855
G1 X175.931 Y118.109 E3.37778
G1 X175.509 Y118.95 E3.4216
G1 X175.108 Y119.654 E3.45932
G1 X174.615 Y120.425 E3.50194
G1 X174.367 Y120.767 E3.52161
G1 X175.11 Y121.886 E3.58415
G1 X175.513 Y122.565 E3.62092
G1 X175.768 Y123.092 E3.64818
G1 X176.616 Y122.879 E3.68889
G1 X177.818 Y122.662 E3.74577
G1 X178.89 Y122.544 E3.79599
G1 X180.13 Y122.494 E3.85377
G1 X181.042 Y122.511 E3.89625
G1 X181.927 Y122.579 E3.93758
G1 X182.724 Y122.682 E3.975
G1 X183.626 Y122.846 E4.01769
G1 X184.506 Y123.059 E4.05985
G1 X185.67 Y123.414 E4.11651
G1 X186.551 Y123.742 E4.16029
G1 X187.385 Y124.111 E4.20275
G1 X188.205 Y124.534 E4.24572
G1 X189.253 Y125.155 E4.30244
G1 X189.911 Y125.591 E4.3392
G1 X190.228 Y125.838 E4.35791
G1 X191.404 Y126.804 E4.42877
G1 X191.988 Y127.335 E4.46553
G1 X192.264 Y127.628 E4.48427
G1 X193.077 Y128.536 E4.54102
G1 X193.573 Y129.15 E4.57778
G1 X193.799 Y129.477 E4.59629
G1 X194.632 Y130.754 E4.66728
G1 X195.029 Y131.437 E4.70407
G1 X195.206 Y131.802 E4.72295
G1 X195.707 Y132.91 E4.77958
G1 X196.079 Y133.909 E4.82921
G1 X196.425 Y135.077 E4.88594
G1 X196.655 Y136.101 E4.93481
G1 X196.841 Y137.305 E4.99154
G1 X196.928 Y138.231 E5.03484
G1 X196.959 Y139.144 E5.07738
G1 X196.952 Y139.814 E5.10858
G1 X196.919 Y140.449 E5.13819
G1 X196.837 Y141.246 E5.1755
G1 X196.653 Y142.426 E5.23111
G1 X196.425 Y143.437 E5.27937
G1 X196.08 Y144.603 E5.33599
G1 X195.708 Y145.604 E5.38571
G1 X195.206 Y146.714 E5.44244
G1 X194.845 Y147.416 E5.47919
G1 X194.632 Y147.762 E5.49811
G1 X193.799 Y149.039 E5.56911
G1 X193.335 Y149.677 E5.60584
G1 X193.06 Y149.999 E5.62556
G1 X193.571 Y150.628 E5.6633
G1 X193.8 Y150.961 E5.68212
G1 X194.633 Y152.239 E5.75315
G1 X195.031 Y152.921 E5.78992
G1 X195.206 Y153.284 E5.80868
G1 X195.707 Y154.392 E5.8653
G1 X196.078 Y155.389 E5.91484
G1 X196.424 Y156.556 E5.97152
G1 X196.655 Y157.582 E6.02049
G1 X196.841 Y158.786 E6.07722
G1 X196.928 Y159.713 E6.12057
G1 X196.959 Y160.627 E6.16316
G1 X196.952 Y161.296 E6.19431
G1 X196.919 Y161.931 E6.22392
G1 X196.837 Y162.728 E6.26122
G1 X196.653 Y163.908 E6.31683
G1 X196.425 Y164.921 E6.36518
G1 X196.08 Y166.086 E6.42176
G1 X195.708 Y167.085 E6.4714
G1 X195.206 Y168.195 E6.52812
G1 X194.845 Y168.897 E6.56488
G1 X194.633 Y169.24 E6.58366
G1 X193.8 Y170.518 E6.65469
G1 X193.336 Y171.157 E6.69146
G1 X193.075 Y171.465 E6.71026
G1 X192.264 Y172.37 E6.76685
G1 X191.609 Y173.018 E6.80975
G1 X190.923 Y173.622 E6.85231
G1 X190.086 Y174.264 E6.90143
G1 X188.816 Y175.108 E6.97243
G1 X188.137 Y175.512 E7.00922
G1 X187.77 Y175.693 E7.02828
G1 X186.666 Y176.203 E7.0849
G1 X185.676 Y176.581 E7.13425
G1 X184.512 Y176.937 E7.19093
G1 X183.617 Y177.154 E7.23381
G1 X182.714 Y177.317 E7.27654
G1 X181.79 Y177.427 E7.31987
G1 X180.577 Y177.499 E7.37645
G1 X179.52 Y177.49 E7.42567
G1 X178.305 Y177.397 E7.48241
G1 X177.383 Y177.271 E7.52574
G1 X176.485 Y177.093 E7.56837
G1 X175.783 Y176.905 E7.60221
G1 X175.509 Y177.45 E7.63061
G1 X175.108 Y178.154 E7.66834
G1 X174.615 Y178.925 E7.71095
G1 X174.367 Y179.267 E7.73062
G1 X175.11 Y180.386 E7.79317
G1 X175.513 Y181.065 E7.82994
G1 X175.693 Y181.43 E7.84889
G1 X176.203 Y182.534 E7.90551
G1 X176.581 Y183.524 E7.95486
G1 X176.937 Y184.688 E8.01154
G1 X177.154 Y185.583 E8.05442
G1 X177.317 Y186.486 E8.09715
G1 X177.427 Y187.409 E8.14043
G1 X177.499 Y188.621 E8.19696
G1 X177.49 Y189.679 E8.24623
G1 X177.397 Y190.895 E8.30302
G1 X177.271 Y191.817 E8.34635
G1 X177.093 Y192.715 E8.38898
G1 X176.823 Y193.721 E8.43748
G1 X176.34 Y195.134 E8.50701
G1 X175.931 Y196.109 E8.55624
G1 X175.509 Y196.95 E8.60006
G1 X175.108 Y197.654 E8.63778
G1 X174.615 Y198.425 E8.6804
G1 X174.074 Y199.17 E8.72327
G1 X173.302 Y200.111 E8.77995
G1 X172.662 Y200.802 E8.8238
G1 X172.002 Y201.433 E8.86632
G1 X171.41 Y201.945 E8.90277
G1 X170.687 Y202.509 E8.94546
G1 X169.926 Y203.033 E8.98849
G1 X168.886 Y203.662 E9.04508
G1 X168.19 Y204.036 E9.08187
G1 X167.818 Y204.201 E9.10082
G1 X166.409 Y204.781 E9.17177
G1 X165.665 Y205.044 E9.20852
G1 X165.267 Y205.151 E9.22771
G1 X164.059 Y205.442 E9.28557
G1 X163.143 Y205.606 E9.3289
G1 X162.259 Y205.71 E9.37034
G1 X161.348 Y205.763 E9.41284
G1 X160.131 Y205.763 E9.4695
G1 X159.342 Y205.723 E9.50629
G1 X158.943 Y205.672 E9.52502
G1 X157.437 Y205.44 E9.59597
G1 X156.406 Y205.209 E9.64517
G1 X155.53 Y204.949 E9.68772
G1 X154.534 Y204.578 E9.73721
G1 X153.15 Y203.952 E9.80794
G1 X152.213 Y203.448 E9.85748
G1 X151.437 Y202.96 E9.90017
G1 X150.798 Y202.512 E9.93651
G1 X149.995 Y201.887 E9.98389
G1 X149.21 Y202.506 E10.03044
G1 X148.442 Y203.035 E10.07386
G1 X147.401 Y203.664 E10.1305
G1 X146.705 Y204.038 E10.16729
G1 X146.336 Y204.201 E10.18607
G1 X144.927 Y204.781 E10.25702
G1 X144.183 Y205.044 E10.29377
G1 X143.785 Y205.151 E10.31296
G1 X142.577 Y205.442 E10.37082
G1 X141.661 Y205.606 E10.41415
G1 X140.777 Y205.71 E10.45559
G1 X139.866 Y205.763 E10.49809
G1 X138.65 Y205.763 E10.55471
G1 X137.861 Y205.723 E10.59149
G1 X137.463 Y205.672 E10.61018
G1 X135.956 Y205.44 E10.68118
G1 X134.924 Y205.209 E10.73042
G1 X134.048 Y204.949 E10.77297
G1 X133.052 Y204.578 E10.82246
G1 X131.668 Y203.952 E10.89319
G1 X130.731 Y203.448 E10.94273
G1 X129.955 Y202.96 E10.98542
G1 X129.316 Y202.512 E11.02176
G1 X128.594 Y201.95 E11.06436
G1 X127.895 Y201.336 E11.10768
G1 X127.03 Y200.479 E11.16438
G1 X126.408 Y199.785 E11.20778
G1 X125.841 Y199.07 E11.25027
G1 X125.378 Y198.419 E11.28747
G1 X124.886 Y197.648 E11.33005
G1 X124.439 Y196.848 E11.37273
G1 X123.908 Y195.75 E11.42952
G1 X123.511 Y194.761 E11.47914
G1 X123.136 Y193.605 E11.53573
G1 X122.879 Y192.584 E11.58476
G1 X122.662 Y191.382 E11.64163
G1 X122.544 Y190.311 E11.6918
G1 X122.494 Y189.072 E11.74954
G1 X122.511 Y188.16 E11.79202
G1 X122.579 Y187.274 E11.8334
G1 X122.682 Y186.476 E11.87086
G1 X122.846 Y185.574 E11.91355
G1 X123.059 Y184.696 E11.95562
G1 X123.413 Y183.534 E12.01218
G1 X123.741 Y182.65 E12.05609
G1 X124.111 Y181.814 E12.09866
G1 X124.534 Y180.995 E12.14158
G1 X125.155 Y179.947 E12.1983
G1 X125.617 Y179.255 E12.23705
G1 X125.378 Y178.919 E12.25625
G1 X124.886 Y178.148 E12.29883
G1 X124.439 Y177.348 E12.34151
G1 X124.226 Y176.909 E12.36423
G1 X123.217 Y177.154 E12.41258
G1 X122.314 Y177.317 E12.4553
G1 X121.39 Y177.427 E12.49863
G1 X120.177 Y177.499 E12.55521
G1 X119.119 Y177.49 E12.60448
G1 X117.905 Y177.397 E12.66118
G1 X116.986 Y177.271 E12.70437
G1 X116.087 Y177.093 E12.74704
G1 X115.077 Y176.822 E12.79574
G1 X113.665 Y176.339 E12.86522
G1 X112.695 Y175.932 E12.91421
G1 X111.851 Y175.509 E12.95817
G1 X111.14 Y175.105 E12.99624
G1 X110.37 Y174.612 E13.03882
G1 X109.629 Y174.073 E13.08148
G1 X108.688 Y173.301 E13.13816
G1 X107.997 Y172.661 E13.18202
G1 X107.365 Y172 E13.2246
G1 X106.851 Y171.405 E13.26121
G1 X106.289 Y170.684 E13.30378
G1 X105.766 Y169.925 E13.3467
G1 X105.136 Y168.883 E13.4034
G1 X104.762 Y168.187 E13.44019
G1 X104.598 Y167.816 E13.45908
G1 X104.018 Y166.407 E13.53003
G1 X103.755 Y165.663 E13.56677
G1 X103.647 Y165.262 E13.58611
G1 X103.357 Y164.056 E13.64387
G1 X103.195 Y163.145 E13.68695
G1 X103.091 Y162.263 E13.72831
G1 X103.037 Y161.35 E13.77089
G1 X103.037 Y160.131 E13.82766
G1 X103.077 Y159.342 E13.86444
G1 X103.128 Y158.943 E13.88317
G1 X103.36 Y157.437 E13.95413
G1 X103.59 Y156.409 E14.00318
G1 X103.849 Y155.535 E14.04562
G1 X104.221 Y154.536 E14.09526
G1 X104.848 Y153.15 E14.1661
G1 X105.351 Y152.215 E14.21553
G1 X105.838 Y151.44 E14.25816
G1 X106.286 Y150.8 E14.29453
G1 X106.913 Y149.995 E14.34204
G1 X106.292 Y149.207 E14.38876
G1 X105.764 Y148.441 E14.43208
G1 X105.134 Y147.398 E14.48882
G1 X104.761 Y146.702 E14.52559
G1 X104.598 Y146.334 E14.54433
G1 X104.018 Y144.925 E14.61528
G1 X103.755 Y144.181 E14.65203
G1 X103.647 Y143.78 E14.67136
G1 X103.357 Y142.574 E14.72912
G1 X103.195 Y141.663 E14.77221
G1 X103.091 Y140.781 E14.81356
G1 X103.037 Y139.868 E14.85615
G1 X103.037 Y138.65 E14.91286
G1 X103.077 Y137.861 E14.94965
G1 X103.128 Y137.463 E14.96833
G1 X103.36 Y135.956 E15.03933
G1 X103.59 Y134.927 E15.08843
G1 X103.849 Y134.053 E15.13088
G1 X104.221 Y133.054 E15.18051
G1 X104.848 Y131.668 E15.25135
G1 X105.351 Y130.733 E15.30079
G1 X105.838 Y129.958 E15.34341
G1 X106.286 Y129.318 E15.37978
G1 X106.847 Y128.597 E15.42232
G1 X107.462 Y127.897 E15.46571
G1 X108.319 Y127.032 E15.52241
G1 X109.012 Y126.411 E15.56574
G1 X109.728 Y125.843 E15.6083
G1 X110.376 Y125.381 E15.64535
G1 X111.146 Y124.889 E15.6879
G1 X111.95 Y124.44 E15.73078
G1 X113.05 Y123.908 E15.78768
G1 X114.039 Y123.511 E15.8373
G1 X115.195 Y123.136 E15.89389
G1 X116.216 Y122.879 E15.94292
G1 X117.418 Y122.662 E15.99979
G1 X118.49 Y122.544 E16.05001
G1 X119.73 Y122.494 E16.1078
G1 X120.642 Y122.511 E16.15027
G1 X121.527 Y122.579 E16.1916
G1 X122.324 Y122.682 E16.22902
G1 X123.226 Y122.846 E16.27171
G1 X124.227 Y123.089 E16.31968
G1 X124.534 Y122.495 E16.35081
G1 X125.155 Y121.447 E16.40753
G1 X125.617 Y120.755 E16.44628
G1 X125.378 Y120.419 E16.46548
G1 X124.886 Y119.648 E16.50806
G1 X124.439 Y118.848 E16.55074
G1 X123.908 Y117.75 E16.60753
G1 X123.511 Y116.761 E16.65715
G1 X123.136 Y115.605 E16.71374
G1 X122.879 Y114.584 E16.76277
G1 X122.662 Y113.382 E16.81964
G1 X122.544 Y112.311 E16.86981
G1 X122.494 Y111.072 E16.92755
G1 X122.511 Y110.16 E16.97003
G1 X122.579 Y109.274 E17.01141
G1 X122.682 Y108.476 E17.04887
G1 X122.846 Y107.574 E17.09156
G1 X123.059 Y106.696 E17.13363
G1 X123.413 Y105.534 E17.19019
G1 X123.741 Y104.65 E17.2341
G1 X124.111 Y103.814 E17.27667
G1 X124.534 Y102.995 E17.31959
G1 X125.155 Y101.947 E17.37631
G1 X125.496 Y101.432 E17.40507
G0 F1080 X125.591 Y101.289
G0 X125.836 Y100.975
G0 F6000 X126.145 Y101.228
G1 F1200 X127.111 Y100.051 E17.47598
G1 X127.898 Y99.23 E17.52893
G1 X128.806 Y98.418 E17.58565
G1 X129.696 Y97.736 E17.63786
G1 X130.973 Y96.903 E17.70886
G1 X131.967 Y96.358 E17.76164
G1 X133.075 Y95.857 E17.81827
G1 X134.017 Y95.506 E17.86508
G1 X135.185 Y95.159 E17.92181
G1 X136.17 Y94.939 E17.96881
G1 X137.376 Y94.754 E18.02562
G1 X138.247 Y94.672 E18.06636
G1 X139.159 Y94.641 E18.10885
G1 X139.795 Y94.647 E18.13847
G1 X140.429 Y94.68 E18.16803
G1 X141.178 Y94.757 E18.20309
G1 X142.358 Y94.94 E18.25869
G1 X143.331 Y95.159 E18.30513
G1 X144.499 Y95.506 E18.36187
G1 X145.441 Y95.857 E18.40868
G1 X146.549 Y96.358 E18.4653
G1 X147.543 Y96.903 E18.51808
G1 X148.82 Y97.736 E18.58908
G1 X149.709 Y98.417 E18.64122
G1 X149.999 Y98.676 E18.65933
G1 X150.284 Y98.421 E18.67714
G1 X151.179 Y97.735 E18.72965
G1 X152.457 Y96.902 E18.80068
G1 X153.449 Y96.358 E18.85336
G1 X154.557 Y95.857 E18.90998
G1 X155.497 Y95.507 E18.95669
G1 X156.664 Y95.16 E19.01338
G1 X157.651 Y94.939 E19.06048
G1 X158.857 Y94.754 E19.11729
G1 X159.728 Y94.672 E19.15803
G1 X160.641 Y94.641 E19.20056
G1 X161.277 Y94.647 E19.23018
G1 X161.911 Y94.68 E19.25974
G1 X162.66 Y94.757 E19.2948
G1 X163.84 Y94.94 E19.35041
G1 X164.815 Y95.16 E19.39695
G1 X165.982 Y95.507 E19.45364
G1 X166.922 Y95.857 E19.50034
G1 X168.03 Y96.358 E19.55697
G1 X169.022 Y96.902 E19.60965
G1 X170.3 Y97.735 E19.68068
G1 X171.194 Y98.42 E19.73313
G1 X172.099 Y99.23 E19.78968
G1 X172.718 Y99.854 E19.83061
G1 X173.322 Y100.54 E19.87317
G1 X173.933 Y101.336 E19.91989
G1 X174.777 Y102.607 E19.99094
G1 X175.33 Y103.598 E20.04378
G1 X175.84 Y104.702 E20.10041
G1 X176.198 Y105.641 E20.1472
G1 X176.554 Y106.805 E20.20388
G1 X176.76 Y107.654 E20.24456
G1 X176.923 Y108.557 E20.28729
G1 X177.028 Y109.433 E20.32837
G1 X177.1 Y110.645 E20.3849
G1 X177.091 Y111.648 E20.43161
G1 X176.998 Y112.864 E20.4884
G1 X176.879 Y113.739 E20.52952
G1 X176.701 Y114.637 E20.57214
G1 X176.444 Y115.592 E20.6182
G1 X175.961 Y117.005 E20.68773
G1 X175.573 Y117.93 E20.73444
G1 X175.151 Y118.771 E20.77825
G1 X174.771 Y119.438 E20.81399
G1 X174.278 Y120.209 E20.85661
G1 X173.881 Y120.758 E20.88816
G1 X174.777 Y122.107 E20.96356
G1 X175.33 Y123.098 E21.01641
G1 X175.544 Y123.56 E21.04012
G1 X176.687 Y123.273 E21.09499
G1 X177.889 Y123.056 E21.15187
G1 X178.906 Y122.944 E21.19951
G1 X180.146 Y122.894 E21.25729
G1 X181.011 Y122.91 E21.29758
G1 X181.896 Y122.978 E21.33891
G1 X182.653 Y123.075 E21.37445
G1 X183.555 Y123.239 E21.41714
G1 X184.39 Y123.442 E21.45715
G1 X185.554 Y123.797 E21.51382
G1 X186.389 Y124.108 E21.55531
G1 X187.223 Y124.477 E21.59777
G1 X188.001 Y124.878 E21.63853
G1 X189.049 Y125.499 E21.69525
G1 X189.974 Y126.147 E21.74784
G1 X191.15 Y127.113 E21.81871
G1 X191.966 Y127.895 E21.87133
G1 X192.779 Y128.803 E21.92808
G1 X193.464 Y129.696 E21.98049
G1 X194.297 Y130.973 E22.05149
G1 X194.842 Y131.967 E22.10427
G1 X195.343 Y133.075 E22.16089
G1 X195.695 Y134.022 E22.20794
G1 X196.041 Y135.19 E22.26466
G1 X196.259 Y136.162 E22.31105
G1 X196.445 Y137.366 E22.36777
G1 X196.528 Y138.245 E22.40889
G1 X196.559 Y139.158 E22.45142
G1 X196.553 Y139.793 E22.48099
G1 X196.52 Y140.428 E22.5106
G1 X196.442 Y141.184 E22.54599
G1 X196.258 Y142.364 E22.6016
G1 X196.042 Y143.324 E22.64742
