;FLAVOR:Marlin
;TIME:2356
;Filament used: 1.60036m
;Layer height: 0.2
;MINX:106.517
;MINY:103.901
;MINZ:0.28
;MAXX:185.908
;MAXY:183.271
;MAXZ:3.08
;Generated with Cura_SteamEngine 5.2.1
M140 S85
M105
M190 S85
M82 ;absolute extrusion mode
M201 X500.00 Y500.00 Z100.00 E5000.00 ;Setup machine max acceleration
M203 X500.00 Y500.00 Z10.00 E50.00 ;Setup machine max feedrate
M204 P500.00 R1000.00 T500.00 ;Setup Print/Retract/Travel acceleration
M205 X8.00 Y8.00 Z0.40 E5.00 ;Setup Jerk
M220 S100 ;Reset Feedrate
M221 S100 ;Reset Flowrate
M140 S85.0 ; set bed temp
M190 S85.0 ; wait for bed temp
G28; home all
G29;
G92 E0 ;Reset Extruder
G1 Z2.0 F3000 ;Move Z Axis up
G1 X10.1 Y20 Z0.28 F5000.0 ;Move to start position
M104 S235 ; wait for extruder printing temp
M109 S235 ; wait for extruder printing temp
G1 X10.1 Y200.0 Z0.28 F1500.0 E15 ;Draw the first line
G1 X10.4 Y200.0 Z0.28 F5000.0 ;Move to side a little
G1 X10.4 Y20 Z0.28 F1500.0 E30 ;Draw the second line
G92 E0 ;Reset Extruder
G1 Z2.0 F3000 ;Move Z Axis up
G92 E0
G92 E0
G1 F3000 E-3
;LAYER_COUNT:14
;LAYER:0
M107
G1 F300 Z0.48
G0 F6000 X124.954 Y109.456 Z0.48
;TYPE:SKIRT
G1 F300 Z0.28
G1 F3000 E0
G1 F1200 X125.485 Y108.872 E0.03675
G1 X125.778 Y108.596 E0.0555
G1 X126.686 Y107.783 E0.11225
G1 X127.3 Y107.287 E0.149
G1 X127.627 Y107.061 E0.16751
G1 X128.904 Y106.228 E0.23851
G1 X129.587 Y105.831 E0.27529
G1 X129.955 Y105.653 E0.29433
G1 X131.064 Y105.152 E0.35099
G1 X132.058 Y104.782 E0.40038
G1 X133.225 Y104.436 E0.45706
G1 X134.253 Y104.205 E0.50612
G1 X135.459 Y104.019 E0.56294
G1 X136.383 Y103.932 E0.60616
G1 X137.296 Y103.901 E0.64869
G1 X137.967 Y103.908 E0.67994
G1 X138.6 Y103.941 E0.70945
G1 X139.396 Y104.023 E0.74672
G1 X140.576 Y104.207 E0.80233
G1 X141.589 Y104.435 E0.85067
G1 X142.757 Y104.781 E0.9074
G1 X143.756 Y105.153 E0.95704
G1 X144.864 Y105.654 E1.01366
G1 X145.566 Y106.015 E1.05042
G1 X145.909 Y106.227 E1.06919
G1 X147.187 Y107.06 E1.14023
G1 X147.826 Y107.524 E1.177
G1 X148.134 Y107.785 E1.1958
G1 X149.039 Y108.596 E1.25238
G1 X149.687 Y109.251 E1.29528
G1 X150.291 Y109.937 E1.33784
G1 X150.933 Y110.774 E1.38696
G1 X151.777 Y112.044 E1.45797
G1 X152.181 Y112.723 E1.49476
G1 X152.362 Y113.09 E1.51381
G1 X152.874 Y114.2 E1.57073
G1 X153.211 Y114.18 E1.58645
G1 X154.427 Y114.18 E1.64307
G1 X155.216 Y114.22 E1.67986
G1 X155.614 Y114.271 E1.69854
G1 X157.121 Y114.503 E1.76954
G1 X158.153 Y114.734 E1.81879
G1 X159.029 Y114.994 E1.86133
G1 X160.025 Y115.365 E1.91083
G1 X161.409 Y115.991 E1.98156
G1 X162.346 Y116.495 E2.0311
G1 X163.122 Y116.983 E2.07378
G1 X163.761 Y117.431 E2.11012
G1 X164.483 Y117.993 E2.15273
G1 X165.182 Y118.607 E2.19605
G1 X166.045 Y119.462 E2.25261
G1 X166.666 Y120.155 E2.29594
G1 X167.234 Y120.871 E2.3385
G1 X167.696 Y121.519 E2.37556
G1 X168.188 Y122.289 E2.41811
G1 X168.636 Y123.091 E2.46088
G1 X169.167 Y124.188 E2.51763
G1 X169.565 Y125.179 E2.56736
G1 X169.941 Y126.338 E2.6241
G1 X170.198 Y127.359 E2.67312
G1 X170.415 Y128.561 E2.73
G1 X170.533 Y129.632 E2.78017
G1 X170.552 Y130.091 E2.80156
G1 X171.125 Y130.15 E2.82838
G1 X172.305 Y130.334 E2.88399
G1 X173.326 Y130.565 E2.93274
G1 X174.493 Y130.912 E2.98943
G1 X175.481 Y131.28 E3.03852
G1 X176.59 Y131.781 E3.09519
G1 X177.293 Y132.142 E3.13198
G1 X177.637 Y132.354 E3.1508
G1 X178.914 Y133.186 E3.22177
G1 X179.553 Y133.65 E3.25854
G1 X179.858 Y133.909 E3.27717
G1 X180.764 Y134.72 E3.33379
G1 X181.42 Y135.382 E3.37719
G1 X182.023 Y136.068 E3.41972
G1 X182.661 Y136.901 E3.46858
G1 X183.505 Y138.171 E3.53958
G1 X183.909 Y138.85 E3.57637
G1 X184.09 Y139.217 E3.59543
G1 X184.6 Y140.321 E3.65205
G1 X184.978 Y141.313 E3.70148
G1 X185.334 Y142.478 E3.75821
G1 X185.551 Y143.37 E3.80095
G1 X185.714 Y144.272 E3.84364
G1 X185.824 Y145.197 E3.88701
G1 X185.896 Y146.411 E3.94364
G1 X185.908 Y147.053 E3.97354
G1 X185.881 Y147.766 E4.00676
G1 X185.839 Y148.321 E4.03268
G1 X185.758 Y149.046 E4.06665
G1 X185.668 Y149.602 E4.09288
G1 X185.49 Y150.501 E4.13555
G1 X185.219 Y151.511 E4.18424
G1 X184.736 Y152.923 E4.25373
G1 X184.328 Y153.896 E4.30286
G1 X183.906 Y154.737 E4.34667
G1 X183.505 Y155.441 E4.3844
G1 X183.012 Y156.212 E4.42701
G1 X182.471 Y156.957 E4.46989
G1 X181.699 Y157.898 E4.52656
G1 X181.064 Y158.585 E4.57012
G1 X180.404 Y159.217 E4.61267
G1 X179.807 Y159.733 E4.64942
G1 X179.084 Y160.297 E4.69211
G1 X178.323 Y160.821 E4.73514
G1 X177.283 Y161.45 E4.79173
G1 X176.587 Y161.824 E4.82852
G1 X176.285 Y161.958 E4.84391
G1 X176.358 Y162.198 E4.85559
G1 X176.575 Y163.091 E4.89838
G1 X176.738 Y163.994 E4.94111
G1 X176.848 Y164.918 E4.98444
G1 X176.92 Y166.131 E5.04102
G1 X176.931 Y166.798 E5.07208
G1 X176.905 Y167.475 E5.10363
G1 X176.864 Y168.028 E5.12945
G1 X176.782 Y168.764 E5.16393
G1 X176.692 Y169.322 E5.19025
G1 X176.514 Y170.221 E5.23293
G1 X176.243 Y171.231 E5.28162
G1 X175.76 Y172.643 E5.35111
G1 X175.35 Y173.62 E5.40044
G1 X174.927 Y174.462 E5.44432
G1 X174.532 Y175.156 E5.4815
G1 X174.04 Y175.927 E5.52409
G1 X173.495 Y176.678 E5.5673
G1 X172.723 Y177.619 E5.62398
G1 X172.083 Y178.31 E5.66783
G1 X171.423 Y178.941 E5.71035
G1 X170.831 Y179.453 E5.7468
G1 X170.108 Y180.017 E5.78949
G1 X169.344 Y180.543 E5.83268
G1 X168.303 Y181.172 E5.88932
G1 X167.607 Y181.546 E5.92611
G1 X167.24 Y181.708 E5.94479
G1 X165.832 Y182.288 E6.0157
G1 X165.087 Y182.551 E6.05249
G1 X164.688 Y182.659 E6.07173
G1 X163.48 Y182.95 E6.12959
G1 X162.563 Y183.114 E6.17297
G1 X161.678 Y183.218 E6.21446
G1 X160.768 Y183.271 E6.25691
G1 X159.552 Y183.271 E6.31353
G1 X158.763 Y183.231 E6.35032
G1 X158.364 Y183.18 E6.36905
G1 X156.858 Y182.948 E6.44
G1 X155.827 Y182.717 E6.4892
G1 X154.951 Y182.457 E6.53175
G1 X153.955 Y182.086 E6.58124
G1 X152.571 Y181.46 E6.65197
G1 X151.634 Y180.956 E6.70151
G1 X150.858 Y180.468 E6.74419
G1 X150.219 Y180.02 E6.78053
G1 X149.889 Y179.763 E6.80001
G1 X149.627 Y179.964 E6.81539
G1 X148.357 Y180.808 E6.88639
G1 X147.678 Y181.212 E6.92318
G1 X147.311 Y181.393 E6.94224
G1 X146.207 Y181.903 E6.99886
G1 X145.215 Y182.281 E7.04829
G1 X144.05 Y182.637 E7.10502
G1 X143.157 Y182.854 E7.14781
G1 X142.254 Y183.017 E7.19054
G1 X141.33 Y183.127 E7.23387
G1 X140.116 Y183.199 E7.29049
G1 X139.449 Y183.21 E7.32156
G1 X138.773 Y183.184 E7.35306
G1 X138.22 Y183.143 E7.37888
G1 X137.484 Y183.061 E7.41336
G1 X136.926 Y182.971 E7.43968
G1 X136.027 Y182.793 E7.48235
G1 X135.017 Y182.522 E7.53105
G1 X133.605 Y182.039 E7.60054
G1 X132.625 Y181.627 E7.65004
G1 X131.782 Y181.203 E7.69398
G1 X131.087 Y180.808 E7.7312
G1 X130.317 Y180.316 E7.77375
G1 X129.573 Y179.776 E7.81656
G1 X128.631 Y179.004 E7.87327
G1 X127.937 Y178.361 E7.91732
G1 X127.305 Y177.7 E7.9599
G1 X126.791 Y177.105 E7.99652
G1 X126.229 Y176.384 E8.03908
G1 X125.704 Y175.622 E8.08217
G1 X125.074 Y174.579 E8.13891
G1 X124.701 Y173.883 E8.17568
G1 X124.537 Y173.512 E8.19457
G1 X124.269 Y172.859 E8.22744
G1 X123.352 Y172.897 E8.27017
G1 X122.425 Y172.88 E8.31334
G1 X121.539 Y172.811 E8.35472
G1 X120.756 Y172.71 E8.39149
G1 X119.855 Y172.547 E8.43412
G1 X118.97 Y172.333 E8.47652
G1 X117.805 Y171.978 E8.53323
G1 X116.922 Y171.65 E8.57709
G1 X116.086 Y171.28 E8.61966
G1 X115.264 Y170.856 E8.66273
G1 X114.217 Y170.235 E8.71941
G1 X113.559 Y169.798 E8.75619
G1 X113.244 Y169.553 E8.77477
G1 X112.067 Y168.586 E8.8457
G1 X111.483 Y168.054 E8.88249
G1 X111.207 Y167.761 E8.90123
G1 X110.396 Y166.855 E8.95785
G1 X109.9 Y166.241 E8.99461
G1 X109.673 Y165.911 E9.01326
G1 X108.841 Y164.634 E9.08423
G1 X108.444 Y163.951 E9.12101
G1 X108.269 Y163.59 E9.13969
G1 X107.767 Y162.48 E9.19642
G1 X107.396 Y161.485 E9.24587
G1 X107.05 Y160.319 E9.3025
G1 X106.818 Y159.283 E9.35194
G1 X106.633 Y158.077 E9.40875
G1 X106.548 Y157.159 E9.45168
G1 X106.517 Y156.248 E9.49412
G1 X106.523 Y155.578 E9.52532
G1 X106.556 Y154.943 E9.55493
G1 X106.637 Y154.153 E9.59191
G1 X106.82 Y152.973 E9.64751
G1 X107.05 Y151.949 E9.69638
G1 X107.396 Y150.783 E9.75301
G1 X107.767 Y149.788 E9.80246
G1 X108.269 Y148.678 E9.85919
G1 X108.63 Y147.976 E9.89594
G1 X108.841 Y147.634 E9.91466
G1 X109.673 Y146.357 E9.98563
G1 X110.137 Y145.718 E10.0224
G1 X110.396 Y145.413 E10.04103
G1 X111.207 Y144.507 E10.09765
G1 X111.865 Y143.855 E10.14078
G1 X112.551 Y143.251 E10.18334
G1 X113.391 Y142.606 E10.23266
G1 X114.661 Y141.763 E10.30364
G1 X115.341 Y141.361 E10.34042
G1 X115.699 Y141.183 E10.35904
G1 X116.884 Y140.635 E10.41983
G1 X116.851 Y139.839 E10.45693
G1 X116.868 Y138.912 E10.5001
G1 X116.937 Y138.026 E10.54148
G1 X117.038 Y137.243 E10.57824
G1 X117.201 Y136.342 E10.62088
G1 X117.414 Y135.46 E10.66313
G1 X117.768 Y134.297 E10.71973
G1 X118.097 Y133.411 E10.76374
G1 X118.467 Y132.575 E10.80631
G1 X118.89 Y131.756 E10.84923
G1 X119.511 Y130.708 E10.90596
G1 X119.947 Y130.05 E10.94271
G1 X120.194 Y129.733 E10.96143
G1 X121.16 Y128.557 E11.03229
G1 X121.691 Y127.973 E11.06904
G1 X122.123 Y127.572 E11.09649
G1 X121.659 Y126.415 E11.15454
G1 X121.285 Y125.259 E11.21111
G1 X121.03 Y124.244 E11.25984
G1 X120.813 Y123.042 E11.31672
G1 X120.696 Y121.977 E11.36661
G1 X120.645 Y120.738 E11.42435
G1 X120.662 Y119.811 E11.46752
G1 X120.731 Y118.925 E11.5089
G1 X120.832 Y118.142 E11.54566
G1 X120.995 Y117.241 E11.5883
G1 X121.21 Y116.353 E11.63084
G1 X121.565 Y115.19 E11.68746
G1 X121.889 Y114.317 E11.73082
G1 X122.258 Y113.481 E11.77337
G1 X122.684 Y112.655 E11.81665
G1 X123.305 Y111.607 E11.87337
G1 X123.741 Y110.949 E11.91013
G1 X123.988 Y110.632 E11.92884
G1 X124.592 Y109.896 E11.97318
G0 F1080 X124.954 Y109.456
G0 F6000 X125.263 Y109.71
G1 F1200 X126.045 Y108.894 E12.0258
G1 X126.953 Y108.081 E12.08255
G1 X127.846 Y107.396 E12.13496
G1 X129.123 Y106.563 E12.20596
G1 X130.119 Y106.017 E12.25885
G1 X131.228 Y105.516 E12.31551
G1 X132.172 Y105.165 E12.36241
G1 X133.339 Y104.819 E12.41909
G1 X134.314 Y104.6 E12.46562
G1 X135.52 Y104.414 E12.52244
G1 X136.397 Y104.332 E12.56345
G1 X137.31 Y104.301 E12.60599
G1 X137.946 Y104.307 E12.63561
G1 X138.579 Y104.34 E12.66512
G1 X139.334 Y104.418 E12.70046
G1 X140.514 Y104.602 E12.75607
G1 X141.476 Y104.819 E12.80199
G1 X142.644 Y105.165 E12.85872
G1 X143.591 Y105.517 E12.90576
G1 X144.699 Y106.018 E12.96238
G1 X145.691 Y106.562 E13.01506
G1 X146.969 Y107.395 E13.0861
G1 X147.867 Y108.083 E13.13878
G1 X148.772 Y108.894 E13.19536
G1 X149.387 Y109.515 E13.23606
G1 X149.991 Y110.201 E13.27862
G1 X150.6 Y110.995 E13.32521
G1 X151.444 Y112.265 E13.39622
G1 X151.999 Y113.258 E13.44919
G1 X152.509 Y114.362 E13.50581
G1 X152.606 Y114.616 E13.51847
G1 X153.211 Y114.58 E13.5467
G1 X154.427 Y114.58 E13.60332
G1 X155.553 Y114.666 E13.6559
G1 X157.06 Y114.898 E13.7269
G1 X158.04 Y115.118 E13.77367
G1 X158.916 Y115.378 E13.81622
G1 X159.86 Y115.73 E13.86313
G1 X161.244 Y116.356 E13.93386
G1 X162.133 Y116.834 E13.98086
G1 X162.909 Y117.322 E14.02355
G1 X163.515 Y117.747 E14.05801
G1 X164.237 Y118.309 E14.10062
G1 X164.9 Y118.891 E14.1417
G1 X165.763 Y119.746 E14.19826
G1 X166.352 Y120.404 E14.23938
G1 X166.92 Y121.12 E14.28194
G1 X167.359 Y121.735 E14.31712
G1 X167.851 Y122.505 E14.35967
G1 X168.276 Y123.265 E14.40022
G1 X168.807 Y124.362 E14.45697
G1 X169.185 Y125.302 E14.50415
G1 X169.561 Y126.461 E14.56088
G1 X169.804 Y127.43 E14.6074
G1 X170.021 Y128.632 E14.66428
G1 X170.133 Y129.649 E14.71192
G1 X170.166 Y130.452 E14.74934
G1 X171.063 Y130.545 E14.79133
G1 X172.243 Y130.729 E14.84694
G1 X173.212 Y130.948 E14.8932
G1 X174.379 Y131.295 E14.94989
G1 X175.317 Y131.644 E14.9965
G1 X176.426 Y132.145 E15.05316
G1 X177.419 Y132.689 E15.10588
G1 X178.696 Y133.521 E15.17685
G1 X179.592 Y134.207 E15.2294
G1 X180.498 Y135.018 E15.28602
G1 X181.12 Y135.646 E15.32718
G1 X181.723 Y136.332 E15.36971
G1 X182.328 Y137.122 E15.41604
G1 X183.172 Y138.392 E15.48704
G1 X183.727 Y139.385 E15.54001
G1 X184.237 Y140.489 E15.59664
G1 X184.596 Y141.429 E15.64349
G1 X184.952 Y142.594 E15.70022
G1 X185.157 Y143.441 E15.7408
G1 X185.32 Y144.343 E15.78348
G1 X185.425 Y145.221 E15.82465
G1 X185.497 Y146.435 E15.88128
G1 X185.508 Y147.043 E15.9096
G1 X185.482 Y147.735 E15.94184
G1 X185.44 Y148.29 E15.96776
G1 X185.361 Y148.997 E16.00088
G1 X185.276 Y149.524 E16.02574
G1 X185.098 Y150.423 E16.06841
G1 X184.841 Y151.381 E16.1146
G1 X184.358 Y152.793 E16.18409
G1 X183.97 Y153.717 E16.23075
G1 X183.548 Y154.558 E16.27457
G1 X183.168 Y155.225 E16.31031
G1 X182.675 Y155.996 E16.35293
G1 X182.162 Y156.704 E16.39364
G1 X181.39 Y157.645 E16.45031
G1 X180.787 Y158.296 E16.49163
G1 X180.127 Y158.928 E16.53418
G1 X179.561 Y159.418 E16.56904
G1 X178.838 Y159.982 E16.61174
G1 X178.116 Y160.479 E16.65256
G1 X177.076 Y161.108 E16.70915
G1 X176.059 Y161.621 E16.76219
G1 X175.797 Y161.729 E16.77539
G1 X175.976 Y162.314 E16.80387
G1 X176.181 Y163.162 E16.8445
G1 X176.344 Y164.065 E16.88722
G1 X176.449 Y164.942 E16.92835
G1 X176.521 Y166.155 E16.98493
G1 X176.531 Y166.787 E17.01437
G1 X176.506 Y167.445 E17.04503
G1 X176.465 Y167.998 E17.07085
G1 X176.385 Y168.715 E17.10444
G1 X176.3 Y169.244 E17.12939
G1 X176.122 Y170.143 E17.17206
G1 X175.865 Y171.101 E17.21825
G1 X175.382 Y172.513 E17.28774
G1 X174.992 Y173.44 E17.33457
G1 X174.569 Y174.282 E17.37844
G1 X174.195 Y174.941 E17.41373
G1 X173.703 Y175.712 E17.45632
G1 X173.186 Y176.425 E17.49732
G1 X172.414 Y177.366 E17.554
G1 X171.807 Y178.021 E17.59558
G1 X171.147 Y178.652 E17.6381
G1 X170.585 Y179.138 E17.6727
G1 X169.862 Y179.702 E17.7154
G1 X169.137 Y180.201 E17.75638
G1 X168.096 Y180.83 E17.81301
G1 X167.088 Y181.338 E17.86557
G1 X165.68 Y181.918 E17.93648
G1 X164.594 Y182.27 E17.98964
G1 X163.386 Y182.561 E18.0475
G1 X162.517 Y182.716 E18.0886
G1 X161.632 Y182.82 E18.13009
G1 X160.768 Y182.871 E18.1704
G1 X159.552 Y182.871 E18.22702
G1 X158.425 Y182.785 E18.27965
G1 X156.919 Y182.553 E18.3506
G1 X155.94 Y182.333 E18.39732
G1 X155.064 Y182.073 E18.43987
G1 X154.12 Y181.721 E18.48679
G1 X152.736 Y181.095 E18.55752
G1 X151.847 Y180.617 E18.60452
G1 X151.071 Y180.129 E18.6472
G1 X150.465 Y179.704 E18.68167
G1 X149.892 Y179.258 E18.71548
G1 X149.406 Y179.631 E18.744
G1 X148.136 Y180.475 E18.81501
G1 X147.143 Y181.03 E18.86798
G1 X146.039 Y181.54 E18.92461
G1 X145.099 Y181.899 E18.97146
G1 X143.934 Y182.255 E19.02818
G1 X143.086 Y182.46 E19.06881
G1 X142.183 Y182.623 E19.11153
G1 X141.306 Y182.728 E19.15266
G1 X140.092 Y182.8 E19.20929
G1 X139.459 Y182.81 E19.23877
G1 X138.803 Y182.785 E19.26934
G1 X138.25 Y182.744 E19.29516
G1 X137.533 Y182.664 E19.32875
G1 X137.004 Y182.579 E19.3537
G1 X136.105 Y182.401 E19.39638
G1 X135.147 Y182.144 E19.44256
G1 X133.735 Y181.661 E19.51205
G1 X132.805 Y181.27 E19.55903
G1 X131.962 Y180.846 E19.60297
G1 X131.303 Y180.471 E19.63827
G1 X130.533 Y179.979 E19.68082
G1 X129.826 Y179.466 E19.72149
G1 X128.884 Y178.694 E19.77821
G1 X128.226 Y178.085 E19.81995
G1 X127.594 Y177.424 E19.86254
G1 X127.107 Y176.859 E19.89727
G1 X126.545 Y176.138 E19.93984
G1 X126.047 Y175.415 E19.98072
G1 X125.417 Y174.372 E20.03746
G1 X124.907 Y173.36 E20.09023
G1 X124.532 Y172.449 E20.1361
G1 X123.335 Y172.498 E20.19188
G1 X122.456 Y172.482 E20.23282
G1 X121.57 Y172.413 E20.2742
G1 X120.828 Y172.317 E20.30904
G1 X119.927 Y172.154 E20.35167
G1 X119.087 Y171.951 E20.39191
G1 X117.922 Y171.596 E20.44862
G1 X117.084 Y171.284 E20.49026
G1 X116.248 Y170.914 E20.53283
G1 X115.468 Y170.512 E20.57369
G1 X114.421 Y169.891 E20.63037
G1 X113.498 Y169.244 E20.68286
G1 X112.321 Y168.277 E20.75379
G1 X111.505 Y167.495 E20.80642
G1 X110.694 Y166.589 E20.86304
G1 X110.008 Y165.693 E20.91558
G1 X109.176 Y164.416 E20.98655
G1 X108.633 Y163.425 E21.03917
G1 X108.131 Y162.315 E21.0959
G1 X107.78 Y161.371 E21.1428
G1 X107.434 Y160.205 E21.19943
G1 X107.214 Y159.222 E21.24633
G1 X107.029 Y158.016 E21.30315
G1 X106.947 Y157.146 E21.34384
G1 X106.916 Y156.235 E21.38628
G1 X106.922 Y155.599 E21.4159
G1 X106.955 Y154.964 E21.44551
G1 X107.032 Y154.214 E21.48061
G1 X107.215 Y153.034 E21.53622
G1 X107.434 Y152.063 E21.58257
G1 X107.78 Y150.897 E21.6392
G1 X108.131 Y149.953 E21.6861
G1 X108.633 Y148.843 E21.74282
G1 X109.176 Y147.852 E21.79544
G1 X110.008 Y146.575 E21.86641
G1 X110.694 Y145.679 E21.91896
G1 X111.505 Y144.773 E21.97558
G1 X112.129 Y144.155 E22.01647
