;FLAVOR:Marlin
;TIME:1759
;Filament used: 1.09002m
;Layer height: 0.2
;MINX:124.46
;MINY:124.731
;MINZ:0.28
;MAXX:173.763
;MAXY:175.307
;MAXZ:4.48
;Generated with Cura_SteamEngine 5.2.1
M140 S90
M105
M190 S90
M82 ;absolute extrusion mode
M201 X500.00 Y500.00 Z100.00 E5000.00 ;Setup machine max acceleration
M203 X500.00 Y500.00 Z10.00 E50.00 ;Setup machine max feedrate
M204 P500.00 R1000.00 T500.00 ;Setup Print/Retract/Travel acceleration
M205 X8.00 Y8.00 Z0.40 E5.00 ;Setup Jerk
M220 S100 ;Reset Feedrate
M221 S100 ;Reset Flowrate
M140 S90 ; set bed temp
M190 S90 ; wait for bed temp
G28; home all
G29;
G92 E0 ;Reset Extruder
G1 Z2.0 F3000 ;Move Z Axis up
G1 X10.1 Y20 Z0.28 F5000.0 ;Move to start position
M104 S240.0 ; wait for extruder printing temp
M109 S240.0 ; wait for extruder printing temp
G1 X10.1 Y200.0 Z0.28 F1500.0 E15 ;Draw the first line
G1 X10.4 Y200.0 Z0.28 F5000.0 ;Move to side a little
G1 X10.4 Y20 Z0.28 F1500.0 E30 ;Draw the second line
G92 E0 ;Reset Extruder
G92 E0
G92 E0
G1 F4800 E-6
;LAYER_COUNT:22
;LAYER:0
M107
;MESH:OG small synchromesh ilders.stl(2)
G0 F6000 X139.837 Y142.96 Z0.28
;TYPE:WALL-INNER
G1 F4800 E0
G1 F1200 X139.89 Y143.664 E0.03287
G1 X139.843 Y144.33 E0.06396
G1 X139.754 Y144.871 E0.08949
G1 X139.615 Y145.4 E0.11496
G1 X139.432 Y145.894 E0.13949
G1 X139.135 Y146.511 E0.17138
G1 X138.775 Y147.052 E0.20164
G1 X138.351 Y147.576 E0.23302
G1 X138.028 Y147.887 E0.2539
G1 X137.547 Y148.29 E0.28312
G1 X137.029 Y148.629 E0.31195
G1 X136.462 Y148.908 E0.34137
G1 X135.976 Y149.098 E0.36567
G1 X135.682 Y149.187 E0.37997
G1 X135.049 Y149.331 E0.4102
G1 X134.396 Y149.386 E0.44072
G1 X133.804 Y149.379 E0.46828
G1 X133.322 Y149.329 E0.49085
G1 X132.766 Y149.219 E0.51724
G1 X132.247 Y149.061 E0.5425
G1 X131.718 Y148.844 E0.56913
G1 X131.262 Y148.603 E0.59314
G1 X130.826 Y148.318 E0.6174
G1 X130.413 Y147.994 E0.64184
G1 X129.984 Y147.578 E0.66967
G1 X129.651 Y147.191 E0.69344
G1 X129.34 Y146.751 E0.71853
G1 X129.006 Y146.171 E0.74969
G1 X128.744 Y145.509 E0.78285
G1 X128.569 Y144.909 E0.81195
G1 X128.497 Y144.481 E0.83216
G1 X128.432 Y143.811 E0.8635
G1 X128.468 Y143.109 E0.89623
G1 X128.543 Y142.589 E0.9207
G1 X128.698 Y141.942 E0.95168
G1 X128.985 Y141.213 E0.98816
G1 X129.373 Y140.527 E1.02486
G1 X129.669 Y140.128 E1.04799
G1 X130.033 Y139.701 E1.07412
G1 X130.395 Y139.361 E1.09724
G1 X130.826 Y139.022 E1.12277
G1 X131.242 Y138.748 E1.14597
G1 X131.707 Y138.502 E1.17047
G1 X131.993 Y138.375 E1.18504
G1 X132.478 Y138.201 E1.20903
G1 X132.864 Y138.094 E1.22768
G1 X133.298 Y138.014 E1.24823
G1 X133.82 Y137.959 E1.27267
G1 X134.382 Y137.954 E1.29884
G1 X134.906 Y137.997 E1.32332
G1 X135.443 Y138.094 E1.34873
G1 X135.95 Y138.235 E1.37324
G1 X136.441 Y138.422 E1.3977
G1 X136.945 Y138.672 E1.4239
G1 X137.287 Y138.874 E1.44239
G1 X137.63 Y139.122 E1.4621
G1 X138.122 Y139.533 E1.49195
G1 X138.429 Y139.859 E1.51281
G1 X138.805 Y140.322 E1.54058
G1 X139.061 Y140.717 E1.5625
G1 X139.321 Y141.202 E1.58812
G1 X139.566 Y141.777 E1.61722
G1 X139.737 Y142.367 E1.64583
G1 X139.837 Y142.96 E1.67383
G0 F6000 X140.131 Y142.912
G0 X140.969 Y145.727
G0 X141.251 Y145.819
G1 F1200 X141.381 Y145.33 E1.69739
G1 X141.435 Y145.075 E1.70953
G1 X141.531 Y144.474 E1.73787
G1 X141.569 Y143.851 E1.76693
G1 X141.57 Y143.634 E1.77704
G1 X141.549 Y143.108 E1.80155
G1 X141.481 Y142.487 E1.83064
G1 X141.344 Y141.857 E1.86066
G1 X141.218 Y141.416 E1.88202
G1 X141.047 Y140.935 E1.90579
G1 X140.846 Y140.474 E1.9292
G1 X140.546 Y139.904 E1.9592
G1 X140.22 Y139.407 E1.98687
G1 X139.92 Y139.008 E2.01012
G1 X139.575 Y138.613 E2.03454
G1 X139.242 Y138.278 E2.05653
G1 X138.871 Y137.95 E2.07959
G1 X138.473 Y137.646 E2.10291
G1 X138.064 Y137.371 E2.12586
G1 X137.629 Y137.123 E2.14918
G1 X137.181 Y136.904 E2.1724
G1 X136.708 Y136.709 E2.19622
G1 X136.25 Y136.561 E2.21863
G1 X135.64 Y136.404 E2.24796
G1 X135.03 Y136.311 E2.2767
G1 X134.535 Y136.269 E2.29983
G1 X134.037 Y136.261 E2.32302
G1 X133.538 Y136.286 E2.34628
G1 X133.047 Y136.344 E2.36931
G1 X132.555 Y136.437 E2.39262
G1 X132.059 Y136.564 E2.41646
G1 X131.601 Y136.714 E2.4389
G1 X130.996 Y136.963 E2.46937
G1 X130.473 Y137.242 E2.49697
G1 X129.93 Y137.58 E2.52675
G1 X129.348 Y138.03 E2.56101
G1 X128.81 Y138.537 E2.59543
G1 X128.41 Y138.997 E2.62382
G1 X128.238 Y139.217 E2.63682
G1 X127.957 Y139.614 E2.65947
G1 X127.825 Y139.83 E2.67125
G1 X127.495 Y140.43 E2.70314
G1 X127.274 Y140.936 E2.72885
G1 X127.072 Y141.491 E2.75635
G1 X126.913 Y142.126 E2.78683
G1 X126.826 Y142.614 E2.80991
G1 X126.772 Y143.11 E2.83315
G1 X126.751 Y143.608 E2.85636
G1 X126.765 Y144.136 E2.88095
G1 X126.809 Y144.6 E2.90265
G1 X126.888 Y145.091 E2.92581
G1 X127 Y145.577 E2.94903
G1 X127.129 Y146.005 E2.96985
G1 X127.226 Y146.286 E2.98369
G1 X127.421 Y146.752 E3.00721
G1 X127.642 Y147.192 E3.03014
G1 X127.88 Y147.604 E3.0523
G1 X128.039 Y147.847 E3.06582
G1 X128.321 Y148.234 E3.08812
G1 X128.733 Y148.722 E3.11785
G1 X129.167 Y149.146 E3.14611
G1 X129.634 Y149.544 E3.17468
G1 X130.152 Y149.903 E3.20402
G1 X130.58 Y150.158 E3.22722
G1 X131.027 Y150.385 E3.25057
G1 X131.485 Y150.581 E3.27376
G1 X132.053 Y150.779 E3.30177
G1 X132.679 Y150.93 E3.33176
G1 X133.166 Y151.013 E3.35476
G1 X133.663 Y151.063 E3.37802
G1 X134.188 Y151.08 E3.40248
G1 X134.655 Y151.064 E3.42424
G1 X135.152 Y151.013 E3.4475
G1 X135.645 Y150.93 E3.47078
G1 X135.898 Y150.872 E3.48287
G1 X136.356 Y150.748 E3.50496
G1 X136.838 Y150.58 E3.52873
G1 X137.281 Y150.391 E3.55116
G1 X137.515 Y150.278 E3.56326
G1 X137.956 Y150.034 E3.58673
G1 X138.396 Y149.749 E3.61114
G1 X138.883 Y149.387 E3.63939
G1 X139.334 Y148.976 E3.66781
G1 X139.766 Y148.525 E3.69689
G1 X140.151 Y148.033 E3.72598
G1 X140.299 Y147.82 E3.73805
G1 X140.619 Y147.311 E3.76605
G1 X140.9 Y146.749 E3.79531
G1 X141.098 Y146.275 E3.81923
G1 X141.251 Y145.819 E3.84162
G1 F4800 E-2.15838
G0 F6000 X140.969 Y145.727
G0 X139.792 Y141.698
G0 X139.272 Y140.604
G0 X136.621 Y136.997
G1 F4800 E3.84162
G0 F6000 X136.846 Y136.333
;TYPE:WALL-OUTER
G1 F1200 X136.362 Y136.177 E3.8653
G1 X135.85 Y136.045 E3.88992
G1 X135.597 Y135.993 E3.90195
G1 X135.076 Y135.913 E3.92649
G1 X134.555 Y135.869 E3.95084
G1 X134.031 Y135.861 E3.97524
G1 X133.504 Y135.887 E3.99981
G1 X132.987 Y135.948 E4.02405
G1 X132.469 Y136.046 E4.0486
G1 X131.972 Y136.173 E4.07249
G1 X131.463 Y136.338 E4.0974
G1 X130.831 Y136.599 E4.12924
G1 X130.274 Y136.895 E4.15861
G1 X129.699 Y137.252 E4.19013
G1 X129.195 Y137.641 E4.21977
G1 X128.957 Y137.849 E4.23449
G1 X128.515 Y138.265 E4.26275
G1 X128.088 Y138.758 E4.29312
G1 X127.928 Y138.962 E4.3052
G1 X127.623 Y139.393 E4.32978
G1 X127.488 Y139.612 E4.34176
G1 X127.155 Y140.206 E4.37347
G1 X126.902 Y140.788 E4.40302
G1 X126.689 Y141.374 E4.43205
G1 X126.521 Y142.042 E4.46413
G1 X126.43 Y142.557 E4.48848
G1 X126.372 Y143.08 E4.51298
G1 X126.351 Y143.605 E4.53745
G1 X126.363 Y144.131 E4.56195
G1 X126.412 Y144.65 E4.58622
G1 X126.495 Y145.168 E4.61065
G1 X126.614 Y145.681 E4.63517
G1 X126.819 Y146.349 E4.66771
G1 X127.057 Y146.92 E4.69651
G1 X127.29 Y147.382 E4.72061
G1 X127.551 Y147.833 E4.74487
G1 X127.697 Y148.057 E4.75732
G1 X128.006 Y148.481 E4.78175
G1 X128.44 Y148.994 E4.81304
G1 X128.897 Y149.442 E4.84284
G1 X129.296 Y149.782 E4.86725
G1 X129.503 Y149.941 E4.8794
G1 X129.936 Y150.24 E4.9039
G1 X130.387 Y150.508 E4.92833
G1 X130.857 Y150.747 E4.95289
G1 X131.339 Y150.954 E4.97731
G1 X131.938 Y151.163 E5.00685
G1 X132.598 Y151.322 E5.03846
G1 X133.112 Y151.41 E5.06275
G1 X133.636 Y151.463 E5.08727
G1 X134.201 Y151.48 E5.11359
G1 X134.682 Y151.463 E5.136
G1 X135.206 Y151.41 E5.16053
G1 X135.723 Y151.322 E5.18495
G1 X136.002 Y151.258 E5.19828
G1 X136.474 Y151.13 E5.22105
G1 X136.982 Y150.954 E5.24608
G1 X137.439 Y150.759 E5.26922
G1 X137.699 Y150.633 E5.28267
G1 X138.161 Y150.378 E5.30724
G1 X138.601 Y150.095 E5.3316
G1 X139.021 Y149.784 E5.35594
G1 X139.225 Y149.617 E5.36821
G1 X139.614 Y149.262 E5.39274
G1 X139.978 Y148.883 E5.41721
G1 X140.148 Y148.686 E5.42932
G1 X140.473 Y148.271 E5.45387
G1 X140.622 Y148.059 E5.46593
G1 X140.976 Y147.493 E5.49702
G1 X141.264 Y146.916 E5.52705
G1 X141.473 Y146.416 E5.55228
G1 X141.635 Y145.934 E5.57596
G1 X141.77 Y145.424 E5.60052
G1 X141.825 Y145.171 E5.61258
G1 X141.93 Y144.513 E5.64361
G1 X141.969 Y143.864 E5.67388
G1 X141.97 Y143.637 E5.68445
G1 X141.948 Y143.078 E5.7105
G1 X141.896 Y142.59 E5.73335
G1 X141.844 Y142.271 E5.7484
G1 X141.739 Y141.787 E5.77146
G1 X141.6 Y141.294 E5.79532
G1 X141.419 Y140.787 E5.82038
G1 X141.207 Y140.301 E5.84507
G1 X140.966 Y139.841 E5.86925
G1 X140.818 Y139.589 E5.88286
G1 X140.548 Y139.177 E5.9058
G1 X140.231 Y138.756 E5.93034
G1 X139.888 Y138.361 E5.9547
G1 X139.517 Y137.987 E5.97923
G1 X139.125 Y137.641 E6.00357
G1 X138.707 Y137.32 E6.02812
G1 X138.274 Y137.031 E6.05236
G1 X137.817 Y136.769 E6.07688
G1 X137.345 Y136.538 E6.10135
G1 X136.846 Y136.333 E6.12647
G1 F4800 E0.12647
G0 F6000 X136.621 Y136.997
G0 X132.409 Y137.972
G0 X131.621 Y138.277
G0 X130.663 Y138.844
G0 X129.886 Y139.509
G0 X129.177 Y140.388
G0 X128.777 Y141.09
G0 X128.468 Y141.875
G0 X128.227 Y143.116
G0 X128.209 Y143.512
G0 X128.267 Y144.92
G1 F4800 E6.12647
G0 F6000 X128.956 Y144.806
G1 F1200 X128.89 Y144.402 E6.14554
G1 X128.834 Y143.817 E6.1729
G1 X128.864 Y143.165 E6.20329
G1 X128.933 Y142.681 E6.22606
G1 X129.078 Y142.067 E6.25543
G1 X129.362 Y141.354 E6.29117
G1 X129.721 Y140.727 E6.32481
G1 X129.973 Y140.388 E6.34448
G1 X130.337 Y139.961 E6.37061
G1 X130.657 Y139.663 E6.39097
G1 X131.046 Y139.356 E6.41404
G1 X131.465 Y139.081 E6.43738
G1 X131.906 Y138.85 E6.46056
G1 X132.154 Y138.742 E6.47316
G1 X132.61 Y138.579 E6.49571
G1 X132.977 Y138.479 E6.51342
G1 X133.365 Y138.409 E6.53178
G1 X133.848 Y138.359 E6.55439
G1 X134.35 Y138.353 E6.57777
G1 X134.851 Y138.394 E6.60117
G1 X135.343 Y138.482 E6.62445
G1 X135.826 Y138.617 E6.6478
G1 X136.289 Y138.793 E6.67086
G1 X136.748 Y139.022 E6.69475
G1 X137.07 Y139.211 E6.71213
G1 X137.392 Y139.445 E6.73067
G1 X137.838 Y139.815 E6.75765
G1 X138.131 Y140.126 E6.77755
G1 X138.494 Y140.575 E6.80443
G1 X138.715 Y140.919 E6.82347
G1 X138.954 Y141.364 E6.84699
G1 X139.188 Y141.911 E6.8747
G1 X139.347 Y142.46 E6.90131
G1 X139.444 Y143.045 E6.92892
G1 X139.489 Y143.661 E6.95768
G1 X139.445 Y144.286 E6.98686
G1 X139.36 Y144.794 E7.01084
G1 X139.235 Y145.273 E7.03389
G1 X139.062 Y145.74 E7.05708
G1 X138.785 Y146.316 E7.08684
G1 X138.445 Y146.826 E7.11538
G1 X138.055 Y147.305 E7.14415
G1 X137.758 Y147.591 E7.16335
G1 X137.308 Y147.968 E7.19068
G1 X136.835 Y148.279 E7.21704
G1 X136.298 Y148.542 E7.24488
G1 X135.844 Y148.72 E7.26759
G1 X135.569 Y148.802 E7.28095
G1 X134.982 Y148.936 E7.30899
G1 X134.364 Y148.987 E7.33786
G1 X133.844 Y148.981 E7.36208
G1 X133.344 Y148.928 E7.38549
G1 X132.849 Y148.827 E7.40901
G1 X132.37 Y148.68 E7.43235
G1 X131.904 Y148.49 E7.45578
G1 X131.466 Y148.259 E7.47884
G1 X131.043 Y147.981 E7.50241
G1 X130.646 Y147.666 E7.526
G1 X130.287 Y147.316 E7.54935
G1 X129.959 Y146.935 E7.57276
G1 X129.669 Y146.522 E7.59626
G1 X129.363 Y145.991 E7.6248
G1 X129.133 Y145.413 E7.65376
G1 X128.956 Y144.806 E7.6832
G0 F6000 X128.267 Y144.92
G0 X128.193 Y143.815
G0 X128.304 Y142.559
G0 X128.468 Y141.875
G0 X128.777 Y141.09
G0 X129.468 Y139.995
G0 X130.242 Y139.179
G0 X131.865 Y138.039
;TYPE:SKIN
G1 F1200 X132.368 Y137.855 E7.70814
G1 X132.845 Y137.727 E7.73114
G1 X133.257 Y137.655 E7.75062
G1 X133.795 Y137.599 E7.7758
G1 X134.411 Y137.595 E7.80449
G1 X134.948 Y137.639 E7.82958
G1 X135.519 Y137.74 E7.85658
G1 X136.067 Y137.893 E7.88307
G1 X136.592 Y138.094 E7.90925
G1 X137.127 Y138.362 E7.93711
G1 X137.49 Y138.575 E7.95671
G1 X137.837 Y138.825 E7.97662
G1 X138.377 Y139.275 E8.00935
G1 X138.7 Y139.62 E8.03136
G1 X139.095 Y140.103 E8.06041
G1 X139.367 Y140.527 E8.08387
G1 X139.617 Y140.984 E8.10813
G1 X139.913 Y141.672 E8.143
G1 X140.091 Y142.296 E8.17322
G1 X140.197 Y142.924 E8.20287
G1 X140.251 Y143.662 E8.23733
G1 X140.201 Y144.378 E8.27075
G1 X140.107 Y144.952 E8.29783
G1 X139.958 Y145.515 E8.32495
G1 X139.762 Y146.041 E8.35109
G1 X139.445 Y146.701 E8.38518
G1 X139.071 Y147.26 E8.4165
G1 X138.608 Y147.828 E8.45062
G1 X138.276 Y148.152 E8.47222
G1 X137.762 Y148.58 E8.50337
G1 X137.199 Y148.95 E8.53474
G1 X136.603 Y149.24 E8.5656
G1 X136.094 Y149.44 E8.59107
G1 X135.773 Y149.535 E8.60665
G1 X135.114 Y149.686 E8.63814
G1 X134.389 Y149.747 E8.67201
G1 X133.769 Y149.738 E8.70089
G1 X133.268 Y149.684 E8.72435
G1 X132.719 Y149.579 E8.75038
G1 X132.132 Y149.402 E8.77893
G1 X131.616 Y149.195 E8.80481
G1 X131.068 Y148.907 E8.83364
G1 X130.569 Y148.577 E8.8615
G1 X130.115 Y148.211 E8.88865
G1 X129.762 Y147.868 E8.91157
G1 X129.382 Y147.434 E8.93843
G1 X129.017 Y146.913 E8.96805
G1 X128.685 Y146.336 E8.99905
G1 X128.397 Y145.616 E9.03516
G1 X128.212 Y144.983 E9.06587
G1 X128.141 Y144.54 E9.08676
G1 X128.071 Y143.833 E9.11984
G1 X128.108 Y143.082 E9.15485
G1 X128.178 Y142.571 E9.17887
G1 X128.345 Y141.862 E9.21279
G1 X128.67 Y141.035 E9.25416
G1 X129.075 Y140.323 E9.2923
G1 X129.371 Y139.924 E9.31544
G1 X129.773 Y139.452 E9.34431
G1 X130.154 Y139.092 E9.36871
G1 X130.62 Y138.726 E9.39631
G1 X131.045 Y138.446 E9.42
G1 X131.585 Y138.16 E9.44846
G1 X131.865 Y138.039 E9.46266
G0 F6000 X133.802 Y137.721
G0 X134.925 Y137.759
G0 X135.811 Y137.959
G0 X138.675 Y138.899
G1 F851.1 X138.325 Y138.6 E9.49288
G1 F848.1 X138.115 Y138.432 E9.5106
G1 F858.7 X137.764 Y138.18 E9.53872
G1 F851.1 X137.239 Y137.875 E9.57859
G1 F845.1 X136.794 Y137.655 E9.61141
G1 F848.1 X136.279 Y137.449 E9.64796
G1 F846.6 X135.561 Y137.255 E9.69705
G1 F849.6 X134.984 Y137.158 E9.73553
G1 F846.6 X134.502 Y137.116 E9.76746
G1 F837.7 X134.083 Y137.11 E9.79542
G1 F842.1 X133.761 Y137.117 E9.81679
G1 F849.6 X133.191 Y137.177 E9.85448
G1 F857.1 X132.742 Y137.259 E9.88424
G1 F855.6 X132.297 Y137.374 E9.91425
G1 F842.1 X131.9 Y137.507 E9.94204
G1 F843.6 X131.659 Y137.6 E9.95915
G1 F845.1 X131.361 Y137.728 E9.98059
G1 F848.1 X130.761 Y138.054 E10.02558
G1 F854.1 X130.308 Y138.355 E10.06117
G1 F845.1 X129.911 Y138.663 E10.09439
G1 F846.6 X129.441 Y139.102 E10.13684
G1 X129.002 Y139.609 E10.1811
G1 F840.6 X128.648 Y140.093 E10.22096
G1 F849.6 X128.23 Y140.839 E10.27721
G1 F845.1 X128.057 Y141.262 E10.30742
G1 F840.6 X127.883 Y141.724 E10.34024
G1 F848.1 X127.701 Y142.499 E10.39269
G1 F849.6 X127.629 Y143.029 E10.42787
G1 F848.1 X127.599 Y143.587 E10.46469
G1 F854.1 X127.594 Y143.861 E10.48262
G1 F851.1 X127.65 Y144.502 E10.52486
G1 F852.6 X127.735 Y145.04 E10.56056
G1 F855.6 X127.816 Y145.351 E10.58155
G1 F843.6 X127.974 Y145.875 E10.6178
G1 F852.6 X128.256 Y146.549 E10.66569
G1 F854.1 X128.387 Y146.79 E10.68363
G1 F837.7 X128.652 Y147.243 E10.71864
G1 X128.984 Y147.706 E10.75664
G1 F840.6 X129.352 Y148.14 E10.79446
G1 F845.1 X129.797 Y148.573 E10.83552
G1 X130.062 Y148.794 E10.85833
G1 F843.6 X130.313 Y148.989 E10.87939
G1 F851.1 X130.847 Y149.336 E10.9212
G1 F852.6 X131.444 Y149.646 E10.96529
G1 F843.6 X131.887 Y149.831 E10.99709
G1 F840.6 X132.676 Y150.069 E11.05187
G1 F846.6 X133.282 Y150.174 E11.09246
G1 F845.1 X133.774 Y150.222 E11.12515
G1 F846.6 X134.327 Y150.236 E11.16166
G1 F855.6 X135.197 Y150.158 E11.2187
G1 F849.6 X135.542 Y150.088 E11.24186
G1 F846.6 X135.896 Y150 E11.26593
G1 F860.2 X136.251 Y149.896 E11.28996
G1 F857.1 X136.796 Y149.685 E11.32806
G1 F842.1 X137.051 Y149.566 E11.34673
G1 F848.1 X137.45 Y149.357 E11.37641
G1 F852.6 X137.979 Y149.016 E11.41766
G1 F837.7 X138.333 Y148.739 E11.44764
G1 F843.6 X138.604 Y148.502 E11.47149
G1 F858.7 X138.976 Y148.137 E11.5054
G1 F851.1 X139.18 Y147.898 E11.52603
G1 F837.7 X139.495 Y147.504 E11.55968
G1 F848.1 X139.88 Y146.908 E11.60643
G1 F860.2 X140.211 Y146.219 E11.65608
G1 F849.6 X140.312 Y145.961 E11.67431
G1 F848.1 X140.427 Y145.626 E11.69764
G1 F851.1 X140.588 Y145.022 E11.73868
G1 F843.6 X140.687 Y144.394 E11.78079
G1 F842.1 X140.73 Y143.724 E11.82534
G1 F839.2 X140.704 Y143.181 E11.86154
G1 F836.2 X140.662 Y142.73 E11.89181
G1 F852.6 X140.555 Y142.182 E11.9284
G1 F871.1 X140.363 Y141.511 E11.97317
G1 F855.6 X140.261 Y141.253 E11.99129
G1 F846.6 X140.037 Y140.746 E12.02787
