;FLAVOR:Marlin
;TIME:1423
;Filament used: 0.793594m
;Layer height: 0.2
;MINX:133.52
;MINY:128.852
;MINZ:0.28
;MAXX:166.48
;MAXY:171.148
;MAXZ:13.68
;Generated with Cura_SteamEngine 5.2.1
M140 S85
M105
M190 S85
M82 ;absolute extrusion mode
M201 X500.00 Y500.00 Z100.00 E5000.00 ;Setup machine max acceleration
M203 X500.00 Y500.00 Z10.00 E50.00 ;Setup machine max feedrate
M204 P500.00 R1000.00 T500.00 ;Setup Print/Retract/Travel acceleration
M205 X8.00 Y8.00 Z0.40 E5.00 ;Setup Jerk
M220 S100 ;Reset Feedrate
M221 S100 ;Reset Flowrate
M140 S85.0 ; set bed temp
M190 S85.0 ; wait for bed temp
G28; home all
G29;
G92 E0 ;Reset Extruder
G1 Z2.0 F3000 ;Move Z Axis up
G1 X10.1 Y20 Z0.28 F5000.0 ;Move to start position
M104 S235 ; wait for extruder printing temp
M109 S235 ; wait for extruder printing temp
G1 X10.1 Y200.0 Z0.28 F1500.0 E15 ;Draw the first line
G1 X10.4 Y200.0 Z0.28 F5000.0 ;Move to side a little
G1 X10.4 Y20 Z0.28 F1500.0 E30 ;Draw the second line
G92 E0 ;Reset Extruder
G1 Z2.0 F3000 ;Move Z Axis up
G92 E0
G92 E0
G1 F3000 E-3
;LAYER_COUNT:68
;LAYER:0
M107
G1 F300 Z0.48
G0 F6000 X135.943 Y131.001 Z0.48
;TYPE:SKIRT
G1 F300 Z0.28
G1 F3000 E0
G1 F1200 X136.542 Y130.486 E0.03678
G1 X137.19 Y130.035 E0.07355
G1 X137.881 Y129.651 E0.11036
G1 X138.606 Y129.339 E0.14711
G1 X139.359 Y129.102 E0.18387
G1 X140.133 Y128.943 E0.22066
G1 X140.918 Y128.862 E0.25741
G1 X141.32 Y128.852 E0.27613
G1 X158.68 Y128.852 E1.08449
G1 X159.469 Y128.892 E1.12127
G1 X160.249 Y129.011 E1.15801
G1 X161.014 Y129.209 E1.19481
G1 X161.754 Y129.483 E1.23155
G1 X162.463 Y129.831 E1.26833
G1 X163.134 Y130.249 E1.30514
G1 X163.758 Y130.732 E1.34188
G1 X164.331 Y131.275 E1.37864
G1 X164.846 Y131.874 E1.41543
G1 X165.297 Y132.522 E1.45219
G1 X165.681 Y133.213 E1.489
G1 X165.993 Y133.938 E1.52575
G1 X166.23 Y134.691 E1.56251
G1 X166.389 Y135.465 E1.5993
G1 X166.47 Y136.25 E1.63605
G1 X166.48 Y136.652 E1.65477
G1 X166.48 Y163.348 E2.89785
G1 X166.44 Y164.137 E2.93464
G1 X166.321 Y164.917 E2.97138
G1 X166.123 Y165.682 E3.00817
G1 X165.849 Y166.422 E3.04492
G1 X165.501 Y167.131 E3.08169
G1 X165.083 Y167.802 E3.1185
G1 X164.6 Y168.426 E3.15525
G1 X164.057 Y168.999 E3.19201
G1 X163.458 Y169.514 E3.22879
G1 X162.81 Y169.965 E3.26555
G1 X162.119 Y170.349 E3.30236
G1 X161.394 Y170.661 E3.33911
G1 X160.641 Y170.898 E3.37587
G1 X159.867 Y171.057 E3.41267
G1 X159.082 Y171.138 E3.44941
G1 X158.68 Y171.148 E3.46814
G1 X141.32 Y171.148 E4.27649
G1 X140.531 Y171.108 E4.31328
G1 X139.751 Y170.989 E4.35002
G1 X138.986 Y170.791 E4.38681
G1 X138.246 Y170.517 E4.42356
G1 X137.537 Y170.169 E4.46033
G1 X136.866 Y169.751 E4.49715
G1 X136.242 Y169.268 E4.53389
G1 X135.669 Y168.725 E4.57065
G1 X135.154 Y168.126 E4.60743
G1 X134.703 Y167.478 E4.64419
G1 X134.319 Y166.787 E4.681
G1 X134.007 Y166.062 E4.71776
G1 X133.77 Y165.309 E4.75451
G1 X133.611 Y164.535 E4.79131
G1 X133.53 Y163.75 E4.82806
G1 X133.52 Y163.348 E4.84678
G1 X133.52 Y136.652 E6.08986
G1 X133.56 Y135.863 E6.12664
G1 X133.679 Y135.083 E6.16338
G1 X133.877 Y134.318 E6.20018
G1 X134.151 Y133.578 E6.23692
G1 X134.499 Y132.869 E6.2737
G1 X134.917 Y132.198 E6.31051
G1 X135.4 Y131.574 E6.34725
G1 X135.551 Y131.414 E6.3575
G0 F1080 X135.943 Y131.001
G0 F6000 X136.336 Y131.182
G1 F1200 X136.931 Y130.694 E6.39333
G1 X137.573 Y130.271 E6.42913
G1 X138.256 Y129.916 E6.46497
G1 X138.971 Y129.635 E6.50075
G1 X139.713 Y129.429 E6.5366
G1 X140.471 Y129.301 E6.5724
G1 X141.32 Y129.252 E6.612
G1 X158.68 Y129.252 E7.42035
G1 X159.448 Y129.292 E7.45616
G1 X160.208 Y129.411 E7.49198
G1 X160.951 Y129.609 E7.52779
G1 X161.67 Y129.883 E7.56361
G1 X162.356 Y130.23 E7.59941
G1 X163.003 Y130.646 E7.63523
G1 X163.603 Y131.127 E7.67104
G1 X164.15 Y131.668 E7.70686
G1 X164.638 Y132.263 E7.74269
G1 X165.061 Y132.905 E7.77849
G1 X165.416 Y133.588 E7.81433
G1 X165.697 Y134.303 E7.85011
G1 X165.903 Y135.045 E7.88596
G1 X166.031 Y135.803 E7.92176
G1 X166.08 Y136.652 E7.96136
G1 X166.08 Y163.348 E9.20444
G1 X166.04 Y164.116 E9.24025
G1 X165.921 Y164.876 E9.27607
G1 X165.723 Y165.619 E9.31187
G1 X165.449 Y166.338 E9.3477
G1 X165.102 Y167.024 E9.3835
G1 X164.686 Y167.671 E9.41931
G1 X164.205 Y168.271 E9.45512
G1 X163.664 Y168.818 E9.49094
G1 X163.069 Y169.306 E9.52678
G1 X162.427 Y169.729 E9.56258
G1 X161.744 Y170.084 E9.59842
G1 X161.029 Y170.365 E9.63419
G1 X160.287 Y170.571 E9.67005
G1 X159.529 Y170.699 E9.70584
G1 X158.68 Y170.748 E9.74544
G1 X141.32 Y170.748 E10.5538
G1 X140.552 Y170.708 E10.58961
G1 X139.792 Y170.589 E10.62543
G1 X139.049 Y170.391 E10.66123
G1 X138.33 Y170.117 E10.69706
G1 X137.644 Y169.77 E10.73286
G1 X136.997 Y169.354 E10.76867
G1 X136.397 Y168.873 E10.80448
G1 X135.85 Y168.332 E10.84031
G1 X135.362 Y167.737 E10.87614
G1 X134.939 Y167.095 E10.91194
G1 X134.584 Y166.412 E10.94778
G1 X134.303 Y165.697 E10.98355
G1 X134.097 Y164.955 E11.01941
G1 X133.969 Y164.197 E11.05521
G1 X133.92 Y163.348 E11.0948
G1 X133.92 Y136.652 E12.33788
G1 X133.96 Y135.884 E12.37369
G1 X134.079 Y135.124 E12.40951
G1 X134.277 Y134.381 E12.44532
G1 X134.551 Y133.662 E12.48115
G1 X134.898 Y132.976 E12.51694
G1 X135.314 Y132.329 E12.55276
G1 X135.795 Y131.729 E12.58857
G1 X135.935 Y131.587 E12.59785
G0 F1080 X136.336 Y131.182
G0 F6000 X136.728 Y131.368
G1 F1200 X137.318 Y130.909 E12.63266
G1 X137.954 Y130.514 E12.66752
G1 X138.628 Y130.19 E12.70234
G1 X139.333 Y129.94 E12.73717
G1 X140.061 Y129.766 E12.77203
G1 X140.803 Y129.671 E12.80686
G1 X141.32 Y129.652 E12.83095
G1 X158.68 Y129.652 E13.6393
G1 X159.427 Y129.692 E13.67414
G1 X160.165 Y129.811 E13.70895
G1 X160.887 Y130.009 E13.74381
G1 X161.583 Y130.282 E13.77862
G1 X162.246 Y130.629 E13.81346
G1 X162.869 Y131.044 E13.84832
G1 X163.443 Y131.523 E13.88313
G1 X163.964 Y132.06 E13.91797
G1 X164.423 Y132.65 E13.95278
G1 X164.818 Y133.286 E13.98764
G1 X165.142 Y133.96 E14.02246
G1 X165.392 Y134.665 E14.05729
G1 X165.566 Y135.393 E14.09215
G1 X165.661 Y136.135 E14.12698
G1 X165.68 Y136.652 E14.15107
G1 X165.68 Y163.348 E15.39415
G1 X165.64 Y164.095 E15.42898
G1 X165.521 Y164.833 E15.46379
G1 X165.323 Y165.555 E15.49865
G1 X165.05 Y166.251 E15.53346
G1 X164.703 Y166.914 E15.56831
G1 X164.288 Y167.537 E15.60316
G1 X163.809 Y168.111 E15.63798
G1 X163.272 Y168.632 E15.67282
G1 X162.682 Y169.091 E15.70762
G1 X162.046 Y169.486 E15.74248
G1 X161.372 Y169.81 E15.77731
G1 X160.667 Y170.06 E15.81214
G1 X159.939 Y170.234 E15.84699
G1 X159.197 Y170.329 E15.88182
G1 X158.68 Y170.348 E15.90591
G1 X141.32 Y170.348 E16.71427
G1 X140.573 Y170.308 E16.7491
G1 X139.835 Y170.189 E16.78391
G1 X139.113 Y169.991 E16.81877
G1 X138.417 Y169.718 E16.85358
G1 X137.754 Y169.371 E16.88843
G1 X137.131 Y168.956 E16.92328
G1 X136.557 Y168.477 E16.9581
G1 X136.036 Y167.94 E16.99293
G1 X135.577 Y167.35 E17.02774
G1 X135.182 Y166.714 E17.0626
G1 X134.858 Y166.04 E17.09743
G1 X134.608 Y165.335 E17.13226
G1 X134.434 Y164.607 E17.16711
G1 X134.339 Y163.865 E17.20194
G1 X134.32 Y163.348 E17.22603
G1 X134.32 Y136.652 E18.46911
G1 X134.36 Y135.905 E18.50394
G1 X134.479 Y135.167 E18.53875
G1 X134.677 Y134.445 E18.57361
G1 X134.95 Y133.749 E18.60843
G1 X135.297 Y133.086 E18.64327
G1 X135.712 Y132.463 E18.67813
G1 X136.191 Y131.889 E18.71294
G1 X136.319 Y131.765 E18.72124
G0 F1080 X136.728 Y131.368
G0 F6000 X137.119 Y131.561
G1 F1200 X137.704 Y131.131 E18.75504
G1 X138.333 Y130.767 E18.78888
G1 X138.998 Y130.474 E18.82272
G1 X139.691 Y130.256 E18.85655
G1 X140.403 Y130.116 E18.89034
G1 X141.32 Y130.052 E18.93314
G1 X158.68 Y130.052 E19.7415
G1 X159.405 Y130.092 E19.77531
G1 X160.122 Y130.211 E19.80915
G1 X160.821 Y130.409 E19.84298
G1 X161.494 Y130.682 E19.8768
G1 X162.133 Y131.027 E19.91061
G1 X162.73 Y131.441 E19.94444
G1 X163.278 Y131.917 E19.97824
G1 X163.771 Y132.451 E20.01208
G1 X164.201 Y133.036 E20.04589
G1 X164.565 Y133.665 E20.07973
G1 X164.858 Y134.33 E20.11356
G1 X165.076 Y135.023 E20.14739
G1 X165.216 Y135.735 E20.18118
G1 X165.28 Y136.652 E20.22398
G1 X165.28 Y163.348 E21.46706
G1 X165.24 Y164.073 E21.50087
G1 X165.121 Y164.79 E21.53472
G1 X164.923 Y165.489 E21.56854
G1 X164.65 Y166.162 E21.60236
G1 X164.305 Y166.801 E21.63618
G1 X163.891 Y167.398 E21.67001
G1 X163.415 Y167.946 E21.7038
G1 X162.881 Y168.439 E21.73765
G1 X162.296 Y168.869 E21.77145
G1 X161.667 Y169.233 E21.80529
G1 X161.002 Y169.526 E21.83913
G1 X160.309 Y169.744 E21.87296
G1 X159.597 Y169.884 E21.90675
G1 X158.68 Y169.948 E21.94955
G1 X141.32 Y169.948 E22.7579
G1 X140.595 Y169.908 E22.79172
G1 X139.878 Y169.789 E22.82556
G1 X139.179 Y169.591 E22.85939
G1 X138.506 Y169.318 E22.89321
G1 X137.867 Y168.973 E22.92702
G1 X137.27 Y168.559 E22.96085
G1 X136.722 Y168.083 E22.99465
G1 X136.229 Y167.549 E23.02849
G1 X135.799 Y166.964 E23.0623
G1 X135.435 Y166.335 E23.09614
G1 X135.142 Y165.67 E23.12997
G1 X134.924 Y164.977 E23.1638
G1 X134.784 Y164.265 E23.19759
G1 X134.72 Y163.348 E23.24039
G1 X134.72 Y136.652 E24.48347
G1 X134.76 Y135.927 E24.51728
G1 X134.879 Y135.21 E24.55112
G1 X135.077 Y134.511 E24.58495
G1 X135.35 Y133.838 E24.61877
G1 X135.695 Y133.199 E24.65259
G1 X136.109 Y132.602 E24.68641
G1 X136.585 Y132.054 E24.72021
G1 X136.7 Y131.948 E24.7275
G0 F1080 X137.119 Y131.561
G0 F6000 X137.509 Y131.761
G1 F1200 X138.088 Y131.361 E24.76027
G1 X138.709 Y131.029 E24.79305
G1 X139.363 Y130.769 E24.82583
G1 X140.043 Y130.585 E24.85863
G1 X140.739 Y130.479 E24.89141
G1 X141.32 Y130.452 E24.91849
G1 X158.68 Y130.452 E25.72685
G1 X159.383 Y130.492 E25.75964
G1 X160.077 Y130.611 E25.79242
G1 X160.752 Y130.809 E25.82518
G1 X161.401 Y131.081 E25.85795
G1 X162.015 Y131.426 E25.89074
G1 X162.586 Y131.837 E25.9235
G1 X163.107 Y132.311 E25.9563
G1 X163.571 Y132.841 E25.9891
G1 X163.971 Y133.42 E26.02187
G1 X164.303 Y134.041 E26.05466
G1 X164.563 Y134.695 E26.08743
G1 X164.747 Y135.375 E26.12023
G1 X164.853 Y136.071 E26.15301
G1 X164.88 Y136.652 E26.18009
G1 X164.88 Y163.348 E27.42317
G1 X164.84 Y164.051 E27.45596
G1 X164.721 Y164.745 E27.48875
G1 X164.523 Y165.42 E27.5215
G1 X164.251 Y166.069 E27.55427
G1 X163.906 Y166.683 E27.58706
G1 X163.495 Y167.254 E27.61982
G1 X163.021 Y167.775 E27.65262
G1 X162.491 Y168.239 E27.68542
G1 X161.912 Y168.639 E27.71819
G1 X161.291 Y168.971 E27.75098
G1 X160.637 Y169.231 E27.78375
G1 X159.957 Y169.415 E27.81655
G1 X159.261 Y169.521 E27.84934
G1 X158.68 Y169.548 E27.87642
G1 X141.32 Y169.548 E28.68477
G1 X140.617 Y169.508 E28.71756
G1 X139.923 Y169.389 E28.75035
G1 X139.248 Y169.191 E28.7831
G1 X138.599 Y168.919 E28.81587
G1 X137.985 Y168.574 E28.84866
G1 X137.414 Y168.163 E28.88142
G1 X136.893 Y167.689 E28.91422
G1 X136.429 Y167.159 E28.94702
G1 X136.029 Y166.58 E28.97979
G1 X135.697 Y165.959 E29.01258
G1 X135.437 Y165.305 E29.04535
G1 X135.253 Y164.625 E29.07815
G1 X135.147 Y163.929 E29.11094
G1 X135.12 Y163.348 E29.13802
G1 X135.12 Y136.652 E30.3811
G1 X135.16 Y135.949 E30.41388
G1 X135.279 Y135.255 E30.44667
G1 X135.477 Y134.58 E30.47943
G1 X135.749 Y133.931 E30.51219
G1 X136.094 Y133.317 E30.54499
G1 X136.505 Y132.746 E30.57775
G1 X136.979 Y132.225 E30.61055
G1 X137.08 Y132.136 E30.61681
G0 F1080 X137.509 Y131.761
G0 F6000 X137.898 Y131.969
G1 F1200 X138.47 Y131.6 E30.64851
G1 X139.082 Y131.301 E30.68023
G1 X139.724 Y131.076 E30.7119
G1 X140.389 Y130.927 E30.74364
G1 X141.32 Y130.852 E30.78713
G1 X158.68 Y130.852 E31.59548
G1 X159.36 Y130.892 E31.6272
G1 X160.03 Y131.011 E31.65889
G1 X160.682 Y131.208 E31.6906
G1 X161.306 Y131.48 E31.7223
G1 X161.894 Y131.824 E31.75402
G1 X162.438 Y132.234 E31.78574
G1 X162.929 Y132.705 E31.81742
G1 X163.363 Y133.23 E31.84914
G1 X163.732 Y133.802 E31.88083
G1 X164.031 Y134.414 E31.91255
G1 X164.256 Y135.056 E31.94423
G1 X164.405 Y135.721 E31.97596
G1 X164.48 Y136.652 E32.01945
G1 X164.48 Y163.348 E33.26253
G1 X164.44 Y164.028 E33.29425
G1 X164.321 Y164.698 E33.32594
G1 X164.124 Y165.35 E33.35765
G1 X163.852 Y165.974 E33.38935
G1 X163.508 Y166.562 E33.42107
G1 X163.098 Y167.106 E33.45279
G1 X162.627 Y167.597 E33.48447
G1 X162.102 Y168.031 E33.51619
G1 X161.53 Y168.4 E33.54788
G1 X160.918 Y168.699 E33.5796
G1 X160.276 Y168.924 E33.61128
G1 X159.611 Y169.073 E33.64301
G1 X158.68 Y169.148 E33.6865
G1 X141.32 Y169.148 E34.49486
G1 X140.64 Y169.108 E34.52657
G1 X139.97 Y168.989 E34.55826
G1 X139.318 Y168.792 E34.58998
G1 X138.694 Y168.52 E34.62167
G1 X138.106 Y168.176 E34.65339
G1 X137.562 Y167.766 E34.68511
G1 X137.071 Y167.295 E34.71679
G1 X136.637 Y166.77 E34.74851
G1 X136.268 Y166.198 E34.78021
G1 X135.969 Y165.586 E34.81192
G1 X135.744 Y164.944 E34.8436
G1 X135.595 Y164.279 E34.87533
G1 X135.52 Y163.348 E34.91883
G1 X135.52 Y136.652 E36.1619
G1 X135.56 Y135.972 E36.19362
G1 X135.679 Y135.302 E36.22531
G1 X135.876 Y134.65 E36.25702
G1 X136.148 Y134.026 E36.28872
G1 X136.492 Y133.438 E36.32044
G1 X136.902 Y132.894 E36.35216
G1 X137.373 Y132.403 E36.38384
G1 X137.459 Y132.332 E36.38904
G0 F1080 X137.898 Y131.969
G0 F6000 X138.285 Y132.186
G1 F1200 X138.849 Y131.85 E36.4196
G1 X139.451 Y131.586 E36.45021
G1 X140.08 Y131.396 E36.48081
G1 X140.727 Y131.285 E36.51138
G1 X141.32 Y131.252 E36.53903
G1 X158.68 Y131.252 E37.34739
G1 X159.336 Y131.292 E37.37799
G1 X159.982 Y131.411 E37.40858
G1 X160.609 Y131.608 E37.43918
G1 X161.207 Y131.88 E37.46977
G1 X161.768 Y132.222 E37.50036
G1 X162.283 Y132.63 E37.53096
G1 X162.745 Y133.097 E37.56155
G1 X163.146 Y133.617 E37.59212
G1 X163.482 Y134.181 E37.62269
G1 X163.746 Y134.783 E37.6533
G1 X163.936 Y135.412 E37.6839
G1 X164.047 Y136.059 E37.71446
G1 X164.08 Y136.652 E37.74212
G1 X164.08 Y163.348 E38.9852
G1 X164.04 Y164.004 E39.0158
G1 X163.921 Y164.65 E39.04639
G1 X163.724 Y165.277 E39.07699
G1 X163.452 Y165.875 E39.10758
G1 X163.11 Y166.436 E39.13817
G1 X162.702 Y166.951 E39.16877
G1 X162.235 Y167.413 E39.19936
G1 X161.715 Y167.814 E39.22993
G1 X161.151 Y168.15 E39.2605
G1 X160.549 Y168.414 E39.29111
G1 X159.92 Y168.604 E39.32171
G1 X159.273 Y168.715 E39.35227
G1 X158.68 Y168.748 E39.37993
G1 X141.32 Y168.748 E40.18828
G1 X140.664 Y168.708 E40.21889
G1 X140.018 Y168.589 E40.24947
G1 X139.391 Y168.392 E40.28008
G1 X138.793 Y168.12 E40.31067
G1 X138.232 Y167.778 E40.34126
G1 X137.717 Y167.37 E40.37185
G1 X137.255 Y166.903 E40.40244
G1 X136.854 Y166.383 E40.43302
G1 X136.518 Y165.819 E40.46359
G1 X136.254 Y165.217 E40.4942
G1 X136.064 Y164.588 E40.52479
G1 X135.953 Y163.941 E40.55536
G1 X135.92 Y163.348 E40.58302
G1 X135.92 Y136.652 E41.82609
G1 X135.96 Y135.996 E41.8567
G1 X136.079 Y135.35 E41.88728
G1 X136.276 Y134.723 E41.91789
G1 X136.548 Y134.125 E41.94848
G1 X136.89 Y133.564 E41.97907
G1 X137.298 Y133.049 E42.00966
G1 X137.765 Y132.587 E42.04025
G1 X137.834 Y132.534 E42.0443
G0 F1080 X138.285 Y132.186
G0 F6000 X138.67 Y132.412
G1 F1200 X139.226 Y132.112 E42.07372
G1 X139.815 Y131.884 E42.10313
G1 X140.429 Y131.732 E42.13259
G1 X141.32 Y131.652 E42.17424
G1 X158.68 Y131.652 E42.9826
G1 X159.311 Y131.692 E43.01204
G1 X159.932 Y131.811 E43.04148
G1 X160.532 Y132.008 E43.07088
G1 X161.104 Y132.279 E43.10036
G1 X161.636 Y132.619 E43.12976
G1 X162.121 Y133.025 E43.15921
G1 X162.551 Y133.488 E43.18863
G1 X162.92 Y134.002 E43.21809
G1 X163.22 Y134.558 E43.24751
G1 X163.448 Y135.147 E43.27692
G1 X163.6 Y135.761 E43.30637
G1 X163.68 Y136.652 E43.34803
G1 X163.68 Y163.348 E44.59111
G1 X163.64 Y163.979 E44.62055
G1 X163.521 Y164.6 E44.64999
G1 X163.324 Y165.2 E44.6794
G1 X163.053 Y165.772 E44.70887
G1 X162.713 Y166.304 E44.73827
G1 X162.307 Y166.789 E44.76772
G1 X161.844 Y167.219 E44.79714
G1 X161.33 Y167.588 E44.82661
G1 X160.774 Y167.888 E44.85603
G1 X160.185 Y168.116 E44.88543
G1 X159.571 Y168.268 E44.91489
G1 X158.68 Y168.348 E44.95654
G1 X141.32 Y168.348 E45.7649
G1 X140.689 Y168.308 E45.79434
G1 X140.068 Y168.189 E45.82378
G1 X139.468 Y167.992 E45.85319
G1 X138.896 Y167.721 E45.88266
G1 X138.364 Y167.381 E45.91206
G1 X137.879 Y166.975 E45.94151
G1 X137.449 Y166.512 E45.97093
G1 X137.08 Y165.998 E46.0004
G1 X136.78 Y165.442 E46.02981
G1 X136.552 Y164.853 E46.05922
G1 X136.4 Y164.239 E46.08868
G1 X136.32 Y163.348 E46.13033
G1 X136.32 Y136.652 E47.37341
G1 X136.36 Y136.021 E47.40285
G1 X136.479 Y135.4 E47.43229
G1 X136.676 Y134.8 E47.4617
