;FLAVOR:Marlin
;TIME:1479
;Filament used: 0.779969m
;Layer height: 0.2
;MINX:130.627
;MINY:130.414
;MINZ:0.28
;MAXX:169.559
;MAXY:169.37
;MAXZ:10.08
;Generated with Cura_SteamEngine 5.2.1
M140 S100
M105
M190 S100
M82 ;absolute extrusion mode
M201 X500.00 Y500.00 Z100.00 E5000.00 ;Setup machine max acceleration
M203 X500.00 Y500.00 Z10.00 E50.00 ;Setup machine max feedrate
M204 P500.00 R1000.00 T500.00 ;Setup Print/Retract/Travel acceleration
M205 X8.00 Y8.00 Z0.40 E5.00 ;Setup Jerk
M220 S100 ;Reset Feedrate
M221 S100 ;Reset Flowrate
M140 S100.0 ; set bed temp
M190 S100.0 ; wait for bed temp
G28; home all
G29;
G92 E0 ;Reset Extruder
G1 Z2.0 F3000 ;Move Z Axis up
G1 X10.1 Y20 Z0.28 F5000.0 ;Move to start position
M104 S235 ; wait for extruder printing temp
M109 S235 ; wait for extruder printing temp
G1 X10.1 Y200.0 Z0.28 F1500.0 E15 ;Draw the first line
G1 X10.4 Y200.0 Z0.28 F5000.0 ;Move to side a little
G1 X10.4 Y20 Z0.28 F1500.0 E30 ;Draw the second line
G92 E0 ;Reset Extruder
G1 Z2.0 F3000 ;Move Z Axis up
G92 E0
G92 E0
G1 F1800 E-2
;LAYER_COUNT:50
;LAYER:0
M107
G0 F6000 X133.956 Y139.631 Z0.28
;TYPE:SKIRT
G1 F1800 E0
G1 F1200 X134.496 Y139.143 E0.03389
G1 X135.026 Y138.707 E0.06585
G1 X135.66 Y138.237 E0.1026
G1 X136.304 Y137.852 E0.13753
G1 X136.912 Y137.527 E0.16964
G1 X137.767 Y137.125 E0.21363
G1 X137.969 Y136.699 E0.23558
G1 X138.294 Y136.091 E0.26768
G1 X138.701 Y135.414 E0.30447
G1 X139.147 Y134.815 E0.33924
G1 X139.581 Y134.287 E0.37107
G1 X140.113 Y133.703 E0.40785
G1 X140.653 Y133.215 E0.44174
G1 X141.182 Y132.78 E0.47363
G1 X141.816 Y132.31 E0.51038
G1 X142.459 Y131.926 E0.54526
G1 X143.067 Y131.601 E0.57736
G1 X143.781 Y131.265 E0.6141
G1 X144.477 Y131.017 E0.64851
G1 X145.132 Y130.818 E0.68038
G1 X145.898 Y130.627 E0.71714
G1 X146.638 Y130.518 E0.75197
G1 X147.321 Y130.451 E0.78393
G1 X148.109 Y130.414 E0.82066
G1 X148.831 Y130.45 E0.85432
G1 X149.505 Y130.515 E0.88585
G1 X150.286 Y130.631 E0.92262
G1 X151.013 Y130.813 E0.95752
G1 X151.678 Y131.014 E0.98986
G1 X152.421 Y131.28 E1.02661
G1 X153.098 Y131.601 E1.0615
G1 X153.706 Y131.926 E1.0936
G1 X154.383 Y132.333 E1.13038
G1 X154.981 Y132.778 E1.16509
G1 X155.508 Y133.211 E1.19685
G1 X156.092 Y133.743 E1.23364
G1 X156.58 Y134.283 E1.26753
G1 X157.016 Y134.813 E1.29949
G1 X157.486 Y135.447 E1.33623
G1 X157.871 Y136.091 E1.37117
G1 X158.196 Y136.699 E1.40327
G1 X158.532 Y137.413 E1.44002
G1 X158.781 Y138.113 E1.47461
G1 X158.979 Y138.766 E1.50639
G1 X159.17 Y139.532 E1.54315
G1 X159.278 Y140.268 E1.57779
G1 X159.323 Y140.724 E1.59912
G1 X159.682 Y140.759 E1.61592
G1 X160.463 Y140.875 E1.65268
G1 X161.183 Y141.054 E1.68723
G1 X161.847 Y141.254 E1.71952
G1 X162.59 Y141.52 E1.75627
G1 X163.278 Y141.846 E1.79172
G1 X163.887 Y142.172 E1.82388
G1 X164.564 Y142.58 E1.86069
G1 X165.158 Y143.022 E1.89517
G1 X165.685 Y143.455 E1.92693
G1 X166.269 Y143.987 E1.96371
G1 X166.762 Y144.533 E1.99797
G1 X167.197 Y145.063 E2.02989
G1 X167.667 Y145.698 E2.06668
G1 X168.042 Y146.326 E2.10074
G1 X168.368 Y146.934 E2.13286
G1 X168.706 Y147.648 E2.16965
G1 X168.958 Y148.357 E2.20468
G1 X169.156 Y149.01 E2.23646
G1 X169.347 Y149.776 E2.27322
G1 X169.455 Y150.512 E2.30786
G1 X169.522 Y151.195 E2.33981
G1 X169.559 Y151.983 E2.37655
G1 X169.523 Y152.703 E2.41011
G1 X169.458 Y153.379 E2.44174
G1 X169.343 Y154.16 E2.47849
G1 X169.163 Y154.882 E2.51314
G1 X168.963 Y155.546 E2.54543
G1 X168.697 Y156.289 E2.58218
G1 X168.37 Y156.978 E2.61769
G1 X168.045 Y157.585 E2.64975
G1 X167.638 Y158.261 E2.6865
G1 X167.199 Y158.85 E2.7207
G1 X166.765 Y159.379 E2.75256
G1 X166.234 Y159.964 E2.78935
G1 X165.689 Y160.457 E2.82357
G1 X165.16 Y160.892 E2.85546
G1 X164.526 Y161.362 E2.89221
G1 X163.887 Y161.744 E2.92688
G1 X163.278 Y162.07 E2.95904
G1 X162.858 Y162.268 E2.98066
G1 X162.468 Y163.091 E3.02307
G1 X162.143 Y163.698 E3.05513
G1 X161.736 Y164.374 E3.09188
G1 X161.293 Y164.969 E3.12642
G1 X160.859 Y165.497 E3.15824
G1 X160.327 Y166.081 E3.19503
G1 X159.794 Y166.563 E3.22849
G1 X159.265 Y166.999 E3.26041
G1 X158.631 Y167.47 E3.29719
G1 X157.976 Y167.861 E3.33271
G1 X157.367 Y168.186 E3.36485
G1 X156.653 Y168.522 E3.40159
G1 X155.955 Y168.77 E3.43609
G1 X155.301 Y168.968 E3.4679
G1 X154.535 Y169.159 E3.50467
G1 X153.801 Y169.266 E3.5392
G1 X153.117 Y169.333 E3.57121
G1 X152.329 Y169.37 E3.60794
G1 X151.608 Y169.334 E3.64155
G1 X150.934 Y169.269 E3.67308
G1 X150.153 Y169.153 E3.70985
G1 X149.433 Y168.974 E3.7444
G1 X148.769 Y168.774 E3.77669
G1 X148.026 Y168.508 E3.81343
G1 X147.342 Y168.184 E3.84868
G1 X146.734 Y167.859 E3.88078
G1 X146.057 Y167.452 E3.91756
G1 X145.644 Y167.144 E3.94155
G1 X144.862 Y167.227 E3.97817
G1 X144.073 Y167.265 E4.01495
G1 X143.318 Y167.227 E4.05015
G1 X142.634 Y167.159 E4.08216
G1 X141.854 Y167.041 E4.11889
G1 X141.146 Y166.862 E4.1529
G1 X140.492 Y166.664 E4.18471
G1 X139.749 Y166.398 E4.22146
G1 X139.075 Y166.078 E4.2562
G1 X138.467 Y165.753 E4.28831
G1 X137.79 Y165.346 E4.32509
G1 X137.189 Y164.898 E4.35999
G1 X136.659 Y164.462 E4.39195
G1 X136.075 Y163.93 E4.42873
G1 X135.588 Y163.391 E4.46256
G1 X135.154 Y162.863 E4.49438
G1 X134.684 Y162.228 E4.53117
G1 X134.299 Y161.583 E4.56615
G1 X133.975 Y160.976 E4.59819
G1 X133.639 Y160.261 E4.63497
G1 X133.393 Y159.57 E4.66913
G1 X133.194 Y158.915 E4.701
G1 X133.003 Y158.149 E4.73776
G1 X132.894 Y157.412 E4.77246
G1 X132.827 Y156.731 E4.80432
G1 X132.79 Y155.942 E4.8411
G1 X132.826 Y155.222 E4.87467
G1 X132.908 Y154.427 E4.91188
G1 X132.521 Y153.904 E4.94218
G1 X132.136 Y153.259 E4.97715
G1 X131.812 Y152.652 E5.00919
G1 X131.476 Y151.937 E5.04598
G1 X131.23 Y151.246 E5.08013
G1 X131.031 Y150.591 E5.11201
G1 X130.84 Y149.825 E5.14877
G1 X130.731 Y149.088 E5.18346
G1 X130.664 Y148.407 E5.21532
G1 X130.627 Y147.618 E5.2521
G1 X130.663 Y146.898 E5.28567
G1 X130.728 Y146.221 E5.31734
G1 X130.843 Y145.439 E5.35415
G1 X131.027 Y144.706 E5.38934
G1 X131.228 Y144.042 E5.42164
G1 X131.494 Y143.299 E5.45839
G1 X131.814 Y142.625 E5.49313
G1 X132.139 Y142.017 E5.52523
G1 X132.546 Y141.34 E5.56201
G1 X132.991 Y140.742 E5.59672
G1 X133.424 Y140.215 E5.62848
G1 X133.572 Y140.052 E5.63873
G0 F1080 X133.956 Y139.631
G0 F6000 X134.252 Y139.901
G1 F1200 X134.75 Y139.452 E5.66996
G1 X135.28 Y139.016 E5.70191
G1 X135.898 Y138.559 E5.7377
G1 X136.493 Y138.205 E5.76994
G1 X137.101 Y137.88 E5.80204
G1 X137.797 Y137.553 E5.83785
G1 X138.047 Y137.464 E5.85021
G1 X138.322 Y136.888 E5.87993
G1 X138.647 Y136.28 E5.91203
G1 X139.044 Y135.621 E5.94785
G1 X139.456 Y135.069 E5.97993
G1 X139.89 Y134.541 E6.01175
G1 X140.409 Y133.973 E6.04758
G1 X140.907 Y133.524 E6.0788
G1 X141.436 Y133.089 E6.11069
G1 X142.055 Y132.632 E6.14652
G1 X142.648 Y132.279 E6.17866
G1 X143.256 Y131.954 E6.21076
G1 X143.952 Y131.627 E6.24657
G1 X144.593 Y131.4 E6.27823
G1 X145.248 Y131.201 E6.31011
G1 X145.994 Y131.016 E6.34589
G1 X146.677 Y130.916 E6.37804
G1 X147.36 Y130.849 E6.40999
G1 X148.128 Y130.814 E6.44579
G1 X148.792 Y130.848 E6.47675
G1 X149.466 Y130.913 E6.50828
G1 X150.227 Y131.027 E6.54411
G1 X150.897 Y131.195 E6.57628
G1 X151.562 Y131.396 E6.60862
G1 X152.286 Y131.657 E6.64446
G1 X152.909 Y131.954 E6.6766
G1 X153.517 Y132.279 E6.7087
G1 X154.176 Y132.676 E6.74452
G1 X154.727 Y133.087 E6.77653
G1 X155.254 Y133.52 E6.80829
G1 X155.822 Y134.039 E6.84412
G1 X156.271 Y134.537 E6.87534
G1 X156.707 Y135.067 E6.9073
G1 X157.164 Y135.685 E6.94309
G1 X157.518 Y136.28 E6.97533
G1 X157.843 Y136.888 E7.00743
G1 X158.17 Y137.584 E7.04324
G1 X158.399 Y138.229 E7.07511
G1 X158.597 Y138.882 E7.10688
G1 X158.781 Y139.628 E7.14266
G1 X158.88 Y140.307 E7.17461
G1 X158.952 Y141.091 E7.21127
G1 X159.643 Y141.157 E7.24359
G1 X160.404 Y141.271 E7.27942
G1 X161.067 Y141.437 E7.31125
G1 X161.731 Y141.637 E7.34354
G1 X162.455 Y141.897 E7.37936
G1 X163.089 Y142.199 E7.41206
G1 X163.698 Y142.525 E7.44422
G1 X164.357 Y142.923 E7.48007
G1 X164.904 Y143.331 E7.51185
G1 X165.431 Y143.764 E7.54361
G1 X165.999 Y144.283 E7.57943
G1 X166.453 Y144.787 E7.61102
G1 X166.888 Y145.317 E7.64295
G1 X167.344 Y145.936 E7.67875
G1 X167.69 Y146.515 E7.71015
G1 X168.016 Y147.123 E7.74228
G1 X168.343 Y147.819 E7.77808
G1 X168.576 Y148.473 E7.81041
G1 X168.774 Y149.126 E7.84219
G1 X168.958 Y149.872 E7.87796
G1 X169.057 Y150.551 E7.90992
G1 X169.124 Y151.234 E7.94187
G1 X169.159 Y152.002 E7.97767
G1 X169.125 Y152.664 E8.00854
G1 X169.06 Y153.34 E8.04016
G1 X168.947 Y154.101 E8.07598
G1 X168.78 Y154.766 E8.10791
G1 X168.58 Y155.43 E8.1402
G1 X168.32 Y156.154 E8.17602
G1 X168.018 Y156.789 E8.20876
G1 X167.693 Y157.396 E8.24082
G1 X167.295 Y158.054 E8.27663
G1 X166.89 Y158.597 E8.30817
G1 X166.456 Y159.126 E8.34004
G1 X165.938 Y159.694 E8.37583
G1 X165.435 Y160.148 E8.40738
G1 X164.906 Y160.583 E8.43927
G1 X164.287 Y161.04 E8.4751
G1 X163.698 Y161.391 E8.50703
G1 X163.089 Y161.717 E8.53919
G1 X162.519 Y161.985 E8.56852
G1 X162.419 Y162.264 E8.58232
G1 X162.116 Y162.902 E8.61521
G1 X161.791 Y163.509 E8.64727
G1 X161.393 Y164.167 E8.68308
G1 X160.984 Y164.715 E8.71492
G1 X160.55 Y165.243 E8.74675
G1 X160.031 Y165.811 E8.78257
G1 X159.54 Y166.254 E8.81337
G1 X159.011 Y166.69 E8.84529
G1 X158.392 Y167.148 E8.88114
G1 X157.788 Y167.509 E8.91391
G1 X157.179 Y167.834 E8.94605
G1 X156.483 Y168.16 E8.98184
G1 X155.839 Y168.388 E9.01365
G1 X155.185 Y168.586 E9.04547
G1 X154.439 Y168.77 E9.08124
G1 X153.762 Y168.868 E9.1131
G1 X153.078 Y168.935 E9.1451
G1 X152.31 Y168.97 E9.1809
G1 X151.647 Y168.936 E9.21181
G1 X150.973 Y168.871 E9.24334
G1 X150.212 Y168.757 E9.27917
G1 X149.549 Y168.591 E9.311
G1 X148.885 Y168.391 E9.34329
G1 X148.161 Y168.131 E9.37911
G1 X147.531 Y167.831 E9.4116
G1 X146.923 Y167.506 E9.4437
G1 X146.264 Y167.109 E9.47952
G1 X145.764 Y166.735 E9.5086
G1 X144.822 Y166.829 E9.55268
G1 X144.054 Y166.865 E9.58848
G1 X143.358 Y166.829 E9.62093
G1 X142.674 Y166.761 E9.65294
G1 X141.914 Y166.645 E9.68874
G1 X141.262 Y166.48 E9.72006
G1 X140.608 Y166.282 E9.75187
G1 X139.884 Y166.021 E9.78771
G1 X139.264 Y165.725 E9.8197
G1 X138.656 Y165.4 E9.8518
G1 X137.997 Y165.003 E9.88763
G1 X137.443 Y164.589 E9.91983
G1 X136.913 Y164.153 E9.95179
G1 X136.345 Y163.634 E9.98761
G1 X135.897 Y163.137 E10.01877
G1 X135.463 Y162.609 E10.0506
G1 X135.006 Y161.99 E10.08642
G1 X134.652 Y161.395 E10.11866
G1 X134.328 Y160.788 E10.1507
G1 X134.001 Y160.091 E10.18655
G1 X133.776 Y159.454 E10.21801
G1 X133.577 Y158.799 E10.24988
G1 X133.392 Y158.053 E10.28567
G1 X133.293 Y157.373 E10.31767
G1 X133.226 Y156.692 E10.34953
G1 X133.19 Y155.923 E10.38538
G1 X133.224 Y155.26 E10.41629
G1 X133.289 Y154.583 E10.44796
G1 X133.328 Y154.319 E10.46039
G1 X132.843 Y153.666 E10.49826
G1 X132.489 Y153.071 E10.5305
G1 X132.165 Y152.464 E10.56254
G1 X131.838 Y151.767 E10.59839
G1 X131.613 Y151.13 E10.62985
G1 X131.414 Y150.475 E10.66172
G1 X131.229 Y149.729 E10.69751
G1 X131.13 Y149.049 E10.72951
G1 X131.063 Y148.368 E10.76137
G1 X131.027 Y147.599 E10.79722
G1 X131.061 Y146.936 E10.82813
G1 X131.126 Y146.259 E10.8598
G1 X131.239 Y145.498 E10.89563
G1 X131.409 Y144.822 E10.92808
G1 X131.61 Y144.158 E10.96039
G1 X131.871 Y143.434 E10.99622
G1 X132.167 Y142.814 E11.02822
G1 X132.492 Y142.206 E11.06032
G1 X132.889 Y141.547 E11.09614
G1 X133.3 Y140.996 E11.12815
G1 X133.733 Y140.469 E11.15991
G1 X133.868 Y140.322 E11.1692
G0 F1080 X134.252 Y139.901
G0 F6000 X134.548 Y140.171
G1 F1200 X135.004 Y139.761 E11.19776
G1 X135.534 Y139.325 E11.22971
G1 X136.136 Y138.881 E11.26455
G1 X136.681 Y138.558 E11.29405
G1 X137.289 Y138.233 E11.32615
G1 X137.967 Y137.916 E11.361
G1 X138.335 Y137.786 E11.37917
G1 X138.675 Y137.076 E11.41583
G1 X139 Y136.468 E11.44793
G1 X139.387 Y135.828 E11.48275
G1 X139.765 Y135.323 E11.51213
G1 X140.199 Y134.795 E11.54395
G1 X140.705 Y134.243 E11.57882
G1 X141.161 Y133.833 E11.60738
G1 X141.69 Y133.398 E11.63927
G1 X142.292 Y132.955 E11.67407
G1 X142.836 Y132.632 E11.70353
G1 X143.444 Y132.307 E11.73563
G1 X144.122 Y131.99 E11.77048
G1 X144.709 Y131.782 E11.79948
G1 X145.364 Y131.583 E11.83136
G1 X146.09 Y131.404 E11.86617
G1 X146.716 Y131.314 E11.89562
G1 X147.399 Y131.247 E11.92758
G1 X148.146 Y131.214 E11.9624
G1 X148.754 Y131.246 E11.99075
G1 X149.428 Y131.311 E12.02228
G1 X150.168 Y131.423 E12.05713
G1 X150.781 Y131.578 E12.08657
G1 X151.446 Y131.779 E12.11892
G1 X152.15 Y132.034 E12.15378
G1 X152.721 Y132.307 E12.18325
G1 X153.329 Y132.632 E12.21536
G1 X153.969 Y133.019 E12.25018
G1 X154.473 Y133.396 E12.27949
G1 X155 Y133.829 E12.31125
G1 X155.552 Y134.335 E12.34612
G1 X155.962 Y134.791 E12.37467
G1 X156.398 Y135.321 E12.40663
G1 X156.842 Y135.923 E12.44146
G1 X157.165 Y136.468 E12.47096
G1 X157.49 Y137.076 E12.50306
G1 X157.807 Y137.754 E12.53791
G1 X158.016 Y138.345 E12.5671
G1 X158.214 Y138.998 E12.59887
G1 X158.392 Y139.724 E12.63368
G1 X158.482 Y140.346 E12.66295
G1 X158.549 Y141.029 E12.6949
G1 X158.569 Y141.471 E12.7155
G1 X158.931 Y141.49 E12.73238
G1 X159.605 Y141.555 E12.76391
G1 X160.345 Y141.667 E12.79876
G1 X160.952 Y141.82 E12.82791
G1 X161.616 Y142.02 E12.8602
G1 X162.32 Y142.274 E12.89505
G1 X162.901 Y142.552 E12.92504
G1 X163.51 Y142.878 E12.95721
G1 X164.149 Y143.265 E12.99199
G1 X164.65 Y143.64 E13.02113
G1 X165.177 Y144.073 E13.05289
G1 X165.729 Y144.579 E13.08776
G1 X166.144 Y145.041 E13.11668
G1 X166.579 Y145.571 E13.14861
G1 X167.022 Y146.174 E13.18345
G1 X167.337 Y146.704 E13.21216
G1 X167.663 Y147.312 E13.24428
G1 X167.981 Y147.989 E13.27911
G1 X168.193 Y148.589 E13.30874
G1 X168.391 Y149.242 E13.34051
G1 X168.569 Y149.968 E13.37532
G1 X168.659 Y150.59 E13.40459
G1 X168.726 Y151.273 E13.43654
G1 X168.759 Y152.02 E13.47136
G1 X168.727 Y152.626 E13.49962
G1 X168.662 Y153.302 E13.53124
G1 X168.551 Y154.042 E13.56608
G1 X168.397 Y154.651 E13.59533
G1 X168.197 Y155.315 E13.62762
G1 X167.943 Y156.019 E13.66247
G1 X167.665 Y156.6 E13.69246
G1 X167.34 Y157.207 E13.72452
G1 X166.952 Y157.847 E13.75937
G1 X166.581 Y158.343 E13.78822
G1 X166.147 Y158.872 E13.82008
G1 X165.642 Y159.424 E13.85491
G1 X165.181 Y159.839 E13.8838
G1 X164.652 Y160.274 E13.91569
G1 X164.05 Y160.717 E13.95049
G1 X163.51 Y161.038 E13.97974
G1 X162.901 Y161.364 E14.01191
G1 X162.2 Y161.69 E14.04791
G1 X162.042 Y162.129 E14.06963
G1 X161.763 Y162.713 E14.09977
G1 X161.438 Y163.32 E14.13183
G1 X161.05 Y163.96 E14.16668
G1 X160.675 Y164.461 E14.19582
G1 X160.241 Y164.989 E14.22765
G1 X159.735 Y165.541 E14.26252
G1 X159.285 Y165.946 E14.29071
G1 X158.756 Y166.382 E14.32263
G1 X158.154 Y166.826 E14.35746
G1 X157.6 Y167.156 E14.38748
G1 X156.991 Y167.481 E14.41963
G1 X156.313 Y167.797 E14.45446
G1 X155.723 Y168.005 E14.48359
G1 X155.069 Y168.203 E14.51541
G1 X154.343 Y168.381 E14.55021
G1 X153.723 Y168.47 E14.57938
G1 X153.039 Y168.537 E14.61138
G1 X152.292 Y168.57 E14.6462
G1 X151.685 Y168.538 E14.6745
G1 X151.011 Y168.473 E14.70603
G1 X150.271 Y168.361 E14.74088
G1 X149.664 Y168.208 E14.77003
G1 X149 Y168.008 E14.80232
G1 X148.296 Y167.754 E14.83717
G1 X147.719 Y167.478 E14.86695
G1 X147.111 Y167.153 E14.89906
G1 X146.471 Y166.766 E14.93388
G1 X145.858 Y166.306 E14.96957
G1 X145.466 Y166.363 E14.98801
G1 X144.782 Y166.431 E15.02002
G1 X144.035 Y166.465 E15.05484
G1 X143.398 Y166.431 E15.08454
G1 X142.714 Y166.363 E15.11655
G1 X141.974 Y166.249 E15.15141
G1 X141.378 Y166.097 E15.18005
G1 X140.724 Y165.899 E15.21187
G1 X140.02 Y165.644 E15.24674
G1 X139.452 Y165.372 E15.27606
G1 X138.844 Y165.047 E15.30816
G1 X138.204 Y164.66 E15.34299
G1 X137.697 Y164.28 E15.37249
G1 X137.167 Y163.844 E15.40445
G1 X136.615 Y163.338 E15.43932
G1 X136.206 Y162.883 E15.46781
G1 X135.772 Y162.355 E15.49963
G1 X135.329 Y161.752 E15.53447
G1 X135.005 Y161.206 E15.56404
G1 X134.681 Y160.599 E15.59608
G1 X134.364 Y159.921 E15.63093
G1 X134.158 Y159.338 E15.65972
G1 X133.959 Y158.683 E15.69159
G1 X133.78 Y157.957 E15.72641
G1 X133.691 Y157.333 E15.75576
G1 X133.624 Y156.652 E15.78763
G1 X133.59 Y155.905 E15.82245
G1 X133.622 Y155.298 E15.85075
G1 X133.687 Y154.621 E15.88242
G1 X133.747 Y154.219 E15.90134
G1 X133.166 Y153.428 E15.94704
G1 X132.842 Y152.882 E15.97661
G1 X132.518 Y152.275 E16.00865
G1 X132.201 Y151.597 E16.0435
G1 X131.995 Y151.014 E16.07229
