;FLAVOR:Marlin
;TIME:3461
;Filament used: 1.82733m
;Layer height: 0.2
;MINX:127.256
;MINY:132.597
;MINZ:0.28
;MAXX:172.744
;MAXY:167.403
;MAXZ:28.28
;POSTPROCESSED
;Generated with Cura_SteamEngine 4.12.1
M140 S80
M105
M190 S80
M82 ;absolute extrusion mode
M201 X500.00 Y500.00 Z100.00 E5000.00 ;Setup machine max acceleration
M203 X500.00 Y500.00 Z10.00 E50.00 ;Setup machine max feedrate
M204 P500.00 R1000.00 T500.00 ;Setup Print/Retract/Travel acceleration
M205 X8.00 Y8.00 Z0.40 E5.00 ;Setup Jerk
M220 S100 ;Reset Feedrate
M221 S100 ;Reset Flowrate
M140 S80 ; set bed temp
M190 S80 ; wait for bed temp
G28; home all 
G29;
G92 E0 ;Reset Extruder
;G1 Z2.0 F3000 ;Move Z Axis up
G1 X10.1 Y20 Z0.28 F5000.0 ;Move to start position
M104 S240.0 ; wait for extruder printing temp
M109 S240.0 ; wait for extruder printing temp
G1 X10.1 Y200.0 Z0.28 F1500.0 E15 ;Draw the first line
G1 X10.4 Y200.0 Z0.28 F5000.0 ;Move to side a little
G1 X10.4 Y20 Z0.28 F1500.0 E30 ;Draw the second line
G92 E0 ;Reset Extruder
G1 Z2.0 F3000 ;Move Z Axis up
G92 E0
G92 E0
G1 F1800 E-3
;LAYER_COUNT:141
;LAYER:0
M107
G0 F6000 X135.867 Y134.999 Z0.28
;TYPE:SKIRT
G1 F1800 E0
G1 F1200 X135.984 Y134.882 E0.0077
G1 X136.57 Y134.352 E0.0445
G1 X137.206 Y133.885 E0.08124
G1 X137.886 Y133.484 E0.118
G1 X138.604 Y133.154 E0.15479
G1 X139.351 Y132.899 E0.19155
G1 X140.12 Y132.72 E0.22831
G1 X140.904 Y132.62 E0.26511
G1 X141.499 Y132.597 E0.29284
G1 X158.626 Y132.597 E1.09034
G1 X159.415 Y132.637 E1.12713
G1 X160.195 Y132.756 E1.16387
G1 X160.96 Y132.954 E1.20067
G1 X161.7 Y133.228 E1.23741
G1 X162.409 Y133.576 E1.27419
G1 X163.08 Y133.994 E1.311
G1 X163.704 Y134.477 E1.34774
G1 X164.141 Y134.882 E1.37548
G1 X164.258 Y134.999 E1.38319
G1 X164.788 Y135.585 E1.41998
G1 X165.255 Y136.221 E1.45672
G1 X165.656 Y136.901 E1.49348
G1 X165.986 Y137.619 E1.53028
G1 X166.241 Y138.366 E1.56703
G1 X166.42 Y139.135 E1.6038
G1 X166.52 Y139.919 E1.6406
G1 X166.543 Y140.514 E1.66832
G1 X166.543 Y141.147 E1.6978
G1 X167.121 Y141.768 E1.7373
G1 X171.035 Y146.661 E2.02907
G1 X171.496 Y147.302 E2.06583
G1 X171.891 Y147.986 E2.10261
G1 X172.214 Y148.706 E2.13936
G1 X172.462 Y149.456 E2.17614
G1 X172.634 Y150.227 E2.21292
G1 X172.727 Y151.011 E2.24969
G1 X172.744 Y151.533 E2.274
G1 X172.744 Y151.669 E2.28034
G1 X172.704 Y152.458 E2.31712
G1 X172.585 Y153.238 E2.35386
G1 X172.387 Y154.003 E2.39066
G1 X172.113 Y154.743 E2.4274
G1 X171.765 Y155.452 E2.46418
G1 X171.347 Y156.123 E2.50099
G1 X171.036 Y156.54 E2.52521
G1 X167.116 Y161.442 E2.81748
G1 X166.592 Y162.033 E2.85426
G1 X166.011 Y162.568 E2.89103
G1 X165.848 Y162.69 E2.90051
G1 X165.564 Y163.269 E2.93054
G1 X165.146 Y163.94 E2.96736
G1 X164.663 Y164.564 E3.0041
G1 X164.258 Y165.001 E3.03184
G1 X164.141 Y165.118 E3.03955
G1 X163.555 Y165.648 E3.07634
G1 X162.919 Y166.115 E3.11308
G1 X162.239 Y166.516 E3.14984
G1 X161.521 Y166.846 E3.18663
G1 X160.774 Y167.101 E3.22339
G1 X160.005 Y167.28 E3.26015
G1 X159.221 Y167.38 E3.29696
G1 X158.626 Y167.403 E3.32468
G1 X141.499 Y167.403 E4.12219
G1 X140.71 Y167.363 E4.15897
G1 X139.93 Y167.244 E4.19571
G1 X139.165 Y167.046 E4.23251
G1 X138.425 Y166.772 E4.26925
G1 X137.716 Y166.424 E4.30603
G1 X137.045 Y166.006 E4.34284
G1 X136.421 Y165.523 E4.37958
G1 X135.984 Y165.118 E4.40733
G1 X135.867 Y165.001 E4.41503
G1 X135.337 Y164.415 E4.45182
G1 X134.87 Y163.779 E4.48856
G1 X134.469 Y163.099 E4.52532
G1 X134.355 Y162.851 E4.53803
G1 X134.303 Y162.816 E4.54095
G1 X133.695 Y162.312 E4.57773
G1 X133.142 Y161.748 E4.61451
G1 X132.884 Y161.442 E4.63314
G1 X128.964 Y156.54 E4.92541
G1 X128.503 Y155.899 E4.96217
G1 X128.109 Y155.215 E4.99893
G1 X127.786 Y154.495 E5.03567
G1 X127.537 Y153.745 E5.07247
G1 X127.366 Y152.974 E5.10925
G1 X127.273 Y152.19 E5.14601
G1 X127.256 Y151.669 E5.17028
G1 X127.256 Y151.533 E5.17661
G1 X127.296 Y150.744 E5.2134
G1 X127.415 Y149.964 E5.25014
G1 X127.613 Y149.199 E5.28694
G1 X127.887 Y148.459 E5.32368
G1 X128.235 Y147.75 E5.36046
G1 X128.653 Y147.079 E5.39727
G1 X128.965 Y146.661 E5.42155
G1 X132.879 Y141.768 E5.71332
G1 X133.403 Y141.177 E5.7501
G1 X133.582 Y141.012 E5.76143
G1 X133.582 Y140.514 E5.78462
G1 X133.622 Y139.725 E5.82141
G1 X133.741 Y138.945 E5.85815
G1 X133.939 Y138.18 E5.89494
G1 X134.213 Y137.44 E5.93169
G1 X134.561 Y136.731 E5.96846
G1 X134.979 Y136.06 E6.00528
G1 X135.462 Y135.436 E6.04202
G1 X135.867 Y134.999 E6.06976
G0 F6000 X136.149 Y135.281
G1 F1200 X136.266 Y135.164 E6.07747
G1 X136.838 Y134.65 E6.11328
G1 X137.46 Y134.197 E6.14911
G1 X138.125 Y133.811 E6.18491
G1 X138.827 Y133.496 E6.22074
G1 X139.558 Y133.256 E6.25656
G1 X140.309 Y133.093 E6.29235
G1 X141.074 Y133.009 E6.32818
G1 X141.499 Y132.997 E6.34798
G1 X158.626 Y132.997 E7.14549
G1 X159.394 Y133.037 E7.1813
G1 X160.154 Y133.156 E7.21712
G1 X160.897 Y133.354 E7.25292
G1 X161.616 Y133.628 E7.28875
G1 X162.302 Y133.975 E7.32455
G1 X162.949 Y134.391 E7.36036
G1 X163.549 Y134.872 E7.39617
G1 X163.859 Y135.164 E7.416
G1 X163.976 Y135.281 E7.42371
G1 X164.49 Y135.853 E7.45951
G1 X164.943 Y136.475 E7.49534
G1 X165.329 Y137.14 E7.53115
G1 X165.644 Y137.842 E7.56698
G1 X165.884 Y138.573 E7.6028
G1 X166.047 Y139.324 E7.63859
G1 X166.131 Y140.089 E7.67442
G1 X166.143 Y140.514 E7.69422
G1 X166.143 Y141.296 E7.73063
G1 X166.809 Y142.018 E7.77637
G1 X170.723 Y146.911 E8.06813
G1 X171.171 Y147.535 E8.1039
G1 X171.553 Y148.203 E8.13973
G1 X171.862 Y148.907 E8.17553
G1 X172.098 Y149.64 E8.21139
G1 X172.256 Y150.392 E8.24717
G1 X172.344 Y151.533 E8.30046
G1 X172.344 Y151.669 E8.30679
G1 X172.304 Y152.437 E8.3426
G1 X172.185 Y153.197 E8.37842
G1 X171.987 Y153.94 E8.41423
G1 X171.713 Y154.659 E8.45006
G1 X171.366 Y155.345 E8.48585
G1 X170.723 Y156.291 E8.53911
G1 X166.803 Y161.193 E8.83138
G1 X166.292 Y161.768 E8.8672
G1 X165.725 Y162.286 E8.90296
G1 X165.512 Y162.476 E8.91625
G1 X165.165 Y163.162 E8.95205
G1 X164.749 Y163.809 E8.98787
G1 X164.268 Y164.409 E9.02367
G1 X163.976 Y164.719 E9.0435
G1 X163.859 Y164.836 E9.05121
G1 X163.287 Y165.35 E9.08702
G1 X162.665 Y165.803 E9.12285
G1 X162 Y166.189 E9.15865
G1 X161.298 Y166.504 E9.19448
G1 X160.567 Y166.744 E9.2303
G1 X159.816 Y166.907 E9.26609
G1 X159.051 Y166.991 E9.30192
G1 X158.626 Y167.003 E9.32172
G1 X141.499 Y167.003 E10.11923
G1 X140.731 Y166.963 E10.15504
G1 X139.971 Y166.844 E10.19086
G1 X139.228 Y166.646 E10.22666
G1 X138.509 Y166.372 E10.26249
G1 X137.823 Y166.025 E10.29829
G1 X137.176 Y165.609 E10.3341
G1 X136.576 Y165.128 E10.36991
G1 X136.266 Y164.836 E10.38974
G1 X136.149 Y164.719 E10.39745
G1 X135.635 Y164.147 E10.43325
G1 X135.182 Y163.525 E10.46908
G1 X134.796 Y162.86 E10.50489
G1 X134.671 Y162.581 E10.51912
G1 X134.51 Y162.472 E10.52818
G1 X133.922 Y161.976 E10.564
G1 X133.197 Y161.193 E10.61369
G1 X129.277 Y156.291 E10.90595
G1 X128.828 Y155.666 E10.94179
G1 X128.447 Y154.998 E10.97759
G1 X128.137 Y154.294 E11.01341
G1 X127.902 Y153.561 E11.04926
G1 X127.744 Y152.809 E11.08504
G1 X127.656 Y151.669 E11.13828
G1 X127.656 Y151.533 E11.14461
G1 X127.696 Y150.765 E11.18042
G1 X127.815 Y150.005 E11.21624
G1 X128.013 Y149.262 E11.25205
G1 X128.287 Y148.543 E11.28787
G1 X128.634 Y147.857 E11.32367
G1 X129.277 Y146.911 E11.37693
G1 X133.191 Y142.018 E11.6687
G1 X133.702 Y141.443 E11.70452
G1 X133.982 Y141.187 E11.72218
G1 X133.982 Y140.514 E11.75352
G1 X134.022 Y139.746 E11.78933
G1 X134.141 Y138.986 E11.82515
G1 X134.339 Y138.243 E11.86095
G1 X134.613 Y137.524 E11.89678
G1 X134.96 Y136.838 E11.93258
G1 X135.376 Y136.191 E11.9684
G1 X135.857 Y135.591 E12.0042
G1 X136.149 Y135.281 E12.02403
G0 F6000 X136.432 Y135.564
G1 F1200 X136.549 Y135.447 E12.03174
G1 X137.106 Y134.947 E12.06659
G1 X137.712 Y134.51 E12.10138
G1 X138.362 Y134.139 E12.13623
G1 X139.048 Y133.84 E12.17108
G1 X139.762 Y133.616 E12.20592
G1 X140.495 Y133.469 E12.24073
G1 X141.499 Y133.397 E12.2876
G1 X158.626 Y133.397 E13.08511
G1 X159.373 Y133.437 E13.11994
G1 X160.111 Y133.556 E13.15475
G1 X160.833 Y133.754 E13.18961
G1 X161.529 Y134.027 E13.22442
G1 X162.192 Y134.374 E13.25927
G1 X162.815 Y134.789 E13.29412
G1 X163.576 Y135.447 E13.34097
G1 X163.693 Y135.564 E13.34867
G1 X164.193 Y136.121 E13.38353
G1 X164.63 Y136.727 E13.41832
G1 X165.001 Y137.377 E13.45317
G1 X165.3 Y138.063 E13.48801
G1 X165.524 Y138.777 E13.52286
G1 X165.671 Y139.51 E13.55767
G1 X165.743 Y140.514 E13.60454
G1 X165.743 Y141.474 E13.64924
G1 X165.871 Y141.584 E13.6571
G1 X166.496 Y142.267 E13.70021
G1 X170.41 Y147.16 E13.99197
G1 X170.846 Y147.769 E14.02685
G1 X171.214 Y148.42 E14.06167
G1 X171.51 Y149.107 E14.0965
G1 X171.732 Y149.821 E14.13132
G1 X171.875 Y150.555 E14.16614
G1 X171.944 Y151.533 E14.21179
G1 X171.944 Y151.669 E14.21812
G1 X171.904 Y152.416 E14.25296
G1 X171.785 Y153.154 E14.28777
G1 X171.587 Y153.876 E14.32263
G1 X171.314 Y154.572 E14.35744
G1 X170.967 Y155.235 E14.39228
G1 X170.411 Y156.041 E14.43788
G1 X166.491 Y160.943 E14.73014
G1 X165.993 Y161.501 E14.76497
G1 X165.439 Y162.003 E14.79978
G1 X165.195 Y162.181 E14.81385
G1 X165.113 Y162.389 E14.82426
G1 X164.766 Y163.052 E14.8591
G1 X164.351 Y163.675 E14.89396
G1 X163.693 Y164.436 E14.9408
G1 X163.576 Y164.553 E14.94851
G1 X163.019 Y165.053 E14.98336
G1 X162.413 Y165.49 E15.01815
G1 X161.763 Y165.861 E15.053
G1 X161.077 Y166.16 E15.08784
G1 X160.363 Y166.384 E15.12269
G1 X159.63 Y166.531 E15.1575
G1 X158.626 Y166.603 E15.20437
G1 X141.499 Y166.603 E16.00188
G1 X140.752 Y166.563 E16.03671
G1 X140.014 Y166.444 E16.07152
G1 X139.292 Y166.246 E16.10638
G1 X138.596 Y165.973 E16.14119
G1 X137.933 Y165.626 E16.17604
G1 X137.31 Y165.211 E16.21089
G1 X136.549 Y164.553 E16.25774
G1 X136.432 Y164.436 E16.26544
G1 X135.932 Y163.879 E16.30029
G1 X135.495 Y163.273 E16.33508
G1 X135.124 Y162.623 E16.36993
G1 X134.988 Y162.312 E16.38574
G1 X134.719 Y162.128 E16.40092
G1 X134.151 Y161.642 E16.43572
G1 X133.509 Y160.943 E16.47992
G1 X129.589 Y156.041 E16.77218
G1 X129.154 Y155.432 E16.80703
G1 X128.786 Y154.781 E16.84185
G1 X128.49 Y154.094 E16.87669
G1 X128.268 Y153.38 E16.9115
G1 X128.124 Y152.645 E16.94638
G1 X128.056 Y151.669 E16.99193
G1 X128.056 Y151.533 E16.99827
G1 X128.096 Y150.786 E17.0331
G1 X128.215 Y150.048 E17.06791
G1 X128.413 Y149.326 E17.10277
G1 X128.686 Y148.63 E17.13758
G1 X129.033 Y147.967 E17.17243
G1 X129.59 Y147.16 E17.21809
G1 X133.504 Y142.267 E17.50985
G1 X134.002 Y141.709 E17.54468
G1 X134.382 Y141.365 E17.56854
G1 X134.382 Y140.514 E17.60817
G1 X134.422 Y139.767 E17.643
G1 X134.541 Y139.029 E17.67781
G1 X134.739 Y138.307 E17.71267
G1 X135.012 Y137.611 E17.74748
G1 X135.359 Y136.948 E17.78233
G1 X135.774 Y136.325 E17.81719
G1 X136.432 Y135.564 E17.86403
G0 F6000 X136.715 Y135.847
G1 F1200 X136.832 Y135.73 E17.87174
G1 X137.373 Y135.246 E17.90554
G1 X137.964 Y134.823 E17.93938
G1 X138.598 Y134.469 E17.97319
G1 X139.267 Y134.186 E18.00701
G1 X139.963 Y133.978 E18.04084
G1 X140.678 Y133.848 E18.07468
G1 X141.499 Y133.797 E18.11298
G1 X158.626 Y133.797 E18.91049
G1 X159.351 Y133.837 E18.9443
G1 X160.068 Y133.956 E18.97814
G1 X160.767 Y134.154 E19.01197
G1 X161.44 Y134.427 E19.04579
G1 X162.079 Y134.772 E19.0796
G1 X162.676 Y135.186 E19.11343
G1 X163.293 Y135.73 E19.15173
G1 X163.41 Y135.847 E19.15944
G1 X163.894 Y136.388 E19.19324
G1 X164.317 Y136.979 E19.22708
G1 X164.671 Y137.613 E19.26089
G1 X164.954 Y138.282 E19.29472
G1 X165.162 Y138.978 E19.32854
G1 X165.292 Y139.693 E19.36238
G1 X165.343 Y140.514 E19.40068
G1 X165.343 Y141.657 E19.45391
G1 X165.64 Y141.917 E19.47229
G1 X166.184 Y142.517 E19.51
G1 X170.098 Y147.41 E19.80176
G1 X170.52 Y148.002 E19.83561
G1 X170.874 Y148.636 E19.86943
G1 X171.157 Y149.305 E19.90325
G1 X171.364 Y150.001 E19.93706
G1 X171.493 Y150.716 E19.97089
G1 X171.544 Y151.533 E20.00901
G1 X171.544 Y151.669 E20.01534
G1 X171.504 Y152.394 E20.04915
G1 X171.385 Y153.111 E20.083
G1 X171.187 Y153.81 E20.11683
G1 X170.914 Y154.483 E20.15064
G1 X170.569 Y155.122 E20.18446
G1 X170.099 Y155.791 E20.22253
G1 X166.179 Y160.693 E20.51479
G1 X165.694 Y161.234 E20.54863
G1 X165.154 Y161.719 E20.58242
G1 X164.865 Y161.926 E20.59898
G1 X164.713 Y162.3 E20.61778
G1 X164.368 Y162.939 E20.65159
G1 X163.954 Y163.536 E20.68542
G1 X163.41 Y164.153 E20.72372
G1 X163.293 Y164.27 E20.73143
G1 X162.752 Y164.754 E20.76523
G1 X162.161 Y165.177 E20.79907
G1 X161.527 Y165.531 E20.83288
G1 X160.858 Y165.814 E20.8667
G1 X160.162 Y166.022 E20.90053
G1 X159.447 Y166.152 E20.93437
G1 X158.626 Y166.203 E20.97267
G1 X141.499 Y166.203 E21.77018
G1 X140.774 Y166.163 E21.80399
G1 X140.057 Y166.044 E21.83783
G1 X139.358 Y165.846 E21.87166
G1 X138.685 Y165.573 E21.90548
G1 X138.046 Y165.228 E21.93929
G1 X137.449 Y164.814 E21.97312
G1 X136.832 Y164.27 E22.01142
G1 X136.715 Y164.153 E22.01913
G1 X136.231 Y163.612 E22.05293
G1 X135.808 Y163.021 E22.08677
G1 X135.454 Y162.387 E22.12058
G1 X135.311 Y162.049 E22.13767
G1 X134.929 Y161.785 E22.15929
G1 X134.381 Y161.308 E22.19312
G1 X133.821 Y160.693 E22.23185
G1 X129.901 Y155.791 E22.52412
G1 X129.48 Y155.2 E22.55791
G1 X129.126 Y154.565 E22.59176
G1 X128.843 Y153.896 E22.62558
G1 X128.636 Y153.2 E22.6594
G1 X128.507 Y152.485 E22.69323
G1 X128.456 Y151.669 E22.7313
G1 X128.456 Y151.533 E22.73763
G1 X128.496 Y150.808 E22.77144
G1 X128.615 Y150.091 E22.80528
G1 X128.813 Y149.392 E22.83911
G1 X129.086 Y148.719 E22.87293
G1 X129.431 Y148.08 E22.90674
G1 X129.902 Y147.41 E22.94488
G1 X133.816 Y142.517 E23.23664
G1 X134.3 Y141.976 E23.27045
G1 X134.782 Y141.544 E23.30058
G1 X134.782 Y140.514 E23.34855
G1 X134.822 Y139.789 E23.38236
G1 X134.941 Y139.072 E23.4162
G1 X135.139 Y138.373 E23.45003
G1 X135.412 Y137.7 E23.48385
G1 X135.757 Y137.061 E23.51766
G1 X136.171 Y136.464 E23.55149
G1 X136.715 Y135.847 E23.58979
G0 F6000 X136.998 Y136.13
G1 F1200 X137.115 Y136.013 E23.5975
G1 X137.64 Y135.544 E23.63028
G1 X138.215 Y135.138 E23.66305
G1 X138.833 Y134.8 E23.69585
G1 X139.484 Y134.533 E23.72862
G1 X140.162 Y134.343 E23.7614
G1 X140.857 Y134.23 E23.79419
G1 X141.499 Y134.197 E23.82412
G1 X158.626 Y134.197 E24.62163
G1 X159.329 Y134.237 E24.65442
G1 X160.023 Y134.356 E24.6872
G1 X160.698 Y134.554 E24.71996
G1 X161.347 Y134.826 E24.75272
G1 X161.961 Y135.171 E24.78552
G1 X162.532 Y135.582 E24.81828
G1 X163.01 Y136.013 E24.84825
G1 X163.127 Y136.13 E24.85595
G1 X163.596 Y136.655 E24.88873
G1 X164.002 Y137.23 E24.92151
G1 X164.34 Y137.848 E24.95431
G1 X164.607 Y138.499 E24.98707
G1 X164.797 Y139.177 E25.01986
G1 X164.91 Y139.872 E25.05265
G1 X164.943 Y140.514 E25.08258
G1 X164.943 Y141.836 E25.14414
G1 X165.407 Y142.249 E25.17306
G1 X165.872 Y142.767 E25.20548
G1 X169.786 Y147.66 E25.49724
G1 X170.193 Y148.234 E25.53001
G1 X170.534 Y148.85 E25.56279
G1 X170.802 Y149.501 E25.59557
G1 X170.994 Y150.178 E25.62834
G1 X171.109 Y150.873 E25.66114
G1 X171.144 Y151.533 E25.69192
G1 X171.144 Y151.669 E25.69825
G1 X171.104 Y152.372 E25.73104
G1 X170.985 Y153.066 E25.76382
G1 X170.787 Y153.741 E25.79658
G1 X170.515 Y154.39 E25.82935
G1 X170.17 Y155.004 E25.86214
G1 X169.786 Y155.541 E25.89288
G1 X165.866 Y160.443 E26.18515
G1 X165.396 Y160.967 E26.21792
G1 X164.869 Y161.434 E26.25071
G1 X164.541 Y161.664 E26.26937
G1 X164.314 Y162.207 E26.29677
G1 X163.969 Y162.821 E26.32956
G1 X163.558 Y163.392 E26.36232
G1 X163.127 Y163.87 E26.39229
G1 X163.01 Y163.987 E26.4
G1 X162.485 Y164.456 E26.43278
G1 X161.91 Y164.862 E26.46555
G1 X161.292 Y165.2 E26.49835
G1 X160.641 Y165.467 E26.53112
G1 X159.963 Y165.657 E26.5639
G1 X159.268 Y165.77 E26.59669
G1 X158.626 Y165.803 E26.62663
G1 X141.499 Y165.803 E27.42413
G1 X140.796 Y165.763 E27.45692
G1 X140.102 Y165.644 E27.4897
G1 X139.427 Y165.446 E27.52246
G1 X138.778 Y165.174 E27.55523
G1 X138.164 Y164.829 E27.58802
G1 X137.593 Y164.418 E27.62078
G1 X137.115 Y163.987 E27.65075
G1 X136.998 Y163.87 E27.65846
G1 X136.529 Y163.345 E27.69124
G1 X136.123 Y162.77 E27.72401
G1 X135.785 Y162.152 E27.75681
G1 X135.636 Y161.788 E27.77513
G1 X135.14 Y161.442 E27.80329
G1 X134.613 Y160.976 E27.83604
G1 X134.134 Y160.443 E27.86941
G1 X130.214 Y155.541 E28.16168
G1 X129.806 Y154.967 E28.19447
G1 X129.466 Y154.351 E28.22723
G1 X129.198 Y153.7 E28.26001
G1 X129.006 Y153.023 E28.29278
