;FLAVOR:Marlin
;TIME:2786
;Filament used: 1.8024m
;Layer height: 0.2
;MINX:107.891
;MINY:118.348
;MINZ:0.28
;MAXX:192.115
;MAXY:181.657
;MAXZ:3.88
;Generated with Cura_SteamEngine 5.2.1
M140 S95
M105
M190 S95
M82 ;absolute extrusion mode
M201 X500.00 Y500.00 Z100.00 E5000.00 ;Setup machine max acceleration
M203 X500.00 Y500.00 Z10.00 E50.00 ;Setup machine max feedrate
M204 P500.00 R1000.00 T500.00 ;Setup Print/Retract/Travel acceleration
M205 X8.00 Y8.00 Z0.40 E5.00 ;Setup Jerk
M220 S100 ;Reset Feedrate
M221 S100 ;Reset Flowrate
M140 S95.0 ; set bed temp
M190 S95.0 ; wait for bed temp
G28; home all
G29;
G92 E0 ;Reset Extruder
G1 Z2.0 F3000 ;Move Z Axis up
G1 X10.1 Y20 Z0.28 F5000.0 ;Move to start position
M104 S235 ; wait for extruder printing temp
M109 S235 ; wait for extruder printing temp
G1 X10.1 Y200.0 Z0.28 F1500.0 E15 ;Draw the first line
G1 X10.4 Y200.0 Z0.28 F5000.0 ;Move to side a little
G1 X10.4 Y20 Z0.28 F1500.0 E30 ;Draw the second line
G92 E0 ;Reset Extruder
G1 Z2.0 F3000 ;Move Z Axis up
G92 E0
G92 E0
G1 F1800 E-2
;LAYER_COUNT:19
;LAYER:0
M107
G0 F6000 X113.763 Y123.63 Z0.28
;TYPE:SKIRT
G1 F1800 E0
G1 F1200 X114.868 Y122.641 E0.06905
G1 X115.482 Y122.145 E0.10581
G1 X115.809 Y121.919 E0.12432
G1 X117.364 Y120.905 E0.21076
G1 X118.047 Y120.508 E0.24754
G1 X118.413 Y120.331 E0.26647
G1 X119.763 Y119.721 E0.33545
G1 X120.756 Y119.351 E0.3848
G1 X122.178 Y118.929 E0.45387
G1 X123.21 Y118.698 E0.50311
G1 X124.678 Y118.472 E0.57227
G1 X125.598 Y118.386 E0.6153
G1 X126.709 Y118.348 E0.66706
G1 X127.39 Y118.354 E0.69877
G1 X128.162 Y118.395 E0.73477
G1 X128.945 Y118.476 E0.77142
G1 X130.381 Y118.699 E0.83909
G1 X131.403 Y118.929 E0.88787
G1 X132.825 Y119.351 E0.95694
G1 X133.818 Y119.721 E1.00628
G1 X135.168 Y120.331 E1.07526
G1 X135.87 Y120.692 E1.11202
G1 X136.217 Y120.905 E1.13098
G1 X137.772 Y121.919 E1.21742
G1 X138.447 Y122.415 E1.25643
G1 X138.782 Y122.145 E1.27646
G1 X139.109 Y121.919 E1.29497
G1 X140.664 Y120.905 E1.38141
G1 X141.347 Y120.508 E1.4182
G1 X141.713 Y120.331 E1.43713
G1 X143.063 Y119.721 E1.50611
G1 X144.056 Y119.351 E1.55545
G1 X145.478 Y118.929 E1.62452
G1 X146.51 Y118.698 E1.67376
G1 X147.978 Y118.472 E1.74293
G1 X148.898 Y118.386 E1.78595
G1 X150.009 Y118.348 E1.83772
G1 X150.69 Y118.354 E1.86943
G1 X151.462 Y118.395 E1.90542
G1 X152.245 Y118.476 E1.94208
G1 X153.681 Y118.699 E2.00975
G1 X154.703 Y118.929 E2.05853
G1 X156.125 Y119.351 E2.12759
G1 X157.118 Y119.721 E2.17694
G1 X158.468 Y120.331 E2.24592
G1 X159.17 Y120.692 E2.28268
G1 X159.517 Y120.905 E2.30163
G1 X161.072 Y121.919 E2.38808
G1 X161.747 Y122.415 E2.42708
G1 X162.082 Y122.145 E2.44712
G1 X162.409 Y121.919 E2.46562
G1 X163.964 Y120.905 E2.55207
G1 X164.647 Y120.508 E2.58885
G1 X165.013 Y120.331 E2.60778
G1 X166.363 Y119.721 E2.67676
G1 X167.356 Y119.351 E2.72611
G1 X168.778 Y118.929 E2.79518
G1 X169.81 Y118.698 E2.84442
G1 X171.278 Y118.472 E2.91358
G1 X172.198 Y118.386 E2.95661
G1 X173.309 Y118.348 E3.00837
G1 X173.99 Y118.354 E3.04008
G1 X174.762 Y118.395 E3.07608
G1 X175.545 Y118.476 E3.11273
G1 X176.981 Y118.699 E3.1804
G1 X178.003 Y118.929 E3.22918
G1 X179.425 Y119.351 E3.29825
G1 X180.418 Y119.721 E3.34759
G1 X181.768 Y120.331 E3.41657
G1 X182.47 Y120.692 E3.45333
G1 X182.817 Y120.905 E3.47229
G1 X184.372 Y121.919 E3.55873
G1 X185.01 Y122.384 E3.59549
G1 X185.312 Y122.64 E3.61393
G1 X186.415 Y123.627 E3.68285
G1 X187.069 Y124.286 E3.72608
G1 X187.804 Y125.121 E3.77788
G1 X188.447 Y125.961 E3.82714
G1 X189.474 Y127.508 E3.9136
G1 X189.877 Y128.187 E3.95037
G1 X190.057 Y128.55 E3.96923
G1 X190.678 Y129.894 E4.03817
G1 X191.055 Y130.883 E4.08746
G1 X191.489 Y132.301 E4.15651
G1 X191.707 Y133.201 E4.19963
G1 X191.905 Y134.3 E4.25163
G1 X192.015 Y135.219 E4.29472
G1 X192.103 Y136.697 E4.36367
G1 X192.115 Y137.351 E4.39413
G1 X192.086 Y138.118 E4.42987
G1 X192.035 Y138.794 E4.46143
G1 X191.946 Y139.589 E4.49868
G1 X191.855 Y140.157 E4.52547
G1 X191.638 Y141.251 E4.5774
G1 X191.366 Y142.26 E4.62606
G1 X190.777 Y143.98 E4.71072
G1 X190.369 Y144.952 E4.75981
G1 X189.855 Y145.976 E4.81316
G1 X189.46 Y146.672 E4.85042
G1 X188.861 Y147.611 E4.90228
G1 X188.313 Y148.366 E4.94572
G1 X187.372 Y149.512 E5.01477
G1 X186.824 Y150.104 E5.05233
G1 X187.62 Y151.008 E5.10842
G1 X188.262 Y151.846 E5.15758
G1 X189.289 Y153.392 E5.244
G1 X189.692 Y154.071 E5.28077
G1 X189.874 Y154.438 E5.29984
G1 X190.495 Y155.783 E5.36883
G1 X190.873 Y156.775 E5.41826
G1 X191.306 Y158.193 E5.48729
G1 X191.521 Y159.08 E5.52979
G1 X191.72 Y160.178 E5.58175
G1 X191.831 Y161.105 E5.62523
G1 X191.919 Y162.582 E5.69412
G1 X191.91 Y163.64 E5.74339
G1 X191.797 Y165.12 E5.81251
G1 X191.671 Y166.044 E5.85593
G1 X191.454 Y167.138 E5.90786
G1 X191.182 Y168.148 E5.95657
G1 X190.593 Y169.867 E6.04118
G1 X190.186 Y170.835 E6.09008
G1 X189.672 Y171.86 E6.14347
G1 X189.276 Y172.559 E6.18088
G1 X188.677 Y173.498 E6.23274
G1 X188.129 Y174.253 E6.27618
G1 X187.188 Y175.399 E6.34523
G1 X186.555 Y176.082 E6.38859
G1 X185.752 Y176.851 E6.44036
G1 X185.153 Y177.37 E6.47727
G1 X184.273 Y178.056 E6.52922
G1 X183.51 Y178.58 E6.57232
G1 X182.242 Y179.346 E6.6413
G1 X181.546 Y179.72 E6.6781
G1 X181.18 Y179.882 E6.69673
G1 X179.466 Y180.588 E6.78305
G1 X178.721 Y180.852 E6.81985
G1 X178.319 Y180.96 E6.83924
G1 X176.847 Y181.314 E6.90973
G1 X175.937 Y181.476 E6.95277
G1 X174.861 Y181.603 E7.00322
G1 X173.947 Y181.657 E7.04586
G1 X172.466 Y181.657 E7.11482
G1 X171.677 Y181.617 E7.1516
G1 X171.281 Y181.566 E7.1702
G1 X169.447 Y181.284 E7.2566
G1 X168.411 Y181.052 E7.30603
G1 X167.344 Y180.735 E7.35786
G1 X166.353 Y180.366 E7.4071
G1 X164.667 Y179.604 E7.49326
G1 X163.725 Y179.098 E7.54305
G1 X162.781 Y178.504 E7.59498
G1 X162.145 Y178.058 E7.63115
G1 X161.557 Y177.601 E7.66583
G1 X160.973 Y178.056 E7.7003
G1 X160.21 Y178.58 E7.7434
G1 X158.942 Y179.346 E7.81238
G1 X158.246 Y179.72 E7.84918
G1 X157.88 Y179.882 E7.86781
G1 X156.166 Y180.588 E7.95413
G1 X155.421 Y180.852 E7.99093
G1 X155.019 Y180.96 E8.01032
G1 X153.547 Y181.314 E8.08081
G1 X152.637 Y181.476 E8.12385
G1 X151.561 Y181.603 E8.1743
G1 X150.647 Y181.657 E8.21694
G1 X149.166 Y181.657 E8.2859
G1 X148.377 Y181.617 E8.32269
G1 X147.981 Y181.566 E8.34128
G1 X146.147 Y181.284 E8.42768
G1 X145.111 Y181.052 E8.47711
G1 X144.044 Y180.735 E8.52894
G1 X143.053 Y180.366 E8.57819
G1 X141.367 Y179.604 E8.66434
G1 X140.425 Y179.098 E8.71413
G1 X139.481 Y178.504 E8.76606
G1 X138.845 Y178.058 E8.80223
G1 X138.257 Y177.601 E8.83691
G1 X137.673 Y178.056 E8.87138
G1 X136.91 Y178.58 E8.91448
G1 X135.642 Y179.346 E8.98346
G1 X134.946 Y179.72 E9.02026
G1 X134.58 Y179.882 E9.03889
G1 X132.866 Y180.588 E9.12521
G1 X132.121 Y180.852 E9.16201
G1 X131.719 Y180.96 E9.1814
G1 X130.247 Y181.314 E9.25189
G1 X129.337 Y181.476 E9.29493
G1 X128.261 Y181.603 E9.34538
G1 X127.347 Y181.657 E9.38802
G1 X125.866 Y181.657 E9.45698
G1 X125.077 Y181.617 E9.49377
G1 X124.681 Y181.566 E9.51236
G1 X122.847 Y181.284 E9.59876
G1 X121.811 Y181.052 E9.64819
G1 X120.744 Y180.735 E9.70003
G1 X119.753 Y180.366 E9.74927
G1 X118.067 Y179.604 E9.83542
G1 X117.125 Y179.098 E9.88521
G1 X116.181 Y178.504 E9.93714
G1 X115.545 Y178.058 E9.97332
G1 X114.666 Y177.374 E10.02518
G1 X113.962 Y176.754 E10.06886
G1 X112.909 Y175.709 E10.13794
G1 X112.295 Y175.024 E10.18077
G1 X111.604 Y174.154 E10.23251
G1 X111.139 Y173.503 E10.26976
G1 X110.539 Y172.564 E10.32165
G1 X110.089 Y171.757 E10.36467
G1 X109.443 Y170.42 E10.43381
G1 X109.046 Y169.432 E10.48339
G1 X108.59 Y168.025 E10.55226
G1 X108.334 Y167.005 E10.60123
G1 X108.07 Y165.542 E10.67046
G1 X107.953 Y164.477 E10.72035
G1 X107.891 Y162.967 E10.79072
G1 X107.908 Y162.042 E10.8338
G1 X107.992 Y160.963 E10.88419
G1 X108.092 Y160.183 E10.92081
G1 X108.29 Y159.086 E10.97271
G1 X108.507 Y158.19 E11.01564
G1 X108.94 Y156.774 E11.08459
G1 X109.262 Y155.907 E11.12766
G1 X109.711 Y154.889 E11.17946
G1 X110.137 Y154.061 E11.22282
G1 X110.893 Y152.785 E11.29188
G1 X111.33 Y152.127 E11.32867
G1 X111.578 Y151.808 E11.34748
G1 X112.755 Y150.376 E11.43379
G1 X113.175 Y149.915 E11.46283
G1 X112.476 Y149.135 E11.5116
G1 X111.785 Y148.264 E11.56337
G1 X111.32 Y147.611 E11.6007
G1 X110.721 Y146.672 E11.65256
G1 X110.275 Y145.872 E11.69521
G1 X109.629 Y144.536 E11.76431
G1 X109.232 Y143.549 E11.81385
G1 X108.775 Y142.141 E11.88278
G1 X108.518 Y141.118 E11.9319
G1 X108.254 Y139.655 E12.00112
G1 X108.137 Y138.59 E12.05101
G1 X108.075 Y137.08 E12.12138
G1 X108.092 Y136.154 E12.16451
G1 X108.176 Y135.076 E12.21485
G1 X108.276 Y134.298 E12.25138
G1 X108.474 Y133.2 E12.30333
G1 X108.691 Y132.303 E12.3463
G1 X109.124 Y130.887 E12.41525
G1 X109.449 Y130.014 E12.45863
G1 X109.899 Y128.996 E12.51046
G1 X110.322 Y128.174 E12.5535
G1 X111.078 Y126.898 E12.62256
G1 X111.515 Y126.24 E12.65934
G1 X111.761 Y125.924 E12.67799
G1 X112.937 Y124.492 E12.76427
G1 X113.358 Y124.03 E12.79338
G0 F1080 X113.469 Y123.908
G0 X113.763 Y123.63
G0 F6000 X114.03 Y123.928
G1 F1200 X115.135 Y122.939 E12.86243
G1 X116.028 Y122.254 E12.91484
G1 X117.583 Y121.24 E13.00128
G1 X118.578 Y120.695 E13.05411
G1 X119.928 Y120.085 E13.12309
G1 X120.87 Y119.735 E13.16988
G1 X122.292 Y119.313 E13.23895
G1 X123.271 Y119.093 E13.28567
G1 X124.739 Y118.867 E13.35483
G1 X125.612 Y118.785 E13.39566
G1 X126.723 Y118.747 E13.44743
G1 X127.368 Y118.753 E13.47746
G1 X128.14 Y118.794 E13.51346
G1 X128.884 Y118.872 E13.54829
G1 X130.32 Y119.095 E13.61596
G1 X131.289 Y119.313 E13.66221
G1 X132.711 Y119.735 E13.73128
G1 X133.653 Y120.085 E13.77807
G1 X135.003 Y120.695 E13.84705
G1 X135.998 Y121.24 E13.89988
G1 X137.553 Y122.254 E13.98632
G1 X138.441 Y122.934 E14.0384
G1 X139.328 Y122.254 E14.09044
G1 X140.883 Y121.24 E14.17689
G1 X141.878 Y120.695 E14.22971
G1 X143.228 Y120.085 E14.29869
G1 X144.17 Y119.735 E14.34549
G1 X145.592 Y119.313 E14.41455
G1 X146.571 Y119.093 E14.46128
G1 X148.039 Y118.867 E14.53044
G1 X148.912 Y118.785 E14.57127
G1 X150.023 Y118.747 E14.62303
G1 X150.668 Y118.753 E14.65307
G1 X151.44 Y118.794 E14.68906
G1 X152.184 Y118.872 E14.7239
G1 X153.62 Y119.095 E14.79157
G1 X154.589 Y119.313 E14.83781
G1 X156.011 Y119.735 E14.90688
G1 X156.953 Y120.085 E14.95368
G1 X158.303 Y120.695 E15.02266
G1 X159.298 Y121.24 E15.07548
G1 X160.853 Y122.254 E15.16193
G1 X161.741 Y122.934 E15.21401
G1 X162.628 Y122.254 E15.26605
G1 X164.183 Y121.24 E15.35249
G1 X165.178 Y120.695 E15.40532
G1 X166.528 Y120.085 E15.4743
G1 X167.47 Y119.735 E15.52109
G1 X168.892 Y119.313 E15.59016
G1 X169.871 Y119.093 E15.63688
G1 X171.339 Y118.867 E15.70604
G1 X172.212 Y118.785 E15.74687
G1 X173.323 Y118.747 E15.79864
G1 X173.968 Y118.753 E15.82867
G1 X174.74 Y118.794 E15.86467
G1 X175.484 Y118.872 E15.8995
G1 X176.92 Y119.095 E15.96717
G1 X177.889 Y119.313 E16.01342
G1 X179.311 Y119.735 E16.08249
G1 X180.253 Y120.085 E16.12928
G1 X181.603 Y120.695 E16.19826
G1 X182.598 Y121.24 E16.25109
G1 X184.153 Y122.254 E16.33753
G1 X185.046 Y122.938 E16.38991
G1 X186.149 Y123.925 E16.45883
G1 X186.769 Y124.551 E16.49986
G1 X187.504 Y125.386 E16.55165
G1 X188.114 Y126.182 E16.59835
G1 X189.141 Y127.729 E16.68481
G1 X189.694 Y128.718 E16.73758
G1 X190.315 Y130.062 E16.80652
G1 X190.673 Y131 E16.85327
G1 X191.107 Y132.418 E16.92232
G1 X191.314 Y133.272 E16.96324
G1 X191.512 Y134.371 E17.01523
G1 X191.616 Y135.243 E17.05613
G1 X191.704 Y136.721 E17.12507
G1 X191.715 Y137.341 E17.15394
G1 X191.687 Y138.088 E17.18875
G1 X191.636 Y138.764 E17.22032
G1 X191.549 Y139.54 E17.25668
G1 X191.463 Y140.079 E17.28209
G1 X191.246 Y141.173 E17.33403
G1 X190.988 Y142.13 E17.38018
G1 X190.399 Y143.85 E17.46484
G1 X190.012 Y144.773 E17.51144
G1 X189.498 Y145.797 E17.56479
G1 X189.123 Y146.457 E17.60014
G1 X188.524 Y147.396 E17.652
G1 X188.004 Y148.112 E17.69321
G1 X187.063 Y149.258 E17.76225
G1 X186.462 Y149.907 E17.80344
G1 X186.255 Y150.105 E17.81678
G1 X186.585 Y150.438 E17.83861
G1 X187.32 Y151.273 E17.89041
G1 X187.929 Y152.067 E17.937
G1 X188.956 Y153.613 E18.02343
G1 X189.51 Y154.606 E18.07637
G1 X190.131 Y155.951 E18.14536
G1 X190.49 Y156.892 E18.19225
G1 X190.923 Y158.31 E18.26129
G1 X191.127 Y159.151 E18.30159
G1 X191.326 Y160.249 E18.35355
G1 X191.432 Y161.129 E18.39482
G1 X191.52 Y162.606 E18.46372
G1 X191.512 Y163.609 E18.51042
G1 X191.399 Y165.089 E18.57954
G1 X191.279 Y165.966 E18.62076
G1 X191.062 Y167.06 E18.67269
G1 X190.803 Y168.019 E18.71894
G1 X190.214 Y169.738 E18.80356
G1 X189.829 Y170.656 E18.84991
G1 X189.315 Y171.681 E18.9033
G1 X188.939 Y172.344 E18.93879
G1 X188.34 Y173.283 E18.99066
G1 X187.82 Y173.999 E19.03186
G1 X186.879 Y175.145 E19.10091
G1 X186.278 Y175.794 E19.1421
G1 X185.475 Y176.563 E19.19387
G1 X184.907 Y177.054 E19.22883
G1 X184.027 Y177.74 E19.28078
G1 X183.303 Y178.238 E19.3217
G1 X182.035 Y179.004 E19.39068
G1 X181.027 Y179.512 E19.44324
G1 X179.313 Y180.218 E19.52956
G1 X178.225 Y180.571 E19.58282
G1 X176.753 Y180.925 E19.65332
G1 X175.89 Y181.079 E19.69414
G1 X174.814 Y181.206 E19.74459
G1 X173.947 Y181.257 E19.78503
G1 X172.466 Y181.257 E19.85399
G1 X171.341 Y181.171 E19.90653
G1 X169.507 Y180.889 E19.99293
G1 X168.525 Y180.669 E20.03979
G1 X167.458 Y180.352 E20.09162
G1 X166.517 Y180.001 E20.13839
G1 X164.831 Y179.239 E20.22454
G1 X163.938 Y178.759 E20.27175
G1 X162.994 Y178.165 E20.32368
G1 X162.39 Y177.742 E20.35802
G1 X161.556 Y177.093 E20.40723
G1 X160.727 Y177.74 E20.45619
G1 X160.003 Y178.238 E20.49711
G1 X158.735 Y179.004 E20.56609
G1 X157.727 Y179.512 E20.61865
G1 X156.013 Y180.218 E20.70497
G1 X154.925 Y180.571 E20.75823
G1 X153.453 Y180.925 E20.82873
G1 X152.59 Y181.079 E20.86955
G1 X151.514 Y181.206 E20.92
G1 X150.647 Y181.257 E20.96044
G1 X149.166 Y181.257 E21.0294
G1 X148.041 Y181.171 E21.08194
G1 X146.207 Y180.889 E21.16834
G1 X145.225 Y180.669 E21.2152
G1 X144.158 Y180.352 E21.26703
G1 X143.217 Y180.001 E21.31379
G1 X141.531 Y179.239 E21.39995
G1 X140.638 Y178.759 E21.44716
G1 X139.694 Y178.165 E21.49909
G1 X139.09 Y177.742 E21.53343
G1 X138.256 Y177.093 E21.58263
G1 X137.427 Y177.74 E21.6316
G1 X136.703 Y178.238 E21.67252
G1 X135.435 Y179.004 E21.7415
G1 X134.427 Y179.512 E21.79406
G1 X132.713 Y180.218 E21.88038
G1 X131.625 Y180.571 E21.93364
G1 X130.153 Y180.925 E22.00413
G1 X129.29 Y181.079 E22.04495
G1 X128.214 Y181.206 E22.0954
G1 X127.347 Y181.257 E22.13585
G1 X125.866 Y181.257 E22.20481
G1 X124.741 Y181.171 E22.25734
G1 X122.907 Y180.889 E22.34375
G1 X121.925 Y180.669 E22.39061
G1 X120.858 Y180.352 E22.44244
G1 X119.917 Y180.001 E22.4892
G1 X118.231 Y179.239 E22.57536
G1 X117.338 Y178.759 E22.62256
G1 X116.394 Y178.165 E22.6745
G1 X115.79 Y177.742 E22.70883
G1 X114.911 Y177.058 E22.7607
G1 X114.243 Y176.471 E22.8021
G1 X113.19 Y175.426 E22.87118
G1 X112.608 Y174.775 E22.91184
G1 X111.917 Y173.905 E22.96358
G1 X111.476 Y173.287 E22.99893
G1 X110.876 Y172.348 E23.05082
G1 X110.449 Y171.583 E23.09161
G1 X109.803 Y170.246 E23.16076
G1 X109.426 Y169.308 E23.20783
G1 X108.97 Y167.901 E23.2767
G1 X108.728 Y166.934 E23.32312
G1 X108.464 Y165.471 E23.39234
G1 X108.352 Y164.461 E23.43966
G1 X108.29 Y162.951 E23.51003
G1 X108.306 Y162.073 E23.55092
G1 X108.39 Y160.994 E23.60131
G1 X108.486 Y160.254 E23.63606
G1 X108.684 Y159.157 E23.68797
G1 X108.889 Y158.307 E23.72868
G1 X109.322 Y156.891 E23.79763
G1 X109.628 Y156.069 E23.83847
G1 X110.077 Y155.051 E23.89028
G1 X110.482 Y154.265 E23.93145
G1 X111.238 Y152.989 E24.00051
G1 X111.887 Y152.062 E24.05321
G1 X113.064 Y150.63 E24.13952
G1 X113.751 Y149.913 E24.18576
G1 X113.377 Y149.542 E24.21029
G1 X112.79 Y148.886 E24.25128
G1 X112.099 Y148.015 E24.30305
G1 X111.657 Y147.396 E24.33846
G1 X111.058 Y146.457 E24.39033
G1 X110.635 Y145.698 E24.43079
G1 X109.989 Y144.362 E24.49989
G1 X109.612 Y143.426 E24.54687
G1 X109.155 Y142.018 E24.6158
G1 X108.912 Y141.047 E24.66241
G1 X108.648 Y139.584 E24.73164
G1 X108.536 Y138.574 E24.77895
G1 X108.474 Y137.064 E24.84932
G1 X108.49 Y136.185 E24.89026
G1 X108.574 Y135.107 E24.94061
G1 X108.669 Y134.369 E24.97526
G1 X108.867 Y133.271 E25.02721
G1 X109.073 Y132.42 E25.06798
G1 X109.506 Y131.004 E25.13693
G1 X109.815 Y130.176 E25.17808
G1 X110.265 Y129.158 E25.22991
G1 X110.667 Y128.378 E25.27077
