;FLAVOR:Marlin
;TIME:1048
;Filament used: 0.697496m
;Layer height: 0.2
;MINX:110.652
;MINY:121.594
;MINZ:0.28
;MAXX:167.657
;MAXY:178.4
;MAXZ:4.08
;Generated with Cura_SteamEngine 5.2.1
M140 S90
M105
M190 S90
M82 ;absolute extrusion mode
M201 X500.00 Y500.00 Z100.00 E5000.00 ;Setup machine max acceleration
M203 X500.00 Y500.00 Z10.00 E50.00 ;Setup machine max feedrate
M204 P500.00 R1000.00 T500.00 ;Setup Print/Retract/Travel acceleration
M205 X8.00 Y8.00 Z0.40 E5.00 ;Setup Jerk
M220 S100 ;Reset Feedrate
M221 S100 ;Reset Flowrate
M140 S90 ; set bed temp
M190 S90 ; wait for bed temp
G28; home all
G29;
G92 E0 ;Reset Extruder
G1 Z2.0 F3000 ;Move Z Axis up
G1 X10.1 Y20 Z0.28 F5000.0 ;Move to start position
M104 S240.0 ; wait for extruder printing temp
M109 S240.0 ; wait for extruder printing temp
G1 X10.1 Y200.0 Z0.28 F1500.0 E15 ;Draw the first line
G1 X10.4 Y200.0 Z0.28 F5000.0 ;Move to side a little
G1 X10.4 Y20 Z0.28 F1500.0 E30 ;Draw the second line
G92 E0 ;Reset Extruder
G92 E0
G92 E0
G1 F4800 E-6
;LAYER_COUNT:20
;LAYER:0
M107
G0 F6000 X117.006 Y136.349 Z0.28
;TYPE:SKIRT
G1 F4800 E0
G1 F1200 X117.53 Y135.924 E0.03142
G1 X117.833 Y135.69 E0.04924
G1 X118.352 Y135.317 E0.079
G1 X118.831 Y134.998 E0.1058
G1 X119.465 Y134.61 E0.14041
G1 X120.055 Y134.279 E0.17191
G1 X120.685 Y133.954 E0.20492
G1 X121.234 Y133.698 E0.23313
G1 X122.029 Y133.367 E0.27323
G1 X122.346 Y133.247 E0.28901
G1 X122.912 Y133.05 E0.31692
G1 X123.744 Y132.798 E0.3574
G1 X124.315 Y132.65 E0.38486
G1 X124.643 Y132.574 E0.40054
G1 X125.227 Y132.455 E0.42829
G1 X125.823 Y132.354 E0.45644
G1 X126.214 Y132.301 E0.47481
G1 X126.886 Y132.227 E0.50629
G1 X127.301 Y132.192 E0.52569
G1 X127.638 Y132.173 E0.5414
G1 X128.209 Y132.155 E0.56801
G1 X128.822 Y132.155 E0.59655
G1 X129.414 Y132.176 E0.62413
G1 X130.025 Y132.218 E0.65265
G1 X130.868 Y132.31 E0.69214
G1 X131.484 Y132.403 E0.72115
G1 X131.816 Y132.463 E0.73686
G1 X132.378 Y132.579 E0.76358
G1 X133.219 Y132.788 E0.80393
G1 X133.52 Y132.874 E0.8185
G1 X134.263 Y131.23 E0.90251
G1 X134.767 Y130.292 E0.95209
G1 X135.303 Y129.439 E0.999
G1 X135.751 Y128.799 E1.03538
G1 X136.368 Y128.006 E1.08217
G1 X136.985 Y127.304 E1.12569
G1 X137.928 Y126.353 E1.18805
G1 X138.62 Y125.734 E1.23128
G1 X139.408 Y125.109 E1.27811
G1 X140.051 Y124.65 E1.3149
G1 X140.898 Y124.108 E1.36172
G1 X141.707 Y123.656 E1.40487
G1 X142.917 Y123.071 E1.46746
G1 X143.907 Y122.673 E1.51714
G1 X145.178 Y122.261 E1.57936
G1 X146.201 Y122.004 E1.62847
G1 X147.523 Y121.766 E1.69102
G1 X148.598 Y121.649 E1.74137
G1 X149.995 Y121.594 E1.80647
G1 X150.914 Y121.612 E1.84927
G1 X151.855 Y121.686 E1.89322
G1 X152.636 Y121.787 E1.92989
G1 X153.628 Y121.967 E1.97684
G1 X154.512 Y122.182 E2.0192
G1 X155.793 Y122.573 E2.08157
G1 X156.664 Y122.897 E2.12484
G1 X157.582 Y123.302 E2.17156
G1 X158.414 Y123.73 E2.21513
G1 X159.567 Y124.414 E2.27755
G1 X160.225 Y124.85 E2.31431
G1 X160.538 Y125.094 E2.33279
G1 X161.831 Y126.156 E2.4107
G1 X162.415 Y126.688 E2.44749
G1 X162.692 Y126.982 E2.4663
G1 X163.586 Y127.981 E2.52872
G1 X164.083 Y128.596 E2.56554
G1 X164.308 Y128.923 E2.58402
G1 X165.224 Y130.328 E2.66212
G1 X165.621 Y131.011 E2.69891
G1 X165.798 Y131.375 E2.71775
G1 X166.349 Y132.594 E2.78004
G1 X166.719 Y133.59 E2.82952
G1 X167.1 Y134.875 E2.89193
G1 X167.33 Y135.899 E2.9408
G1 X167.535 Y137.223 E3.00318
G1 X167.623 Y138.152 E3.04664
G1 X167.657 Y139.157 E3.09346
G1 X167.649 Y139.848 E3.12564
G1 X167.609 Y140.578 E3.15968
G1 X167.526 Y141.362 E3.19639
G1 X167.327 Y142.628 E3.25606
G1 X167.1 Y143.634 E3.30409
G1 X166.72 Y144.916 E3.36635
G1 X166.35 Y145.91 E3.41574
G1 X165.798 Y147.132 E3.47817
G1 X165.437 Y147.834 E3.51493
G1 X165.223 Y148.183 E3.53399
G1 X164.307 Y149.587 E3.61205
G1 X164.009 Y149.977 E3.63491
G1 X164.308 Y150.41 E3.65941
G1 X165.224 Y151.815 E3.73751
G1 X165.621 Y152.498 E3.77429
G1 X165.798 Y152.862 E3.79314
G1 X166.349 Y154.081 E3.85543
G1 X166.719 Y155.077 E3.90491
G1 X167.1 Y156.362 E3.96732
G1 X167.331 Y157.392 E4.01647
G1 X167.535 Y158.717 E4.07889
G1 X167.622 Y159.64 E4.12206
G1 X167.656 Y160.645 E4.16889
G1 X167.648 Y161.336 E4.20106
G1 X167.608 Y162.066 E4.23511
G1 X167.526 Y162.844 E4.27153
G1 X167.328 Y164.11 E4.3312
G1 X167.101 Y165.12 E4.3794
G1 X166.721 Y166.403 E4.44171
G1 X166.349 Y167.401 E4.49131
G1 X165.797 Y168.622 E4.5537
G1 X165.436 Y169.324 E4.59046
G1 X165.224 Y169.669 E4.60931
G1 X164.308 Y171.074 E4.68741
G1 X163.844 Y171.713 E4.72418
G1 X163.584 Y172.018 E4.74284
G1 X162.692 Y173.014 E4.8051
G1 X162.038 Y173.663 E4.84801
G1 X161.283 Y174.328 E4.89485
G1 X160.443 Y174.972 E4.94414
G1 X159.046 Y175.9 E5.02224
G1 X158.367 Y176.303 E5.059
G1 X158 Y176.485 E5.07808
G1 X156.785 Y177.046 E5.14039
G1 X155.792 Y177.424 E5.18987
G1 X154.511 Y177.815 E5.25223
G1 X153.625 Y178.03 E5.29469
G1 X152.632 Y178.21 E5.34168
G1 X151.702 Y178.321 E5.38529
G1 X150.367 Y178.4 E5.44756
G1 X149.312 Y178.391 E5.49669
G1 X147.976 Y178.289 E5.55908
G1 X147.052 Y178.163 E5.6025
G1 X146.064 Y177.967 E5.6494
G1 X145.069 Y177.7 E5.69738
G1 X143.544 Y177.181 E5.77239
G1 X142.572 Y176.775 E5.82144
G1 X141.615 Y176.297 E5.87125
G1 X140.896 Y175.889 E5.90974
G1 X140.049 Y175.347 E5.95656
G1 X139.303 Y174.805 E5.9995
G1 X138.268 Y173.955 E6.06187
G1 X137.584 Y173.321 E6.10529
G1 X136.888 Y172.594 E6.15216
G1 X136.373 Y171.998 E6.18883
G1 X135.755 Y171.206 E6.23561
G1 X135.226 Y170.439 E6.279
G1 X134.533 Y169.291 E6.34144
G1 X134.16 Y168.595 E6.37821
G1 X133.999 Y168.231 E6.39674
G1 X133.541 Y167.119 E6.45274
G1 X132.767 Y167.328 E6.49007
G1 X132.378 Y167.421 E6.5087
G1 X131.816 Y167.537 E6.53542
G1 X131.484 Y167.597 E6.55113
G1 X130.868 Y167.69 E6.58013
G1 X130.025 Y167.782 E6.61962
G1 X129.414 Y167.824 E6.64814
G1 X128.822 Y167.845 E6.67572
G1 X128.209 Y167.845 E6.70427
G1 X127.637 Y167.827 E6.73091
G1 X127.301 Y167.808 E6.74658
G1 X126.888 Y167.773 E6.76588
G1 X126.215 Y167.699 E6.79741
G1 X125.819 Y167.645 E6.81602
G1 X125.259 Y167.551 E6.84246
G1 X124.62 Y167.422 E6.87282
G1 X123.947 Y167.255 E6.90511
G1 X123.298 Y167.071 E6.93652
G1 X122.79 Y166.908 E6.96136
G1 X122.155 Y166.68 E6.99278
G1 X121.78 Y166.534 E7.01151
G1 X121.233 Y166.301 E7.0392
G1 X120.927 Y166.161 E7.05487
G1 X120.392 Y165.899 E7.08261
G1 X119.765 Y165.563 E7.11573
G1 X119.433 Y165.37 E7.13361
G1 X118.922 Y165.057 E7.16151
G1 X118.368 Y164.694 E7.19236
G1 X117.823 Y164.302 E7.22362
G1 X117.543 Y164.086 E7.24008
G1 X117.018 Y163.662 E7.27151
G1 X116.713 Y163.402 E7.29017
G1 X116.269 Y162.998 E7.31812
G1 X115.816 Y162.556 E7.34759
G1 X115.347 Y162.061 E7.37934
G1 X114.9 Y161.556 E7.41075
G1 X114.425 Y160.976 E7.44565
G1 X114.066 Y160.499 E7.47345
G1 X113.848 Y160.189 E7.4911
G1 X113.472 Y159.627 E7.52259
G1 X113.188 Y159.17 E7.54764
G1 X112.852 Y158.584 E7.57909
G1 X112.652 Y158.211 E7.5988
G1 X112.397 Y157.697 E7.62552
G1 X112.254 Y157.39 E7.64129
G1 X112.024 Y156.862 E7.66811
G1 X111.796 Y156.289 E7.69682
G1 X111.595 Y155.725 E7.7247
G1 X111.413 Y155.159 E7.75239
G1 X111.246 Y154.566 E7.78107
G1 X111.156 Y154.204 E7.79844
G1 X111.009 Y153.545 E7.82988
G1 X110.912 Y153.026 E7.85447
G1 X110.81 Y152.359 E7.88589
G1 X110.759 Y151.963 E7.90448
G1 X110.703 Y151.353 E7.933
G1 X110.669 Y150.785 E7.9595
G1 X110.652 Y150.17 E7.98815
G1 X110.657 Y149.554 E8.01683
G1 X110.669 Y149.216 E8.03258
G1 X110.703 Y148.648 E8.05908
G1 X110.76 Y148.033 E8.08784
G1 X110.875 Y147.189 E8.1275
G1 X110.982 Y146.584 E8.15611
G1 X111.104 Y146.007 E8.18357
G1 X111.183 Y145.677 E8.19937
G1 X111.335 Y145.108 E8.22679
G1 X111.592 Y144.284 E8.26698
G1 X111.796 Y143.711 E8.29531
G1 X111.918 Y143.396 E8.31104
G1 X112.153 Y142.835 E8.33936
G1 X112.312 Y142.488 E8.35713
G1 X112.607 Y141.882 E8.38851
G1 X112.94 Y141.255 E8.42157
G1 X113.153 Y140.889 E8.44129
G1 X113.509 Y140.315 E8.47274
G1 X113.731 Y139.978 E8.49153
G1 X114.066 Y139.501 E8.51867
G1 X114.267 Y139.23 E8.53439
G1 X114.638 Y138.757 E8.56238
G1 X115.024 Y138.297 E8.59034
G1 X115.604 Y137.661 E8.63042
G1 X116.025 Y137.235 E8.65831
G1 X116.474 Y136.811 E8.68706
G1 X117.006 Y136.349 E8.71987
G0 F6000 X117.258 Y136.66
G1 F1200 X117.782 Y136.235 E8.75129
G1 X118.07 Y136.013 E8.76822
G1 X118.576 Y135.649 E8.79725
G1 X119.044 Y135.336 E8.82346
G1 X119.66 Y134.959 E8.85709
G1 X120.25 Y134.628 E8.88859
G1 X120.562 Y134.463 E8.90503
G1 X121.094 Y134.202 E8.93262
G1 X121.644 Y133.956 E8.96068
G1 X122.17 Y133.741 E8.98714
G1 X122.487 Y133.621 E9.00292
G1 X123.041 Y133.428 E9.03024
G1 X123.846 Y133.185 E9.06939
G1 X124.406 Y133.04 E9.09633
G1 X124.734 Y132.964 E9.112
G1 X125.304 Y132.848 E9.13909
G1 X125.887 Y132.749 E9.16663
G1 X126.258 Y132.698 E9.18406
G1 X126.93 Y132.624 E9.21554
G1 X127.66 Y132.573 E9.24962
G1 X128.482 Y132.552 E9.28791
G1 X129.061 Y132.561 E9.31487
G1 X129.657 Y132.591 E9.34266
G1 X130.218 Y132.637 E9.36887
G1 X130.553 Y132.673 E9.38456
G1 X131.147 Y132.754 E9.41247
G1 X131.965 Y132.9 E9.45116
G1 X132.549 Y133.029 E9.47901
G1 X133.109 Y133.172 E9.50592
G1 X133.771 Y133.369 E9.53809
G1 X133.938 Y132.92 E9.56039
G1 X134.627 Y131.395 E9.63831
G1 X135.105 Y130.505 E9.68536
G1 X135.641 Y129.652 E9.73227
G1 X136.067 Y129.045 E9.7668
G1 X136.684 Y128.252 E9.81358
G1 X137.269 Y127.586 E9.85486
G1 X138.212 Y126.635 E9.91722
G1 X138.869 Y126.047 E9.95828
G1 X139.657 Y125.422 E10.00511
G1 X140.266 Y124.987 E10.03996
G1 X141.113 Y124.445 E10.08678
G1 X141.881 Y124.016 E10.12774
G1 X143.091 Y123.431 E10.19033
G1 X144.03 Y123.054 E10.23744
G1 X145.301 Y122.642 E10.29966
G1 X146.272 Y122.398 E10.34628
G1 X147.594 Y122.16 E10.40882
G1 X148.614 Y122.049 E10.4566
G1 X150.011 Y121.994 E10.5217
G1 X150.882 Y122.011 E10.56226
G1 X151.823 Y122.085 E10.60622
G1 X152.564 Y122.181 E10.64101
G1 X153.556 Y122.361 E10.68796
G1 X154.395 Y122.564 E10.72815
G1 X155.676 Y122.955 E10.79052
G1 X156.503 Y123.263 E10.83161
G1 X157.421 Y123.668 E10.87833
G1 X158.21 Y124.074 E10.91965
G1 X159.363 Y124.758 E10.98207
G1 X160.284 Y125.404 E11.03446
G1 X161.577 Y126.466 E11.11237
G1 X162.394 Y127.249 E11.16506
G1 X163.288 Y128.248 E11.22749
G1 X163.973 Y129.142 E11.27993
G1 X164.889 Y130.547 E11.35803
G1 X165.433 Y131.54 E11.41075
G1 X165.984 Y132.759 E11.47304
G1 X166.336 Y133.703 E11.51995
G1 X166.717 Y134.988 E11.58236
G1 X166.935 Y135.96 E11.62875
G1 X167.14 Y137.284 E11.69113
G1 X167.223 Y138.166 E11.73238
G1 X167.257 Y139.171 E11.77921
G1 X167.25 Y139.826 E11.80971
G1 X167.21 Y140.556 E11.84375
G1 X167.131 Y141.3 E11.87859
G1 X166.932 Y142.566 E11.93827
G1 X166.717 Y143.52 E11.9838
G1 X166.337 Y144.802 E12.04606
G1 X165.986 Y145.745 E12.09292
G1 X165.434 Y146.967 E12.15535
G1 X164.888 Y147.964 E12.20829
G1 X163.972 Y149.368 E12.28634
G1 X163.489 Y149.998 E12.32331
G1 X163.973 Y150.629 E12.36034
G1 X164.889 Y152.034 E12.43844
G1 X165.433 Y153.027 E12.49116
G1 X165.984 Y154.246 E12.55345
G1 X166.336 Y155.19 E12.60036
G1 X166.717 Y156.475 E12.66277
G1 X166.936 Y157.453 E12.70944
G1 X167.14 Y158.778 E12.77187
G1 X167.222 Y159.654 E12.81283
G1 X167.256 Y160.659 E12.85966
G1 X167.249 Y161.314 E12.89016
G1 X167.209 Y162.044 E12.9242
G1 X167.131 Y162.782 E12.95876
G1 X166.933 Y164.048 E13.01843
G1 X166.717 Y165.007 E13.0642
G1 X166.337 Y166.29 E13.12651
G1 X165.985 Y167.236 E13.17351
G1 X165.433 Y168.457 E13.2359
G1 X164.889 Y169.45 E13.28862
G1 X163.973 Y170.855 E13.36672
G1 X163.286 Y171.751 E13.4193
G1 X162.394 Y172.747 E13.48155
G1 X161.773 Y173.363 E13.52228
G1 X161.018 Y174.028 E13.56913
G1 X160.222 Y174.639 E13.61586
G1 X158.825 Y175.567 E13.69395
G1 X157.832 Y176.121 E13.7469
G1 X156.617 Y176.682 E13.80922
G1 X155.675 Y177.042 E13.85617
G1 X154.394 Y177.433 E13.91854
G1 X153.554 Y177.636 E13.95878
G1 X152.561 Y177.816 E14.00577
G1 X151.678 Y177.922 E14.04718
G1 X150.343 Y178.001 E14.10945
G1 X149.343 Y177.993 E14.15602
G1 X148.007 Y177.891 E14.21841
G1 X147.13 Y177.771 E14.25963
G1 X146.142 Y177.575 E14.30653
G1 X145.198 Y177.321 E14.35205
G1 X143.673 Y176.802 E14.42706
G1 X142.75 Y176.417 E14.47363
G1 X141.793 Y175.939 E14.52344
G1 X141.111 Y175.552 E14.55995
G1 X140.264 Y175.01 E14.60677
G1 X139.557 Y174.496 E14.64748
G1 X138.522 Y173.646 E14.70984
G1 X137.873 Y173.044 E14.75106
G1 X137.177 Y172.317 E14.79792
G1 X136.688 Y171.752 E14.83272
G1 X136.07 Y170.96 E14.8795
G1 X135.569 Y170.232 E14.92065
G1 X134.876 Y169.084 E14.98309
G1 X134.369 Y168.078 E15.03554
G1 X133.773 Y166.631 E15.10841
G1 X133.317 Y166.768 E15.13058
G1 X132.664 Y166.942 E15.16205
G1 X131.965 Y167.1 E15.19542
G1 X131.147 Y167.246 E15.23411
G1 X130.553 Y167.327 E15.26203
G1 X130.218 Y167.363 E15.27772
G1 X129.397 Y167.425 E15.31605
G1 X128.819 Y167.445 E15.34298
G1 X128.22 Y167.445 E15.37088
G1 X127.659 Y167.427 E15.39701
G1 X126.932 Y167.376 E15.43095
G1 X126.259 Y167.302 E15.46247
G1 X125.55 Y167.197 E15.49585
G1 X125.002 Y167.094 E15.52181
G1 X124.384 Y166.955 E15.55131
G1 X123.408 Y166.686 E15.59845
G1 X122.925 Y166.532 E15.62205
G1 X122.29 Y166.304 E15.65347
G1 X121.934 Y166.165 E15.67127
G1 X121.399 Y165.937 E15.69835
G1 X120.871 Y165.691 E15.72547
G1 X120.321 Y165.411 E15.75421
G1 X119.957 Y165.212 E15.77352
G1 X119.642 Y165.029 E15.79049
G1 X118.871 Y164.55 E15.83275
G1 X118.332 Y164.18 E15.8632
G1 X117.795 Y163.775 E15.89452
G1 X117.27 Y163.351 E15.92594
G1 X116.729 Y162.879 E15.95937
G1 X116.301 Y162.474 E15.98681
G1 X115.869 Y162.035 E16.01549
G1 X115.647 Y161.796 E16.03068
G1 X115.2 Y161.291 E16.06208
G1 X114.948 Y160.99 E16.08036
G1 X114.588 Y160.531 E16.10752
G1 X114.181 Y159.967 E16.13991
G1 X113.805 Y159.405 E16.17139
G1 X113.535 Y158.971 E16.19519
G1 X113.199 Y158.385 E16.22665
G1 X113.009 Y158.031 E16.24536
G1 X112.76 Y157.529 E16.27145
G1 X112.524 Y157.015 E16.29778
G1 X112.291 Y156.46 E16.32581
G1 X112.169 Y156.145 E16.34154
G1 X111.972 Y155.593 E16.36883
G1 X111.795 Y155.039 E16.39591
G1 X111.632 Y154.461 E16.42388
G1 X111.547 Y154.117 E16.44038
G1 X111.4 Y153.458 E16.47182
G1 X111.307 Y152.966 E16.49513
G1 X111.205 Y152.299 E16.52655
G1 X111.123 Y151.586 E16.55997
G1 X111.08 Y150.99 E16.5878
G1 X111.057 Y150.433 E16.61375
G1 X111.052 Y149.831 E16.64179
G1 X111.08 Y149.011 E16.67999
G1 X111.124 Y148.409 E16.7081
G1 X111.189 Y147.814 E16.73597
G1 X111.269 Y147.255 E16.76226
G1 X111.373 Y146.665 E16.79016
G1 X111.493 Y146.1 E16.81706
G1 X111.572 Y145.77 E16.83286
G1 X111.721 Y145.213 E16.8597
G1 X111.9 Y144.626 E16.88828
G1 X112.081 Y144.096 E16.91436
G1 X112.291 Y143.54 E16.94203
G1 X112.521 Y142.992 E16.96971
G1 X112.671 Y142.663 E16.98654
G1 X112.966 Y142.057 E17.01793
G1 X113.291 Y141.447 E17.05011
G1 X113.493 Y141.1 E17.06881
G1 X113.849 Y140.526 E17.10026
G1 X114.059 Y140.206 E17.11808
G1 X114.387 Y139.74 E17.14462
G1 X114.588 Y139.469 E17.16033
G1 X114.951 Y139.006 E17.18772
G1 X115.492 Y138.371 E17.22657
G1 X115.89 Y137.94 E17.25388
G1 X116.126 Y137.698 E17.26962
G1 X116.546 Y137.29 E17.29689
G1 X116.992 Y136.886 E17.32491
G1 X117.258 Y136.66 E17.34116
G0 F6000 X117.51 Y136.97
G1 F1200 X118.034 Y136.545 E17.37258
G1 X118.579 Y136.135 E17.40434
G1 X119.08 Y135.791 E17.43263
G1 X119.543 Y135.495 E17.45822
G1 X119.856 Y135.308 E17.4752
G1 X120.446 Y134.977 E17.5067
G1 X120.741 Y134.821 E17.52224
G1 X121.261 Y134.566 E17.54921
G1 X121.797 Y134.325 E17.57657
G1 X122.312 Y134.115 E17.60247
G1 X122.629 Y133.995 E17.61825
G1 X123.17 Y133.807 E17.64492
G1 X123.949 Y133.571 E17.68282
G1 X124.276 Y133.484 E17.69858
G1 X124.824 Y133.354 E17.72481
G1 X125.381 Y133.24 E17.75128
G1 X125.951 Y133.144 E17.7782
G1 X126.302 Y133.096 E17.79469
G1 X126.974 Y133.022 E17.82617
G1 X127.346 Y132.991 E17.84355
G1 X127.891 Y132.963 E17.86897
G1 X128.23 Y132.954 E17.88476
G1 X128.815 Y132.955 E17.912
G1 X129.38 Y132.975 E17.93832
G1 X130.175 Y133.035 E17.97544
G1 X130.51 Y133.071 E17.99113
G1 X131.09 Y133.15 E18.01839
G1 X131.882 Y133.291 E18.05585
G1 X132.452 Y133.417 E18.08303
G1 X133 Y133.557 E18.10937
G1 X133.557 Y133.72 E18.13639
G1 X134.011 Y133.869 E18.15864
G1 X134.303 Y133.085 E18.1976
G1 X134.992 Y131.56 E18.27552
G1 X135.444 Y130.718 E18.32002
G1 X135.98 Y129.865 E18.36693
G1 X136.382 Y129.29 E18.3996
G1 X136.999 Y128.497 E18.44638
G1 X137.553 Y127.867 E18.48545
