;FLAVOR:Marlin
;TIME:1960
;Filament used: 1.23659m
;Layer height: 0.2
;MINX:122.494
;MINY:113.737
;MINZ:0.28
;MAXX:177.505
;MAXY:186.263
;MAXZ:3.88
;Generated with Cura_SteamEngine 5.2.1
M140 S100
M105
M190 S100
M82 ;absolute extrusion mode
M201 X500.00 Y500.00 Z100.00 E5000.00 ;Setup machine max acceleration
M203 X500.00 Y500.00 Z10.00 E50.00 ;Setup machine max feedrate
M204 P500.00 R1000.00 T500.00 ;Setup Print/Retract/Travel acceleration
M205 X8.00 Y8.00 Z0.40 E5.00 ;Setup Jerk
M220 S100 ;Reset Feedrate
M221 S100 ;Reset Flowrate
M140 S100.0 ; set bed temp
M190 S100.0 ; wait for bed temp
G28; home all
G29;
G92 E0 ;Reset Extruder
G1 Z2.0 F3000 ;Move Z Axis up
G1 X10.1 Y20 Z0.28 F5000.0 ;Move to start position
M104 S235 ; wait for extruder printing temp
M109 S235 ; wait for extruder printing temp
G1 X10.1 Y200.0 Z0.28 F1500.0 E15 ;Draw the first line
G1 X10.4 Y200.0 Z0.28 F5000.0 ;Move to side a little
G1 X10.4 Y20 Z0.28 F1500.0 E30 ;Draw the second line
G92 E0 ;Reset Extruder
G1 Z2.0 F3000 ;Move Z Axis up
G92 E0
G92 E0
G1 F1800 E-2
;LAYER_COUNT:19
;LAYER:0
M107
G0 F6000 X127.338 Y118.698 Z0.28
;TYPE:SKIRT
G1 F1800 E0
G1 F1200 X127.998 Y118.067 E0.04252
G1 X128.59 Y117.555 E0.07896
G1 X129.313 Y116.991 E0.12166
G1 X130.074 Y116.467 E0.16468
G1 X131.114 Y115.838 E0.22128
G1 X131.81 Y115.464 E0.25807
G1 X132.182 Y115.299 E0.27702
G1 X133.591 Y114.719 E0.34797
G1 X134.335 Y114.456 E0.38471
G1 X134.733 Y114.349 E0.40391
G1 X135.941 Y114.058 E0.46176
G1 X136.857 Y113.894 E0.5051
G1 X137.741 Y113.79 E0.54654
G1 X138.652 Y113.737 E0.58903
G1 X139.868 Y113.737 E0.64566
G1 X140.657 Y113.777 E0.68244
G1 X141.055 Y113.828 E0.70113
G1 X142.562 Y114.06 E0.77212
G1 X143.594 Y114.291 E0.82137
G1 X144.47 Y114.551 E0.86392
G1 X145.466 Y114.922 E0.91341
G1 X146.85 Y115.548 E0.98414
G1 X147.787 Y116.052 E1.03368
G1 X148.563 Y116.54 E1.07637
G1 X149.202 Y116.988 E1.1127
G1 X150.005 Y117.613 E1.16009
G1 X150.79 Y116.994 E1.20664
G1 X151.558 Y116.465 E1.25006
G1 X152.599 Y115.836 E1.30669
G1 X153.295 Y115.462 E1.34349
G1 X153.662 Y115.3 E1.36217
G1 X155.07 Y114.72 E1.43307
G1 X155.815 Y114.457 E1.46986
G1 X156.214 Y114.349 E1.48911
G1 X157.422 Y114.058 E1.54697
G1 X158.339 Y113.894 E1.59034
G1 X159.224 Y113.79 E1.63184
G1 X160.134 Y113.737 E1.67428
G1 X161.35 Y113.737 E1.7309
G1 X162.139 Y113.777 E1.76769
G1 X162.538 Y113.828 E1.78642
G1 X164.044 Y114.06 E1.85737
G1 X165.073 Y114.291 E1.90648
G1 X165.95 Y114.551 E1.94907
G1 X166.948 Y114.922 E1.99865
G1 X168.332 Y115.548 E2.06938
G1 X169.269 Y116.052 E2.11893
G1 X170.045 Y116.54 E2.16161
G1 X170.684 Y116.988 E2.19795
G1 X171.406 Y117.55 E2.24055
G1 X172.105 Y118.164 E2.28388
G1 X172.968 Y119.019 E2.34044
G1 X173.589 Y119.712 E2.38377
G1 X174.157 Y120.428 E2.42633
G1 X174.619 Y121.076 E2.46339
G1 X175.111 Y121.846 E2.50593
G1 X175.559 Y122.648 E2.54871
G1 X176.09 Y123.745 E2.60546
G1 X176.49 Y124.742 E2.65548
G1 X176.865 Y125.901 E2.7122
G1 X177.12 Y126.916 E2.76094
G1 X177.337 Y128.118 E2.81781
G1 X177.454 Y129.183 E2.8677
G1 X177.505 Y130.422 E2.92544
G1 X177.488 Y131.349 E2.96861
G1 X177.419 Y132.235 E3.01
G1 X177.319 Y133.016 E3.04666
G1 X177.156 Y133.918 E3.08934
G1 X176.941 Y134.804 E3.13179
G1 X176.587 Y135.966 E3.18836
G1 X176.259 Y136.85 E3.23226
G1 X175.889 Y137.686 E3.27483
G1 X175.466 Y138.505 E3.31775
G1 X174.845 Y139.553 E3.37448
G1 X174.369 Y140.271 E3.41459
G1 X175.11 Y141.386 E3.47693
G1 X175.513 Y142.065 E3.51369
G1 X175.693 Y142.43 E3.53264
G1 X176.203 Y143.534 E3.58927
G1 X176.581 Y144.524 E3.63862
G1 X176.937 Y145.688 E3.69529
G1 X177.154 Y146.583 E3.73818
G1 X177.317 Y147.486 E3.7809
G1 X177.427 Y148.409 E3.82419
G1 X177.499 Y149.621 E3.88072
G1 X177.49 Y150.679 E3.92999
G1 X177.397 Y151.895 E3.98678
G1 X177.271 Y152.817 E4.03011
G1 X177.093 Y153.715 E4.07274
G1 X176.823 Y154.721 E4.12124
G1 X176.34 Y156.134 E4.19077
G1 X175.931 Y157.109 E4.24
G1 X175.509 Y157.95 E4.28382
G1 X175.108 Y158.654 E4.32154
G1 X174.615 Y159.425 E4.36416
G1 X174.367 Y159.767 E4.38383
G1 X175.11 Y160.886 E4.44637
G1 X175.513 Y161.565 E4.48314
G1 X175.692 Y161.927 E4.50194
G1 X176.202 Y163.03 E4.55853
G1 X176.581 Y164.025 E4.60811
G1 X176.937 Y165.19 E4.66483
G1 X177.154 Y166.083 E4.70762
G1 X177.317 Y166.986 E4.75035
G1 X177.427 Y167.909 E4.79363
G1 X177.499 Y169.121 E4.85017
G1 X177.49 Y170.179 E4.89943
G1 X177.397 Y171.394 E4.95618
G1 X177.271 Y172.314 E4.99941
G1 X177.093 Y173.213 E5.04209
G1 X176.822 Y174.223 E5.09078
G1 X176.339 Y175.635 E5.16027
G1 X175.932 Y176.605 E5.20925
G1 X175.51 Y177.447 E5.25311
G1 X175.108 Y178.154 E5.29098
G1 X174.615 Y178.925 E5.33359
G1 X174.074 Y179.67 E5.37646
G1 X173.302 Y180.611 E5.43314
G1 X172.662 Y181.302 E5.477
G1 X172.002 Y181.933 E5.51951
G1 X171.41 Y182.445 E5.55596
G1 X170.687 Y183.009 E5.59866
G1 X169.926 Y183.533 E5.64168
G1 X168.886 Y184.162 E5.69828
G1 X168.19 Y184.536 E5.73507
G1 X167.818 Y184.701 E5.75402
G1 X166.409 Y185.281 E5.82497
G1 X165.665 Y185.544 E5.86171
G1 X165.267 Y185.651 E5.8809
G1 X164.059 Y185.942 E5.93876
G1 X163.143 Y186.106 E5.98209
G1 X162.259 Y186.21 E6.02354
G1 X161.348 Y186.263 E6.06603
G1 X160.131 Y186.263 E6.1227
G1 X159.342 Y186.223 E6.15948
G1 X158.943 Y186.172 E6.17822
G1 X157.437 Y185.94 E6.24917
G1 X156.406 Y185.709 E6.29837
G1 X155.53 Y185.449 E6.34091
G1 X154.534 Y185.078 E6.39041
G1 X153.15 Y184.452 E6.46114
G1 X152.213 Y183.948 E6.51068
G1 X151.437 Y183.46 E6.55336
G1 X150.798 Y183.012 E6.5897
G1 X149.995 Y182.387 E6.63708
G1 X149.21 Y183.006 E6.68363
G1 X148.442 Y183.535 E6.72706
G1 X147.401 Y184.164 E6.78369
G1 X146.705 Y184.538 E6.82048
G1 X146.336 Y184.701 E6.83927
G1 X144.927 Y185.281 E6.91022
G1 X144.183 Y185.544 E6.94696
G1 X143.785 Y185.651 E6.96615
G1 X142.577 Y185.942 E7.02401
G1 X141.661 Y186.106 E7.06734
G1 X140.777 Y186.21 E7.10879
G1 X139.866 Y186.263 E7.15128
G1 X138.65 Y186.263 E7.2079
G1 X137.861 Y186.223 E7.24469
G1 X137.463 Y186.172 E7.26337
G1 X135.956 Y185.94 E7.33437
G1 X134.924 Y185.709 E7.38362
G1 X134.048 Y185.449 E7.42616
G1 X133.052 Y185.078 E7.47566
G1 X131.668 Y184.452 E7.54639
G1 X130.731 Y183.948 E7.59593
G1 X129.955 Y183.46 E7.63861
G1 X129.316 Y183.012 E7.67495
G1 X128.594 Y182.45 E7.71756
G1 X127.895 Y181.836 E7.76088
G1 X127.03 Y180.979 E7.81758
G1 X126.408 Y180.285 E7.86097
G1 X125.841 Y179.57 E7.90346
G1 X125.378 Y178.919 E7.94066
G1 X124.886 Y178.148 E7.98325
G1 X124.439 Y177.348 E8.02592
G1 X123.908 Y176.25 E8.08271
G1 X123.511 Y175.261 E8.13234
G1 X123.136 Y174.105 E8.18893
G1 X122.879 Y173.084 E8.23795
G1 X122.662 Y171.882 E8.29483
G1 X122.544 Y170.811 E8.345
G1 X122.494 Y169.572 E8.40274
G1 X122.511 Y168.66 E8.44521
G1 X122.579 Y167.774 E8.48659
G1 X122.682 Y166.976 E8.52406
G1 X122.846 Y166.074 E8.56675
G1 X123.058 Y165.198 E8.60871
G1 X123.412 Y164.035 E8.66532
G1 X123.741 Y163.149 E8.70933
G1 X124.111 Y162.313 E8.7519
G1 X124.534 Y161.494 E8.79482
G1 X125.155 Y160.446 E8.85154
G1 X125.617 Y159.755 E8.89025
G1 X125.378 Y159.419 E8.90945
G1 X124.886 Y158.648 E8.95204
G1 X124.439 Y157.848 E8.99471
G1 X123.908 Y156.75 E9.0515
G1 X123.511 Y155.761 E9.10113
G1 X123.136 Y154.605 E9.15771
G1 X122.879 Y153.584 E9.20674
G1 X122.662 Y152.382 E9.26361
G1 X122.544 Y151.311 E9.31379
G1 X122.494 Y150.072 E9.37153
G1 X122.511 Y149.16 E9.414
G1 X122.579 Y148.274 E9.45538
G1 X122.682 Y147.476 E9.49284
G1 X122.846 Y146.574 E9.53553
G1 X123.059 Y145.696 E9.5776
G1 X123.413 Y144.534 E9.63417
G1 X123.741 Y143.65 E9.67807
G1 X124.111 Y142.814 E9.72064
G1 X124.534 Y141.995 E9.76356
G1 X125.155 Y140.947 E9.82029
G1 X125.634 Y140.233 E9.86032
G1 X124.892 Y139.116 E9.92276
G1 X124.488 Y138.437 E9.95955
G1 X124.307 Y138.07 E9.97861
G1 X123.796 Y136.964 E10.03534
G1 X123.417 Y135.972 E10.08479
G1 X123.062 Y134.81 E10.14136
G1 X122.846 Y133.917 E10.18414
G1 X122.683 Y133.014 E10.22687
G1 X122.573 Y132.091 E10.27015
G1 X122.501 Y130.879 E10.32669
G1 X122.51 Y129.821 E10.37596
G1 X122.603 Y128.605 E10.43274
G1 X122.729 Y127.683 E10.47608
G1 X122.907 Y126.785 E10.5187
G1 X123.177 Y125.779 E10.5672
G1 X123.66 Y124.366 E10.63674
G1 X124.069 Y123.391 E10.68597
G1 X124.491 Y122.55 E10.72978
G1 X124.893 Y121.844 E10.76761
G1 X125.387 Y121.072 E10.81029
G1 X125.926 Y120.329 E10.85303
G1 X126.697 Y119.389 E10.90964
G1 X126.951 Y119.116 E10.92701
G0 F1080 X127.338 Y118.698
G0 F6000 X127.614 Y118.987
G1 F1200 X128.274 Y118.356 E10.96953
G1 X128.836 Y117.87 E11.00412
G1 X129.559 Y117.306 E11.04682
G1 X130.281 Y116.809 E11.08763
G1 X131.321 Y116.18 E11.14423
G1 X132.334 Y115.669 E11.19706
G1 X133.743 Y115.089 E11.26801
G1 X134.827 Y114.738 E11.32107
G1 X136.035 Y114.447 E11.37893
G1 X136.903 Y114.292 E11.41998
G1 X137.787 Y114.188 E11.46143
G1 X138.652 Y114.137 E11.50178
G1 X139.868 Y114.137 E11.5584
G1 X140.994 Y114.223 E11.61098
G1 X142.501 Y114.455 E11.68198
G1 X143.481 Y114.675 E11.72875
G1 X144.357 Y114.935 E11.7713
G1 X145.301 Y115.287 E11.81821
G1 X146.685 Y115.913 E11.88894
G1 X147.574 Y116.391 E11.93594
G1 X148.35 Y116.879 E11.97863
G1 X148.956 Y117.304 E12.01309
G1 X149.678 Y117.866 E12.0557
G1 X149.998 Y118.147 E12.07553
G1 X150.315 Y117.873 E12.09504
G1 X151.037 Y117.309 E12.1377
G1 X151.765 Y116.807 E12.17888
G1 X152.806 Y116.178 E12.23551
G1 X153.814 Y115.67 E12.28807
G1 X155.222 Y115.09 E12.35898
G1 X156.308 Y114.738 E12.41214
G1 X157.516 Y114.447 E12.47
G1 X158.385 Y114.292 E12.5111
G1 X159.27 Y114.188 E12.55259
G1 X160.134 Y114.137 E12.59289
G1 X161.35 Y114.137 E12.64951
G1 X162.477 Y114.223 E12.70215
G1 X163.983 Y114.455 E12.7731
G1 X164.959 Y114.674 E12.81967
G1 X165.836 Y114.934 E12.86227
G1 X166.783 Y115.287 E12.90933
G1 X168.167 Y115.913 E12.98006
G1 X169.056 Y116.391 E13.02706
G1 X169.832 Y116.879 E13.06974
G1 X170.438 Y117.304 E13.10421
G1 X171.16 Y117.866 E13.14681
G1 X171.823 Y118.448 E13.18789
G1 X172.686 Y119.303 E13.24446
G1 X173.275 Y119.961 E13.28558
G1 X173.843 Y120.677 E13.32814
G1 X174.282 Y121.292 E13.36332
G1 X174.774 Y122.062 E13.40587
G1 X175.199 Y122.822 E13.44642
G1 X175.73 Y123.919 E13.50317
G1 X176.11 Y124.865 E13.55064
G1 X176.485 Y126.024 E13.60736
G1 X176.726 Y126.987 E13.65359
G1 X176.943 Y128.189 E13.71046
G1 X177.055 Y129.2 E13.75782
G1 X177.106 Y130.439 E13.81557
G1 X177.09 Y131.318 E13.8565
G1 X177.021 Y132.204 E13.89788
G1 X176.925 Y132.945 E13.93268
G1 X176.762 Y133.847 E13.97536
G1 X176.559 Y134.688 E14.01564
G1 X176.205 Y135.85 E14.07221
G1 X175.893 Y136.688 E14.11384
G1 X175.523 Y137.524 E14.15641
G1 X175.122 Y138.301 E14.19713
G1 X174.501 Y139.349 E14.25385
G1 X173.873 Y140.245 E14.3048
G1 X174.777 Y141.607 E14.38092
G1 X175.33 Y142.598 E14.43376
G1 X175.84 Y143.702 E14.49039
G1 X176.198 Y144.641 E14.53718
G1 X176.554 Y145.805 E14.59386
G1 X176.76 Y146.654 E14.63454
G1 X176.923 Y147.557 E14.67727
G1 X177.028 Y148.433 E14.71835
G1 X177.1 Y149.645 E14.77489
G1 X177.091 Y150.648 E14.82159
G1 X176.998 Y151.864 E14.87838
G1 X176.879 Y152.739 E14.9195
G1 X176.701 Y153.637 E14.96213
G1 X176.444 Y154.592 E15.00818
G1 X175.961 Y156.005 E15.07771
G1 X175.573 Y156.93 E15.12442
G1 X175.151 Y157.771 E15.16823
G1 X174.771 Y158.438 E15.20398
G1 X174.278 Y159.209 E15.24659
G1 X173.881 Y159.758 E15.27814
G1 X174.777 Y161.107 E15.35355
G1 X175.329 Y162.095 E15.40624
G1 X175.839 Y163.198 E15.46283
G1 X176.199 Y164.141 E15.50983
G1 X176.555 Y165.306 E15.56655
G1 X176.76 Y166.154 E15.60718
G1 X176.923 Y167.057 E15.6499
G1 X177.028 Y167.933 E15.69099
G1 X177.1 Y169.145 E15.74752
G1 X177.091 Y170.149 E15.79427
G1 X176.998 Y171.364 E15.85102
G1 X176.879 Y172.236 E15.892
G1 X176.701 Y173.135 E15.93467
G1 X176.444 Y174.093 E15.98086
G1 X175.961 Y175.505 E16.05034
G1 X175.575 Y176.426 E16.09684
G1 X175.153 Y177.268 E16.1407
G1 X174.771 Y177.938 E16.17661
G1 X174.278 Y178.709 E16.21923
G1 X173.765 Y179.417 E16.25994
G1 X172.993 Y180.358 E16.31661
G1 X172.386 Y181.013 E16.3582
G1 X171.726 Y181.644 E16.40071
G1 X171.164 Y182.13 E16.43531
G1 X170.441 Y182.694 E16.47801
G1 X169.719 Y183.191 E16.51882
G1 X168.679 Y183.82 E16.57542
G1 X167.666 Y184.331 E16.62825
G1 X166.257 Y184.911 E16.6992
G1 X165.173 Y185.262 E16.75225
G1 X163.965 Y185.553 E16.81011
G1 X163.097 Y185.708 E16.85117
G1 X162.213 Y185.812 E16.89262
G1 X161.348 Y185.863 E16.93296
G1 X160.131 Y185.863 E16.98963
G1 X159.004 Y185.777 E17.04226
G1 X157.498 Y185.545 E17.11322
G1 X156.519 Y185.325 E17.15994
G1 X155.643 Y185.065 E17.20249
G1 X154.699 Y184.713 E17.2494
G1 X153.315 Y184.087 E17.32013
G1 X152.426 Y183.609 E17.36713
G1 X151.65 Y183.121 E17.40982
G1 X151.044 Y182.696 E17.44428
G1 X150.322 Y182.134 E17.48689
G1 X150.002 Y181.853 E17.50672
G1 X149.685 Y182.127 E17.52623
G1 X148.963 Y182.691 E17.56889
G1 X148.235 Y183.193 E17.61007
G1 X147.194 Y183.822 E17.6667
G1 X146.184 Y184.331 E17.71936
G1 X144.775 Y184.911 E17.79031
G1 X143.691 Y185.262 E17.84337
G1 X142.483 Y185.553 E17.90123
G1 X141.615 Y185.708 E17.94229
G1 X140.731 Y185.812 E17.98373
G1 X139.866 Y185.863 E18.02408
G1 X138.65 Y185.863 E18.0807
G1 X137.524 Y185.777 E18.13329
G1 X136.017 Y185.545 E18.20429
G1 X135.037 Y185.325 E18.25105
G1 X134.161 Y185.065 E18.2936
G1 X133.217 Y184.713 E18.34052
G1 X131.833 Y184.087 E18.41125
G1 X130.944 Y183.609 E18.45825
G1 X130.168 Y183.121 E18.50093
G1 X129.562 Y182.696 E18.5354
G1 X128.84 Y182.134 E18.578
G1 X128.177 Y181.552 E18.61908
G1 X127.312 Y180.695 E18.67578
G1 X126.722 Y180.036 E18.71697
G1 X126.155 Y179.321 E18.75946
G1 X125.715 Y178.704 E18.79475
G1 X125.223 Y177.933 E18.83733
G1 X124.799 Y177.174 E18.87782
G1 X124.268 Y176.076 E18.93461
G1 X123.891 Y175.137 E18.98172
G1 X123.516 Y173.981 E19.03831
G1 X123.273 Y173.013 E19.08479
G1 X123.056 Y171.811 E19.14166
G1 X122.944 Y170.794 E19.1893
G1 X122.894 Y169.555 E19.24704
G1 X122.91 Y168.691 E19.28728
G1 X122.978 Y167.805 E19.32866
G1 X123.075 Y167.047 E19.36424
G1 X123.239 Y166.145 E19.40693
G1 X123.441 Y165.314 E19.44675
G1 X123.795 Y164.151 E19.50336
G1 X124.107 Y163.311 E19.54509
G1 X124.477 Y162.475 E19.58766
G1 X124.878 Y161.698 E19.62837
G1 X125.499 Y160.65 E19.68509
G1 X126.117 Y159.768 E19.73524
G1 X125.715 Y159.204 E19.76749
G1 X125.223 Y158.433 E19.81008
G1 X124.799 Y157.674 E19.85056
G1 X124.268 Y156.576 E19.90736
G1 X123.891 Y155.637 E19.95447
G1 X123.516 Y154.481 E20.01106
G1 X123.273 Y153.513 E20.05753
G1 X123.056 Y152.311 E20.11441
G1 X122.944 Y151.294 E20.16205
G1 X122.894 Y150.055 E20.21979
G1 X122.91 Y149.191 E20.26003
G1 X122.978 Y148.305 E20.30141
G1 X123.075 Y147.547 E20.33699
G1 X123.239 Y146.645 E20.37968
G1 X123.441 Y145.812 E20.41959
G1 X123.795 Y144.65 E20.47615
G1 X124.107 Y143.812 E20.51779
G1 X124.477 Y142.976 E20.56036
G1 X124.878 Y142.199 E20.60108
G1 X125.499 Y141.151 E20.6578
G1 X126.128 Y140.253 E20.70885
G1 X125.225 Y138.895 E20.78479
G1 X124.67 Y137.903 E20.83772
G1 X124.159 Y136.797 E20.89445
G1 X123.8 Y135.855 E20.94139
G1 X123.445 Y134.693 E20.99797
G1 X123.24 Y133.846 E21.03855
G1 X123.077 Y132.943 E21.08127
G1 X122.972 Y132.067 E21.12235
G1 X122.9 Y130.855 E21.17889
G1 X122.909 Y129.852 E21.2256
G1 X123.002 Y128.636 E21.28238
G1 X123.121 Y127.761 E21.3235
G1 X123.299 Y126.863 E21.36613
G1 X123.556 Y125.908 E21.41218
G1 X124.039 Y124.495 E21.48171
G1 X124.427 Y123.57 E21.52842
G1 X124.849 Y122.729 E21.57224
G1 X125.23 Y122.059 E21.60813
G1 X125.724 Y121.287 E21.6508
G1 X126.235 Y120.583 E21.69131
G1 X127.006 Y119.643 E21.74792
G1 X127.227 Y119.405 E21.76304
G0 F1080 X127.614 Y118.987
G0 F6000 X127.891 Y119.276
G1 F1200 X128.551 Y118.645 E21.80556
G1 X129.082 Y118.186 E21.83824
G1 X129.805 Y117.622 E21.88094
G1 X130.488 Y117.151 E21.91957
G1 X131.528 Y116.522 E21.97617
G1 X132.486 Y116.039 E22.02613
G1 X133.895 Y115.459 E22.09708
G1 X134.921 Y115.127 E22.14729
G1 X136.129 Y114.836 E22.20515
G1 X136.95 Y114.689 E22.24399
G1 X137.834 Y114.585 E22.28543
G1 X138.652 Y114.537 E22.32359
G1 X139.868 Y114.537 E22.38021
G1 X140.933 Y114.619 E22.42995
G1 X142.44 Y114.851 E22.50095
G1 X143.367 Y115.058 E22.54517
G1 X144.243 Y115.318 E22.58772
G1 X145.136 Y115.651 E22.6321
G1 X146.52 Y116.277 E22.70283
G1 X147.361 Y116.729 E22.74729
G1 X148.137 Y117.217 E22.78997
G1 X148.711 Y117.619 E22.82261
