;FLAVOR:Marlin
;TIME:1011
;Filament used: 0.600194m
;Layer height: 0.2
;MINX:118.511
;MINY:140.013
;MINZ:0.28
;MAXX:161.187
;MAXY:159.99
;MAXZ:4.48
;Generated with Cura_SteamEngine 5.2.1
M140 S90
M105
M190 S90
M82 ;absolute extrusion mode
M201 X500.00 Y500.00 Z100.00 E5000.00 ;Setup machine max acceleration
M203 X500.00 Y500.00 Z10.00 E50.00 ;Setup machine max feedrate
M204 P500.00 R1000.00 T500.00 ;Setup Print/Retract/Travel acceleration
M205 X8.00 Y8.00 Z0.40 E5.00 ;Setup Jerk
M220 S100 ;Reset Feedrate
M221 S100 ;Reset Flowrate
M140 S90 ; set bed temp
M190 S90 ; wait for bed temp
G28; home all
G29;
G92 E0 ;Reset Extruder
G1 Z2.0 F3000 ;Move Z Axis up
G1 X10.1 Y20 Z0.28 F5000.0 ;Move to start position
M104 S240.0 ; wait for extruder printing temp
M109 S240.0 ; wait for extruder printing temp
G1 X10.1 Y200.0 Z0.28 F1500.0 E15 ;Draw the first line
G1 X10.4 Y200.0 Z0.28 F5000.0 ;Move to side a little
G1 X10.4 Y20 Z0.28 F1500.0 E30 ;Draw the second line
G92 E0 ;Reset Extruder
G92 E0
G92 E0
G1 F4800 E-6
;LAYER_COUNT:22
;LAYER:0
M107
;MESH:19.5mm pDia Synchromesh.stl
G0 F6000 X134.159 Y151.137 Z0.28
;TYPE:WALL-INNER
G1 F4800 E0
G1 F1200 X134.025 Y151.674 E0.02577
G1 X133.801 Y152.297 E0.0566
G1 X133.539 Y152.824 E0.084
G1 X133.183 Y153.374 E0.11451
G1 X132.757 Y153.909 E0.14636
G1 X132.184 Y154.449 E0.18302
G1 X131.735 Y154.784 E0.2091
G1 X131.345 Y155.023 E0.2304
G1 X130.897 Y155.25 E0.25379
G1 X130.588 Y155.38 E0.2694
G1 X130.125 Y155.54 E0.29221
G1 X129.442 Y155.703 E0.3249
G1 X128.776 Y155.765 E0.35605
G1 X128.227 Y155.765 E0.38161
G1 X127.595 Y155.707 E0.41117
G1 X126.888 Y155.543 E0.44496
G1 X126.242 Y155.319 E0.4768
G1 X125.521 Y154.954 E0.51443
G1 X124.98 Y154.575 E0.54519
G1 X124.467 Y154.139 E0.57654
G1 X124.15 Y153.797 E0.59825
G1 X123.767 Y153.312 E0.62703
G1 X123.504 Y152.895 E0.64998
G1 X123.267 Y152.437 E0.674
G1 X123.105 Y152.066 E0.69285
G1 X122.975 Y151.674 E0.71208
G1 X122.874 Y151.315 E0.72944
G1 X122.79 Y150.846 E0.75163
G1 X122.738 Y150.355 E0.77462
G1 X122.731 Y149.796 E0.80065
G1 X122.789 Y149.112 E0.83261
G1 X122.962 Y148.342 E0.86936
G1 X123.275 Y147.53 E0.90988
G1 X123.657 Y146.847 E0.94632
G1 X124.072 Y146.298 E0.97837
G1 X124.522 Y145.806 E1.00942
G1 X125.06 Y145.362 E1.0419
G1 X125.53 Y145.049 E1.06819
G1 X126.125 Y144.729 E1.09965
G1 X126.748 Y144.501 E1.13054
G1 X127.039 Y144.413 E1.1447
G1 X127.546 Y144.307 E1.16882
G1 X127.856 Y144.264 E1.18339
G1 X128.476 Y144.221 E1.21233
G1 X129.282 Y144.275 E1.24994
G1 X130.086 Y144.441 E1.28817
G1 X130.85 Y144.721 E1.32606
G1 X131.595 Y145.119 E1.36539
G1 X132.152 Y145.528 E1.39757
G1 X132.552 Y145.888 E1.42263
G1 X132.922 Y146.291 E1.4481
G1 X133.247 Y146.718 E1.47309
G1 X133.405 Y146.957 E1.48643
G1 X133.72 Y147.52 E1.51647
G1 X133.983 Y148.192 E1.55007
G1 X134.067 Y148.469 E1.56355
G1 X134.212 Y149.112 E1.59424
G1 X134.278 Y149.92 E1.63199
G1 X134.241 Y150.601 E1.66375
G1 X134.159 Y151.137 E1.689
G0 F6000 X134.453 Y151.183
G0 X137.608 Y151.547
G0 X137.904 Y151.593
G1 F1200 X137.952 Y151.283 E1.7036
G1 X138.017 Y150.636 E1.73388
G1 X138.038 Y150.036 E1.76184
G1 X138.031 Y149.637 E1.78042
G1 X138.017 Y149.363 E1.79319
G1 X137.952 Y148.717 E1.82343
G1 X137.91 Y148.438 E1.83656
G1 X137.783 Y147.812 E1.86631
G1 X137.695 Y147.471 E1.88271
G1 X137.505 Y146.855 E1.91272
G1 X137.272 Y146.253 E1.94278
G1 X137.145 Y145.969 E1.95727
G1 X136.848 Y145.387 E1.98769
G1 X136.696 Y145.118 E2.00208
G1 X136.343 Y144.571 E2.03239
G1 X136.145 Y144.296 E2.04817
G1 X135.943 Y144.034 E2.06358
G1 X135.764 Y143.817 E2.07668
G1 X135.327 Y143.337 E2.1069
G1 X135.067 Y143.082 E2.12386
G1 X134.829 Y142.865 E2.13886
G1 X134.37 Y142.483 E2.16666
G1 X134.095 Y142.276 E2.18269
G1 X133.829 Y142.089 E2.19783
G1 X133.318 Y141.767 E2.22596
G1 X132.749 Y141.46 E2.25606
G1 X132.167 Y141.194 E2.28586
G1 X131.839 Y141.064 E2.30229
G1 X131.256 Y140.867 E2.33094
G1 X130.641 Y140.705 E2.36056
G1 X130.302 Y140.633 E2.37669
G1 X130.016 Y140.582 E2.39022
G1 X129.699 Y140.537 E2.40513
G1 X129.379 Y140.502 E2.42012
G1 X129.061 Y140.478 E2.43497
G1 X128.74 Y140.464 E2.44993
G1 X128.133 Y140.467 E2.47819
G1 X127.746 Y140.491 E2.49625
G1 X127.142 Y140.558 E2.52455
G1 X126.77 Y140.619 E2.5421
G1 X126.168 Y140.751 E2.5708
G1 X125.859 Y140.834 E2.5857
G1 X125.281 Y141.02 E2.61397
G1 X124.954 Y141.145 E2.63027
G1 X124.395 Y141.389 E2.65867
G1 X123.82 Y141.687 E2.68883
G1 X123.551 Y141.845 E2.70335
G1 X123.005 Y142.202 E2.73373
G1 X122.678 Y142.443 E2.75265
G1 X122.274 Y142.771 E2.77688
G1 X121.989 Y143.027 E2.79472
G1 X121.782 Y143.225 E2.80805
G1 X121.539 Y143.477 E2.82435
G1 X121.324 Y143.715 E2.83929
G1 X120.938 Y144.182 E2.8675
G1 X120.56 Y144.712 E2.89781
G1 X120.229 Y145.248 E2.92715
G1 X119.923 Y145.824 E2.95752
G1 X119.789 Y146.11 E2.97223
G1 X119.662 Y146.406 E2.98722
G1 X119.544 Y146.712 E3.00249
G1 X119.347 Y147.316 E3.03208
G1 X119.187 Y147.934 E3.0618
G1 X119.069 Y148.563 E3.0916
G1 X119.026 Y148.881 E3.10655
G1 X118.994 Y149.195 E3.12124
G1 X118.961 Y149.844 E3.1515
G1 X118.962 Y150.194 E3.1678
G1 X118.996 Y150.834 E3.19764
G1 X119.064 Y151.403 E3.22433
G1 X119.122 Y151.75 E3.24071
G1 X119.187 Y152.061 E3.2555
G1 X119.349 Y152.693 E3.28588
G1 X119.535 Y153.263 E3.3138
G1 X119.674 Y153.618 E3.33155
G1 X119.894 Y154.121 E3.35712
G1 X120.227 Y154.751 E3.3903
G1 X120.406 Y155.05 E3.40653
G1 X120.558 Y155.285 E3.41956
G1 X120.936 Y155.815 E3.44987
G1 X121.302 Y156.258 E3.47663
G1 X121.788 Y156.777 E3.50974
G1 X122.012 Y156.993 E3.52423
G1 X122.252 Y157.208 E3.53923
G1 X122.498 Y157.414 E3.55417
G1 X122.752 Y157.612 E3.56917
G1 X123.035 Y157.818 E3.58547
G1 X123.271 Y157.978 E3.59874
G1 X123.829 Y158.315 E3.6291
G1 X124.106 Y158.466 E3.64379
G1 X124.388 Y158.607 E3.65847
G1 X124.984 Y158.868 E3.68876
G1 X125.308 Y158.989 E3.70487
G1 X125.61 Y159.09 E3.7197
G1 X125.915 Y159.181 E3.73452
G1 X126.513 Y159.329 E3.7632
G1 X126.824 Y159.391 E3.77797
G1 X127.14 Y159.442 E3.79287
G1 X127.778 Y159.512 E3.82276
G1 X128.097 Y159.531 E3.83764
G1 X128.447 Y159.539 E3.85394
G1 X128.768 Y159.535 E3.86889
G1 X129.094 Y159.52 E3.88409
G1 X129.406 Y159.495 E3.89866
G1 X130.048 Y159.413 E3.9288
G1 X130.362 Y159.355 E3.94367
G1 X130.95 Y159.217 E3.97179
G1 X131.62 Y159.014 E4.00439
G1 X132.167 Y158.806 E4.03164
G1 X132.462 Y158.677 E4.04663
G1 X132.746 Y158.54 E4.06131
G1 X133.321 Y158.231 E4.09171
G1 X133.859 Y157.892 E4.12132
G1 X134.143 Y157.691 E4.13752
G1 X134.62 Y157.317 E4.16574
G1 X135.104 Y156.882 E4.19605
G1 X135.549 Y156.425 E4.22575
G1 X135.778 Y156.163 E4.24195
G1 X135.981 Y155.915 E4.25687
G1 X136.179 Y155.657 E4.27202
G1 X136.542 Y155.13 E4.30182
G1 X136.691 Y154.889 E4.31501
G1 X137.003 Y154.319 E4.34527
G1 X137.143 Y154.034 E4.36005
G1 X137.274 Y153.741 E4.375
G1 X137.395 Y153.445 E4.38989
G1 X137.509 Y153.137 E4.40518
G1 X137.695 Y152.528 E4.43483
G1 X137.782 Y152.189 E4.45113
G1 X137.904 Y151.593 E4.47945
G1 F4800 E-1.52055
G0 F6000 X137.608 Y151.547
G0 X137.604 Y148.428
G1 F4800 E4.47945
G0 F6000 X138.291 Y148.3
;TYPE:WALL-OUTER
G1 F1200 X138.164 Y147.685 E4.5087
G1 X138.08 Y147.362 E4.52424
G1 X137.883 Y146.723 E4.55537
G1 X137.641 Y146.099 E4.58654
G1 X137.506 Y145.797 E4.60194
G1 X137.2 Y145.197 E4.6333
G1 X137.038 Y144.911 E4.64861
G1 X136.674 Y144.346 E4.6799
G1 X136.463 Y144.053 E4.69672
G1 X136.278 Y143.812 E4.71086
G1 X136.066 Y143.555 E4.72638
G1 X135.616 Y143.06 E4.75753
G1 X135.379 Y142.826 E4.77304
G1 X135.127 Y142.594 E4.78899
G1 X134.619 Y142.169 E4.81983
G1 X134.082 Y141.777 E4.85079
G1 X133.518 Y141.42 E4.88187
G1 X132.93 Y141.103 E4.91297
G1 X132.629 Y140.96 E4.92849
G1 X132.289 Y140.812 E4.94576
G1 X132.013 Y140.702 E4.95959
G1 X131.698 Y140.589 E4.97517
G1 X131.368 Y140.483 E4.99131
G1 X130.734 Y140.315 E5.02185
G1 X130.372 Y140.239 E5.03908
G1 X130.08 Y140.187 E5.05289
G1 X129.713 Y140.136 E5.07014
G1 X129.085 Y140.078 E5.09951
G1 X128.75 Y140.064 E5.11512
G1 X128.123 Y140.067 E5.14432
G1 X127.749 Y140.089 E5.16176
G1 X127.416 Y140.12 E5.17733
G1 X127.085 Y140.162 E5.19287
G1 X126.755 Y140.215 E5.20843
G1 X126.39 Y140.288 E5.22577
G1 X126.066 Y140.364 E5.24126
G1 X125.743 Y140.451 E5.25684
G1 X125.146 Y140.644 E5.28605
G1 X124.8 Y140.775 E5.30328
G1 X124.22 Y141.029 E5.33277
G1 X123.627 Y141.337 E5.36388
G1 X123.34 Y141.505 E5.37937
G1 X122.777 Y141.873 E5.41068
G1 X122.508 Y142.069 E5.42618
G1 X122.246 Y142.273 E5.44164
G1 X121.74 Y142.711 E5.47281
G1 X121.5 Y142.941 E5.48829
G1 X121.268 Y143.18 E5.5038
G1 X121.02 Y143.455 E5.52104
G1 X120.619 Y143.941 E5.55038
G1 X120.229 Y144.488 E5.58166
G1 X120.029 Y144.801 E5.59896
G1 X119.88 Y145.052 E5.61255
G1 X119.565 Y145.646 E5.64385
G1 X119.41 Y145.979 E5.66096
G1 X119.292 Y146.255 E5.67493
G1 X119.167 Y146.578 E5.69106
G1 X118.964 Y147.201 E5.72157
G1 X118.875 Y147.524 E5.73717
G1 X118.797 Y147.846 E5.7526
G1 X118.729 Y148.173 E5.76815
G1 X118.673 Y148.503 E5.78374
G1 X118.595 Y149.165 E5.81478
G1 X118.561 Y149.834 E5.84597
G1 X118.562 Y150.208 E5.86338
G1 X118.598 Y150.875 E5.89449
G1 X118.673 Y151.495 E5.92357
G1 X118.737 Y151.867 E5.94114
G1 X118.797 Y152.151 E5.95466
G1 X118.963 Y152.801 E5.9859
G1 X119.074 Y153.155 E6.00317
G1 X119.171 Y153.432 E6.01684
G1 X119.424 Y154.052 E6.04802
G1 X119.565 Y154.355 E6.06358
G1 X119.878 Y154.947 E6.09476
G1 X120.07 Y155.267 E6.11214
G1 X120.227 Y155.51 E6.12561
G1 X120.617 Y156.057 E6.15689
G1 X120.825 Y156.317 E6.1724
G1 X121.042 Y156.568 E6.18785
G1 X121.503 Y157.059 E6.21921
G1 X121.74 Y157.287 E6.23452
G1 X122.246 Y157.725 E6.26569
G1 X122.511 Y157.932 E6.28134
G1 X122.78 Y158.128 E6.29684
G1 X123.055 Y158.315 E6.31233
G1 X123.629 Y158.662 E6.34356
G1 X123.921 Y158.821 E6.35904
G1 X124.218 Y158.969 E6.37449
G1 X124.833 Y159.239 E6.40577
G1 X125.458 Y159.462 E6.43667
G1 X125.778 Y159.558 E6.45222
G1 X126.429 Y159.721 E6.48347
G1 X126.754 Y159.785 E6.4989
G1 X127.083 Y159.838 E6.51441
G1 X127.416 Y159.88 E6.53004
G1 X127.748 Y159.911 E6.54557
G1 X128.081 Y159.931 E6.5611
G1 X128.451 Y159.939 E6.57834
G1 X129.084 Y159.922 E6.60782
G1 X129.449 Y159.893 E6.62487
G1 X129.748 Y159.86 E6.63888
G1 X130.118 Y159.807 E6.65628
G1 X130.733 Y159.684 E6.68549
G1 X131.056 Y159.603 E6.70099
G1 X131.698 Y159.41 E6.73221
G1 X132.054 Y159.281 E6.74984
G1 X132.628 Y159.041 E6.77881
G1 X132.928 Y158.897 E6.79431
G1 X133.52 Y158.578 E6.82562
G1 X134.083 Y158.223 E6.85661
G1 X134.383 Y158.011 E6.87372
G1 X134.653 Y157.806 E6.8895
G1 X134.88 Y157.621 E6.90314
G1 X135.379 Y157.173 E6.93436
G1 X135.845 Y156.695 E6.96545
G1 X136.276 Y156.187 E6.99647
G1 X136.503 Y155.891 E7.01384
G1 X136.675 Y155.651 E7.02759
G1 X136.882 Y155.341 E7.04494
G1 X137.037 Y155.091 E7.05864
G1 X137.359 Y154.503 E7.08986
G1 X137.642 Y153.899 E7.12092
G1 X137.768 Y153.59 E7.13646
G1 X137.888 Y153.265 E7.15259
G1 X138.08 Y152.637 E7.18317
G1 X138.164 Y152.314 E7.19871
G1 X138.236 Y151.99 E7.21416
G1 X138.298 Y151.661 E7.22975
G1 X138.349 Y151.333 E7.24521
G1 X138.416 Y150.666 E7.27642
G1 X138.433 Y150.332 E7.29199
G1 X138.438 Y150.043 E7.30545
G1 X138.431 Y149.617 E7.32529
G1 X138.416 Y149.333 E7.33853
G1 X138.349 Y148.667 E7.3697
G1 X138.291 Y148.3 E7.387
G1 F4800 E1.387
G0 F6000 X137.604 Y148.428
G0 X132.938 Y154.067
G0 X132.345 Y154.627
G0 X131.469 Y155.227
G0 X130.188 Y155.77
G0 X129.331 Y155.954
G0 X128.225 Y156.004
G0 X127.521 Y155.939
G0 X126.155 Y155.544
G0 X125.399 Y155.16
G0 X124.303 Y154.312
G0 X123.709 Y153.614
G0 X122.993 Y152.557
G1 F4800 E7.387
G0 F6000 X123.633 Y152.276
G1 F1200 X123.474 Y151.91 E7.40559
G1 X123.36 Y151.566 E7.42246
G1 X123.259 Y151.202 E7.44005
G1 X123.188 Y150.803 E7.45892
G1 X123.137 Y150.329 E7.48112
G1 X123.131 Y149.81 E7.50529
G1 X123.183 Y149.179 E7.53477
G1 X123.351 Y148.436 E7.57024
G1 X123.631 Y147.714 E7.6063
G1 X123.993 Y147.063 E7.64098
G1 X124.381 Y146.553 E7.67082
G1 X124.799 Y146.095 E7.6997
G1 X125.302 Y145.681 E7.73003
G1 X125.737 Y145.391 E7.75437
G1 X126.298 Y145.09 E7.78402
G1 X126.864 Y144.884 E7.81207
G1 X127.152 Y144.798 E7.82606
G1 X127.613 Y144.702 E7.84799
G1 X127.884 Y144.663 E7.86074
G1 X128.476 Y144.621 E7.88837
G1 X129.252 Y144.674 E7.92459
G1 X129.984 Y144.829 E7.95943
G1 X130.69 Y145.088 E7.99445
G1 X131.372 Y145.452 E8.03045
G1 X131.895 Y145.836 E8.06066
G1 X132.277 Y146.18 E8.08459
G1 X132.618 Y146.552 E8.10809
G1 X132.923 Y146.954 E8.13159
G1 X133.069 Y147.174 E8.14388
G1 X133.363 Y147.702 E8.17202
G1 X133.6 Y148.308 E8.20232
G1 X133.681 Y148.576 E8.21536
G1 X133.816 Y149.173 E8.24386
G1 X133.878 Y149.927 E8.27909
G1 X133.842 Y150.561 E8.30866
G1 X133.763 Y151.074 E8.33283
G1 X133.639 Y151.565 E8.35641
G1 X133.432 Y152.14 E8.38486
G1 X133.188 Y152.632 E8.41044
G1 X132.852 Y153.147 E8.43907
G1 X132.47 Y153.629 E8.46771
G1 X131.932 Y154.138 E8.50219
G1 X131.499 Y154.46 E8.52732
G1 X131.15 Y154.673 E8.54636
G1 X130.724 Y154.889 E8.5686
G1 X130.457 Y155.002 E8.5821
G1 X130 Y155.159 E8.6046
G1 X129.376 Y155.308 E8.63447
G1 X128.751 Y155.366 E8.6637
G1 X128.244 Y155.365 E8.68731
G1 X127.623 Y155.307 E8.71635
G1 X126.995 Y155.158 E8.74641
G1 X126.403 Y154.953 E8.77558
G1 X125.726 Y154.609 E8.81094
G1 X125.198 Y154.238 E8.84099
G1 X124.741 Y153.847 E8.86899
G1 X124.448 Y153.529 E8.88913
G1 X124.087 Y153.071 E8.91628
G1 X123.859 Y152.711 E8.93612
G1 X123.633 Y152.276 E8.95895
G0 F6000 X122.993 Y152.557
G0 X122.556 Y150.901
G0 X122.492 Y149.796
G0 X122.549 Y149.087
G0 X122.736 Y148.261
G0 X123.042 Y147.46
G0 X123.457 Y146.712
G0 X124.808 Y145.101
;TYPE:SKIN
G1 F1200 X125.373 Y144.721 E8.99065
G1 X126.003 Y144.39 E9.02379
G1 X126.613 Y144.165 E9.05407
G1 X126.945 Y144.064 E9.07023
G1 X127.459 Y143.955 E9.09469
G1 X127.831 Y143.904 E9.11218
G1 X128.511 Y143.858 E9.14391
G1 X129.395 Y143.926 E9.1852
G1 X130.18 Y144.093 E9.22257
G1 X130.99 Y144.388 E9.26271
G1 X131.786 Y144.811 E9.30468
G1 X132.385 Y145.253 E9.33934
G1 X132.797 Y145.621 E9.36507
G1 X133.178 Y146.035 E9.39127
G1 X133.541 Y146.509 E9.41907
G1 X133.704 Y146.754 E9.43277
G1 X134.042 Y147.356 E9.46492
G1 X134.331 Y148.095 E9.50187
G1 X134.417 Y148.38 E9.51573
G1 X134.568 Y149.05 E9.54771
G1 X134.639 Y149.916 E9.58817
G1 X134.6 Y150.635 E9.6217
G1 X134.512 Y151.213 E9.64892
G1 X134.367 Y151.788 E9.67653
G1 X134.14 Y152.421 E9.70785
G1 X133.864 Y152.982 E9.73696
G1 X133.479 Y153.582 E9.77015
G1 X133.044 Y154.129 E9.8027
G1 X132.452 Y154.696 E9.84087
G1 X131.942 Y155.081 E9.87062
G1 X131.514 Y155.342 E9.89397
G1 X131.02 Y155.59 E9.9197
G1 X130.715 Y155.717 E9.93509
G1 X130.226 Y155.884 E9.95915
G1 X129.519 Y156.058 E9.99305
G1 X128.799 Y156.125 E10.02672
G1 X128.217 Y156.125 E10.05382
G1 X127.525 Y156.061 E10.08618
G1 X126.811 Y155.898 E10.12029
G1 X126.096 Y155.649 E10.15554
G1 X125.333 Y155.26 E10.19542
G1 X124.76 Y154.86 E10.22796
G1 X124.211 Y154.393 E10.26152
G1 X123.874 Y154.03 E10.28458
G1 X123.489 Y153.542 E10.31353
G1 X123.186 Y153.067 E10.33976
G1 X122.943 Y152.595 E10.36448
G1 X122.754 Y152.164 E10.3864
G1 X122.634 Y151.793 E10.40455
G1 X122.515 Y151.359 E10.42551
G1 X122.438 Y150.93 E10.4458
G1 X122.378 Y150.379 E10.47161
G1 X122.371 Y149.773 E10.49983
G1 X122.433 Y149.054 E10.53344
G1 X122.619 Y148.225 E10.573
G1 X122.925 Y147.425 E10.61288
G1 X123.356 Y146.644 E10.65442
G1 X123.8 Y146.062 E10.6885
G1 X124.239 Y145.579 E10.7189
G1 X124.808 Y145.101 E10.7535
G0 F6000 X128.143 Y140.827
G1 F1200 X127.745 Y140.853 E10.77207
G1 X127.156 Y140.92 E10.79967
G1 X126.841 Y140.972 E10.81454
G1 X126.56 Y141.031 E10.82791
G1 X126.018 Y141.163 E10.85389
G1 X125.433 Y141.349 E10.88247
G1 X125.093 Y141.478 E10.8994
G1 X124.552 Y141.714 E10.92689
G1 X123.962 Y142.021 E10.95786
G1 X123.742 Y142.151 E10.96975
G1 X123.212 Y142.498 E10.99925
G1 X122.748 Y142.847 E11.02629
G1 X122.47 Y143.079 E11.04315
G1 X122.057 Y143.46 E11.06931
G1 X121.844 Y143.678 E11.0835
G1 X121.429 Y144.147 E11.11267
G1 X121.226 Y144.4 E11.12777
G1 X120.86 Y144.913 E11.15711
G1 X120.543 Y145.425 E11.18515
G1 X120.245 Y145.986 E11.21473
G1 X120.119 Y146.256 E11.22861
G1 X119.987 Y146.568 E11.24438
G1 X119.88 Y146.847 E11.2583
G1 X119.695 Y147.419 E11.28629
G1 X119.539 Y148.015 E11.31498
G1 X119.477 Y148.313 E11.32915
