;FLAVOR:Marlin
;TIME:674
;Filament used: 0.412963m
;Layer height: 0.2
;MINX:115.626
;MINY:133.242
;MINZ:0.28
;MAXX:166.788
;MAXY:174.771
;MAXZ:2.88
;POSTPROCESSED
;Generated with Cura_SteamEngine 4.12.1
M140 S80
M105
M190 S80
M82 ;absolute extrusion mode
M201 X500.00 Y500.00 Z100.00 E5000.00 ;Setup machine max acceleration
M203 X500.00 Y500.00 Z10.00 E50.00 ;Setup machine max feedrate
M204 P500.00 R1000.00 T500.00 ;Setup Print/Retract/Travel acceleration
M205 X8.00 Y8.00 Z0.40 E5.00 ;Setup Jerk
M220 S100 ;Reset Feedrate
M221 S100 ;Reset Flowrate
M140 S80 ; set bed temp
M190 S80 ; wait for bed temp
G28; home all 
G29;
G92 E0 ;Reset Extruder
;G1 Z2.0 F3000 ;Move Z Axis up
G1 X10.1 Y20 Z0.28 F5000.0 ;Move to start position
M104 S240.0 ; wait for extruder printing temp
M109 S240.0 ; wait for extruder printing temp
G1 X10.1 Y200.0 Z0.28 F1500.0 E15 ;Draw the first line
G1 X10.4 Y200.0 Z0.28 F5000.0 ;Move to side a little
G1 X10.4 Y20 Z0.28 F1500.0 E30 ;Draw the second line
G92 E0 ;Reset Extruder
G1 Z2.0 F3000 ;Move Z Axis up
G92 E0
G92 E0
G1 F1800 E-3
;LAYER_COUNT:14
;LAYER:0
M107
G0 F6000 X121.597 Y145.168 Z0.28
;TYPE:SKIRT
G1 F1800 E0
G1 F1200 X122.318 Y144.596 E0.04285
G1 X122.972 Y144.13 E0.08025
G1 X123.753 Y143.632 E0.12338
G1 X124.562 Y143.182 E0.16648
G1 X125.658 Y142.654 E0.22313
G1 X126.636 Y142.262 E0.27219
G1 X127.789 Y141.888 E0.32864
G1 X128.809 Y141.631 E0.37762
G1 X130.01 Y141.414 E0.43445
G1 X131.09 Y141.296 E0.48503
G1 X132.336 Y141.247 E0.5431
G1 X133.239 Y141.264 E0.58515
G1 X134.113 Y141.331 E0.62597
G1 X134.912 Y141.434 E0.66348
G1 X135.545 Y141.549 E0.69344
G1 X135.661 Y141.341 E0.70453
G1 X136.158 Y140.566 E0.7474
G1 X136.697 Y139.826 E0.79003
G1 X137.474 Y138.88 E0.84703
G1 X138.118 Y138.187 E0.89108
G1 X138.767 Y137.568 E0.93284
G1 X139.351 Y137.063 E0.9688
G1 X140.084 Y136.491 E1.01209
G1 X140.847 Y135.965 E1.05524
G1 X141.869 Y135.347 E1.11085
G1 X142.564 Y134.974 E1.14758
G1 X142.928 Y134.812 E1.16614
G1 X144.34 Y134.229 E1.23727
G1 X145.084 Y133.965 E1.27403
G1 X145.483 Y133.858 E1.29326
G1 X146.686 Y133.567 E1.3509
G1 X147.612 Y133.401 E1.3947
G1 X148.516 Y133.295 E1.43708
G1 X149.43 Y133.242 E1.47972
G1 X150.644 Y133.243 E1.53624
G1 X151.433 Y133.284 E1.57303
G1 X151.831 Y133.335 E1.59172
G1 X153.336 Y133.568 E1.66263
G1 X154.368 Y133.8 E1.71188
G1 X155.235 Y134.058 E1.75401
G1 X156.22 Y134.425 E1.80295
G1 X157.615 Y135.055 E1.87423
G1 X158.558 Y135.561 E1.92406
G1 X159.326 Y136.044 E1.9663
G1 X159.966 Y136.493 E2.00271
G1 X160.694 Y137.06 E2.04567
G1 X161.39 Y137.673 E2.08886
G1 X162.244 Y138.519 E2.14483
G1 X162.868 Y139.215 E2.18836
G1 X163.445 Y139.943 E2.23162
G1 X163.897 Y140.576 E2.26783
G1 X164.382 Y141.332 E2.30966
G1 X164.842 Y142.155 E2.35356
G1 X165.378 Y143.266 E2.411
G1 X165.775 Y144.256 E2.46067
G1 X166.149 Y145.413 E2.51729
G1 X166.403 Y146.425 E2.56587
G1 X166.62 Y147.626 E2.6227
G1 X166.738 Y148.7 E2.67301
G1 X166.788 Y149.944 E2.73098
G1 X166.77 Y150.865 E2.77388
G1 X166.701 Y151.747 E2.81507
G1 X166.599 Y152.534 E2.85202
G1 X166.435 Y153.436 E2.89471
G1 X166.217 Y154.332 E2.93765
G1 X165.86 Y155.494 E2.99426
G1 X165.539 Y156.353 E3.03696
G1 X165.169 Y157.191 E3.07961
G1 X164.739 Y158.026 E3.12335
G1 X164.118 Y159.071 E3.17995
G1 X163.681 Y159.728 E3.21669
G1 X163.437 Y160.041 E3.23517
G1 X162.478 Y161.207 E3.30547
G1 X162.193 Y161.535 E3.3257
G1 X161.654 Y162.068 E3.361
G1 X160.763 Y162.868 E3.41676
G1 X160.15 Y163.365 E3.4535
G1 X159.819 Y163.594 E3.47225
G1 X158.532 Y164.435 E3.54383
G1 X157.85 Y164.832 E3.58058
G1 X157.466 Y165.018 E3.60045
G1 X156.355 Y165.518 E3.65718
G1 X155.37 Y165.884 E3.70611
G1 X154.199 Y166.231 E3.76298
G1 X153.17 Y166.461 E3.81207
G1 X151.968 Y166.646 E3.8687
G1 X151.046 Y166.732 E3.91182
G1 X150.134 Y166.763 E3.95431
G1 X149.452 Y166.757 E3.98607
G1 X148.817 Y166.723 E4.01568
G1 X148.029 Y166.64 E4.05258
G1 X146.856 Y166.457 E4.10786
G1 X146.818 Y166.519 E4.11124
G1 X145.98 Y167.803 E4.18264
G1 X145.515 Y168.442 E4.21944
G1 X145.259 Y168.744 E4.23787
G1 X144.453 Y169.644 E4.29413
G1 X143.799 Y170.292 E4.337
G1 X143.126 Y170.885 E4.37877
G1 X142.284 Y171.531 E4.42818
G1 X141.085 Y172.328 E4.49522
G1 X140.41 Y172.738 E4.532
G1 X139.964 Y172.962 E4.55524
G1 X138.84 Y173.48 E4.61287
G1 X137.856 Y173.855 E4.6619
G1 X136.695 Y174.21 E4.71843
G1 X135.792 Y174.428 E4.76169
G1 X134.895 Y174.589 E4.80412
G1 X133.975 Y174.699 E4.84727
G1 X132.75 Y174.771 E4.90441
G1 X131.686 Y174.76 E4.95395
G1 X130.479 Y174.666 E5.01033
G1 X129.567 Y174.541 E5.05319
G1 X128.67 Y174.363 E5.09577
G1 X127.811 Y174.141 E5.13709
G1 X127.551 Y174.056 E5.14982
G1 X126.237 Y173.604 E5.21453
G1 X125.267 Y173.195 E5.26355
G1 X124.524 Y172.822 E5.30226
G1 X123.709 Y172.364 E5.34579
G1 X122.946 Y171.873 E5.38804
G1 X122.219 Y171.344 E5.4299
G1 X121.266 Y170.562 E5.48731
G1 X120.575 Y169.921 E5.5312
G1 X119.951 Y169.268 E5.57325
G1 X119.435 Y168.671 E5.61
G1 X118.869 Y167.944 E5.6529
G1 X118.349 Y167.187 E5.69566
G1 X117.73 Y166.163 E5.75138
G1 X117.356 Y165.467 E5.78817
G1 X117.193 Y165.099 E5.80691
G1 X116.611 Y163.686 E5.87807
G1 X116.347 Y162.941 E5.91487
G1 X116.241 Y162.547 E5.93387
G1 X115.951 Y161.347 E5.99136
G1 X115.787 Y160.432 E6.03464
G1 X115.68 Y159.528 E6.07703
G1 X115.626 Y158.605 E6.12008
G1 X115.627 Y157.388 E6.17675
G1 X115.668 Y156.599 E6.21354
G1 X115.719 Y156.199 E6.23232
G1 X115.952 Y154.696 E6.30314
G1 X116.184 Y153.666 E6.3523
G1 X116.442 Y152.799 E6.39442
G1 X116.809 Y151.815 E6.44332
G1 X117.435 Y150.428 E6.51418
G1 X117.928 Y149.506 E6.56287
G1 X118.405 Y148.742 E6.60481
G1 X118.87 Y148.077 E6.64259
G1 X119.447 Y147.337 E6.68628
G1 X120.06 Y146.64 E6.72951
G1 X120.907 Y145.786 E6.78551
G1 X121.597 Y145.168 E6.82865
G0 F6000 X121.846 Y145.482
G1 F1200 X122.567 Y144.91 E6.8715
G1 X123.187 Y144.468 E6.90696
G1 X123.968 Y143.97 E6.95009
G1 X124.735 Y143.542 E6.99099
G1 X125.831 Y143.014 E7.04763
G1 X126.76 Y142.642 E7.09423
G1 X127.913 Y142.268 E7.15067
G1 X128.88 Y142.025 E7.1971
G1 X130.081 Y141.808 E7.25393
G1 X131.106 Y141.696 E7.30194
G1 X132.352 Y141.647 E7.36001
G1 X133.209 Y141.663 E7.39992
G1 X134.083 Y141.73 E7.44073
G1 X134.84 Y141.827 E7.47627
G1 X135.754 Y141.993 E7.51953
G1 X135.998 Y141.557 E7.54279
G1 X136.495 Y140.782 E7.58566
G1 X137.006 Y140.08 E7.62609
G1 X137.783 Y139.134 E7.6831
G1 X138.394 Y138.476 E7.72491
G1 X139.043 Y137.857 E7.76667
G1 X139.597 Y137.378 E7.80077
G1 X140.33 Y136.806 E7.84407
G1 X141.054 Y136.308 E7.88498
G1 X142.076 Y135.69 E7.9406
G1 X143.081 Y135.182 E7.99303
G1 X144.493 Y134.599 E8.06417
G1 X145.577 Y134.246 E8.11725
G1 X146.78 Y133.955 E8.17488
G1 X147.658 Y133.798 E8.21641
G1 X148.562 Y133.692 E8.2588
G1 X149.43 Y133.642 E8.29928
G1 X150.644 Y133.643 E8.35581
G1 X151.77 Y133.73 E8.4084
G1 X153.275 Y133.963 E8.47931
G1 X154.254 Y134.183 E8.52603
G1 X155.121 Y134.441 E8.56816
G1 X156.056 Y134.79 E8.61463
G1 X157.451 Y135.42 E8.6859
G1 X158.345 Y135.9 E8.73315
G1 X159.113 Y136.383 E8.7754
G1 X159.72 Y136.809 E8.80993
G1 X160.448 Y137.376 E8.85289
G1 X161.109 Y137.957 E8.89387
G1 X161.963 Y138.803 E8.94985
G1 X162.554 Y139.464 E8.99113
G1 X163.131 Y140.192 E9.03439
G1 X163.56 Y140.792 E9.06873
G1 X164.045 Y141.548 E9.11056
G1 X164.482 Y142.329 E9.15223
G1 X165.018 Y143.44 E9.20967
G1 X165.394 Y144.379 E9.25677
G1 X165.768 Y145.536 E9.31339
G1 X166.009 Y146.496 E9.35948
G1 X166.226 Y147.697 E9.41631
G1 X166.338 Y148.716 E9.46404
G1 X166.388 Y149.96 E9.52201
G1 X166.371 Y150.834 E9.56272
G1 X166.302 Y151.716 E9.60391
G1 X166.206 Y152.463 E9.63898
G1 X166.042 Y153.365 E9.68167
G1 X165.835 Y154.214 E9.72236
G1 X165.478 Y155.376 E9.77897
G1 X165.174 Y156.192 E9.81951
G1 X164.804 Y157.03 E9.86217
G1 X164.396 Y157.821 E9.90361
G1 X163.775 Y158.866 E9.96022
G1 X163.128 Y159.787 E10.01263
G1 X162.169 Y160.953 E10.08292
G1 X161.898 Y161.264 E10.10213
G1 X161.387 Y161.77 E10.13562
G1 X160.496 Y162.57 E10.19138
G1 X159.6 Y163.259 E10.24401
G1 X158.313 Y164.1 E10.3156
G1 X157.302 Y164.653 E10.36925
G1 X156.191 Y165.153 E10.42598
G1 X155.256 Y165.5 E10.47242
G1 X154.085 Y165.847 E10.52929
G1 X153.109 Y166.066 E10.57587
G1 X151.907 Y166.251 E10.6325
G1 X151.032 Y166.333 E10.67342
G1 X150.12 Y166.364 E10.71591
G1 X149.473 Y166.357 E10.74604
G1 X148.838 Y166.323 E10.77565
G1 X148.091 Y166.245 E10.81063
G1 X146.914 Y166.061 E10.8661
G1 X146.647 Y166.001 E10.87884
G1 X146.483 Y166.3 E10.89472
G1 X145.645 Y167.584 E10.96611
G1 X144.961 Y168.477 E11.01849
G1 X144.155 Y169.377 E11.07475
G1 X143.534 Y169.992 E11.11545
G1 X142.861 Y170.585 E11.15721
G1 X142.063 Y171.197 E11.20404
G1 X140.86 Y171.997 E11.27131
G1 X140.202 Y172.396 E11.30715
G1 X139.796 Y172.599 E11.32828
G1 X138.672 Y173.117 E11.38591
G1 X137.739 Y173.473 E11.43241
G1 X136.578 Y173.828 E11.48894
G1 X135.721 Y174.035 E11.53
G1 X134.824 Y174.196 E11.57243
G1 X133.951 Y174.299 E11.61336
G1 X132.726 Y174.371 E11.6705
G1 X131.717 Y174.362 E11.71749
G1 X130.51 Y174.268 E11.77386
G1 X129.645 Y174.148 E11.81452
G1 X128.748 Y173.97 E11.85711
G1 X127.933 Y173.76 E11.8963
G1 X127.681 Y173.678 E11.90864
G1 X126.367 Y173.226 E11.97334
G1 X125.447 Y172.838 E12.01983
G1 X124.698 Y172.462 E12.05886
G1 X123.926 Y172.028 E12.1001
G1 X123.163 Y171.537 E12.14235
G1 X122.473 Y171.035 E12.18208
G1 X121.52 Y170.253 E12.23948
G1 X120.864 Y169.644 E12.28116
G1 X120.24 Y168.991 E12.32322
G1 X119.751 Y168.425 E12.35805
G1 X119.185 Y167.698 E12.40095
G1 X118.691 Y166.98 E12.44153
G1 X118.072 Y165.956 E12.49725
G1 X117.563 Y164.946 E12.54991
G1 X116.981 Y163.533 E12.62107
G1 X116.63 Y162.453 E12.67395
G1 X116.34 Y161.253 E12.73143
G1 X116.184 Y160.385 E12.7725
G1 X116.077 Y159.481 E12.81489
G1 X116.026 Y158.605 E12.85575
G1 X116.027 Y157.388 E12.91242
G1 X116.114 Y156.26 E12.9651
G1 X116.347 Y154.757 E13.03592
G1 X116.567 Y153.78 E13.08255
G1 X116.825 Y152.913 E13.12467
G1 X117.173 Y151.98 E13.17104
G1 X117.799 Y150.593 E13.2419
G1 X118.267 Y149.718 E13.2881
G1 X118.744 Y148.954 E13.33004
G1 X119.185 Y148.323 E13.36589
G1 X119.762 Y147.583 E13.40958
G1 X120.344 Y146.922 E13.45059
G1 X121.191 Y146.068 E13.5066
G1 X121.846 Y145.482 E13.54752
G0 F6000 X122.094 Y145.795
G1 F1200 X122.815 Y145.223 E13.59038
G1 X123.402 Y144.805 E13.62393
G1 X124.183 Y144.307 E13.66706
G1 X124.909 Y143.903 E13.70575
G1 X126.005 Y143.375 E13.7624
G1 X126.883 Y143.023 E13.80645
G1 X128.036 Y142.649 E13.86289
G1 X128.951 Y142.419 E13.90682
G1 X130.152 Y142.202 E13.96365
G1 X131.122 Y142.095 E14.00909
G1 X132.368 Y142.046 E14.06715
G1 X133.178 Y142.061 E14.10488
G1 X134.052 Y142.128 E14.14569
G1 X134.769 Y142.221 E14.17936
G1 X135.677 Y142.386 E14.22233
G1 X135.954 Y142.453 E14.2356
G1 X136.335 Y141.773 E14.2719
G1 X136.832 Y140.998 E14.31477
G1 X137.315 Y140.334 E14.353
G1 X138.092 Y139.388 E14.41001
G1 X138.67 Y138.766 E14.44954
G1 X139.319 Y138.147 E14.4913
G1 X139.844 Y137.693 E14.52362
G1 X140.577 Y137.121 E14.56692
G1 X141.261 Y136.65 E14.60559
G1 X142.283 Y136.032 E14.6612
G1 X143.234 Y135.552 E14.7108
G1 X144.646 Y134.969 E14.78194
G1 X145.671 Y134.635 E14.83214
G1 X146.874 Y134.344 E14.88977
G1 X147.705 Y134.196 E14.92907
G1 X148.609 Y134.09 E14.97145
G1 X149.43 Y134.042 E15.00975
G1 X150.644 Y134.043 E15.06628
G1 X151.709 Y134.125 E15.11601
G1 X153.214 Y134.358 E15.18693
G1 X154.14 Y134.567 E15.23113
G1 X155.007 Y134.825 E15.27325
G1 X155.891 Y135.154 E15.31717
G1 X157.286 Y135.784 E15.38845
G1 X158.132 Y136.238 E15.43315
G1 X158.9 Y136.721 E15.4754
G1 X159.474 Y137.124 E15.50806
G1 X160.202 Y137.691 E15.55103
G1 X160.827 Y138.241 E15.58979
G1 X161.681 Y139.087 E15.64577
G1 X162.241 Y139.712 E15.68484
G1 X162.818 Y140.44 E15.7281
G1 X163.224 Y141.008 E15.76061
G1 X163.709 Y141.764 E15.80243
G1 X164.122 Y142.502 E15.84181
G1 X164.658 Y143.613 E15.89925
G1 X165.014 Y144.502 E15.94384
G1 X165.388 Y145.659 E16.00046
G1 X165.615 Y146.567 E16.04404
G1 X165.832 Y147.768 E16.10087
G1 X165.938 Y148.732 E16.14603
G1 X165.988 Y149.976 E16.204
G1 X165.973 Y150.803 E16.24252
G1 X165.904 Y151.685 E16.28371
G1 X165.812 Y152.391 E16.31686
G1 X165.648 Y153.293 E16.35955
G1 X165.452 Y154.097 E16.39809
G1 X165.095 Y155.259 E16.45469
G1 X164.808 Y156.03 E16.493
G1 X164.438 Y156.868 E16.53565
G1 X164.052 Y157.617 E16.57489
G1 X163.431 Y158.662 E16.63149
G1 X162.819 Y159.533 E16.68106
G1 X161.86 Y160.699 E16.75136
G1 X161.603 Y160.994 E16.76958
G1 X161.12 Y161.473 E16.80125
G1 X160.229 Y162.273 E16.85701
G1 X159.381 Y162.924 E16.90679
G1 X158.094 Y163.765 E16.97838
G1 X157.138 Y164.288 E17.02912
G1 X156.027 Y164.788 E17.08585
G1 X155.143 Y165.117 E17.12977
G1 X153.972 Y165.464 E17.18664
G1 X153.048 Y165.671 E17.23073
G1 X151.846 Y165.856 E17.28736
G1 X151.019 Y165.933 E17.32604
G1 X150.107 Y165.964 E17.36853
G1 X149.495 Y165.958 E17.39703
G1 X148.86 Y165.924 E17.42664
G1 X148.153 Y165.85 E17.45974
G1 X146.976 Y165.666 E17.51521
G1 X146.442 Y165.546 E17.5407
G1 X146.148 Y166.082 E17.56916
G1 X145.31 Y167.366 E17.64056
G1 X144.663 Y168.21 E17.69008
G1 X143.857 Y169.11 E17.74633
G1 X143.27 Y169.692 E17.78483
G1 X142.597 Y170.285 E17.82659
G1 X141.842 Y170.864 E17.8709
G1 X140.635 Y171.666 E17.93837
G1 X139.995 Y172.053 E17.9732
G1 X139.629 Y172.235 E17.99223
G1 X138.505 Y172.753 E18.04986
G1 X137.622 Y173.09 E18.09387
G1 X136.461 Y173.445 E18.1504
G1 X135.651 Y173.641 E18.18921
G1 X134.754 Y173.802 E18.23164
G1 X133.928 Y173.9 E18.27038
G1 X132.703 Y173.972 E18.32752
G1 X131.748 Y173.963 E18.37199
G1 X130.541 Y173.869 E18.42836
G1 X129.722 Y173.756 E18.46686
G1 X128.825 Y173.578 E18.50944
G1 X128.055 Y173.379 E18.54647
G1 X127.811 Y173.299 E18.55843
G1 X126.497 Y172.847 E18.62313
G1 X125.627 Y172.481 E18.66708
G1 X124.873 Y172.102 E18.70638
G1 X124.142 Y171.691 E18.74543
G1 X123.379 Y171.2 E18.78768
G1 X122.727 Y170.725 E18.82524
G1 X121.774 Y169.943 E18.88264
G1 X121.153 Y169.368 E18.92205
G1 X120.529 Y168.715 E18.96411
G1 X120.067 Y168.179 E18.99706
G1 X119.501 Y167.452 E19.03996
G1 X119.033 Y166.773 E19.07836
G1 X118.414 Y165.749 E19.13408
G1 X117.933 Y164.794 E19.18387
G1 X117.351 Y163.381 E19.25502
G1 X117.019 Y162.359 E19.30506
G1 X116.729 Y161.159 E19.36255
G1 X116.582 Y160.338 E19.40138
G1 X116.475 Y159.434 E19.44377
G1 X116.426 Y158.605 E19.48244
G1 X116.427 Y157.388 E19.53911
G1 X116.51 Y156.322 E19.5889
G1 X116.743 Y154.819 E19.65972
G1 X116.951 Y153.894 E19.70387
G1 X117.209 Y153.027 E19.74599
G1 X117.538 Y152.144 E19.78986
G1 X118.164 Y150.757 E19.86072
G1 X118.606 Y149.93 E19.90439
G1 X119.083 Y149.166 E19.94633
G1 X119.501 Y148.569 E19.98026
G1 X120.078 Y147.829 E20.02396
G1 X120.628 Y147.204 E20.06272
G1 X121.475 Y146.35 E20.11873
G1 X122.094 Y145.795 E20.15744
G0 F6000 X122.343 Y146.109
G1 F1200 X123.064 Y145.537 E20.2003
G1 X123.618 Y145.142 E20.23198
G1 X124.399 Y144.644 E20.27511
G1 X125.083 Y144.263 E20.31157
G1 X126.179 Y143.735 E20.36821
G1 X127.007 Y143.403 E20.40975
G1 X128.16 Y143.029 E20.4662
G1 X129.022 Y142.812 E20.50759
G1 X130.223 Y142.595 E20.56442
G1 X131.138 Y142.495 E20.60728
G1 X132.384 Y142.446 E20.66534
G1 X133.147 Y142.46 E20.70087
G1 X134.021 Y142.527 E20.74169
G1 X134.697 Y142.614 E20.77343
G1 X135.605 Y142.779 E20.8164
G1 X136.166 Y142.916 E20.84329
G1 X136.289 Y142.673 E20.85597
G1 X136.671 Y141.989 E20.89245
G1 X137.168 Y141.214 E20.93532
G1 X137.624 Y140.588 E20.97139
G1 X138.401 Y139.642 E21.02839
G1 X138.946 Y139.055 E21.06569
G1 X139.595 Y138.436 E21.10745
G1 X140.09 Y138.009 E21.13789
G1 X140.823 Y137.437 E21.18118
G1 X141.468 Y136.992 E21.21767
G1 X142.49 Y136.374 E21.27328
G1 X143.386 Y135.922 E21.32001
G1 X144.798 Y135.339 E21.39115
G1 X145.765 Y135.024 E21.4385
G1 X146.968 Y134.733 E21.49613
G1 X147.751 Y134.593 E21.53317
G1 X148.655 Y134.487 E21.57555
G1 X149.429 Y134.442 E21.61166
G1 X150.643 Y134.443 E21.66819
G1 X151.648 Y134.521 E21.71512
G1 X153.153 Y134.754 E21.78604
G1 X154.025 Y134.95 E21.82765
G1 X154.892 Y135.208 E21.86977
G1 X155.726 Y135.519 E21.91122
G1 X157.121 Y136.149 E21.9825
G1 X157.919 Y136.577 E22.02466
G1 X158.687 Y137.06 E22.06691
G1 X159.228 Y137.44 E22.09769
G1 X159.956 Y138.007 E22.14066
G1 X160.546 Y138.525 E22.17722
