;FLAVOR:Marlin
;TIME:1774
;Filament used: 1.15249m
;Layer height: 0.2
;MINX:114.552
;MINY:114.55
;MINZ:0.28
;MAXX:185.449
;MAXY:185.45
;MAXZ:2.08
;POSTPROCESSED
;Generated with Cura_SteamEngine 4.12.1
M140 S80
M105
M190 S80
M82 ;absolute extrusion mode
M201 X500.00 Y500.00 Z100.00 E5000.00 ;Setup machine max acceleration
M203 X500.00 Y500.00 Z10.00 E50.00 ;Setup machine max feedrate
M204 P500.00 R1000.00 T500.00 ;Setup Print/Retract/Travel acceleration
M205 X8.00 Y8.00 Z0.40 E5.00 ;Setup Jerk
M220 S100 ;Reset Feedrate
M221 S100 ;Reset Flowrate
M140 S80 ; set bed temp
M190 S80 ; wait for bed temp
G28; home all 
G29;
G92 E0 ;Reset Extruder
;G1 Z2.0 F3000 ;Move Z Axis up
G1 X10.1 Y20 Z0.28 F5000.0 ;Move to start position
M104 S240.0 ; wait for extruder printing temp
M109 S240.0 ; wait for extruder printing temp
G1 X10.1 Y200.0 Z0.28 F1500.0 E15 ;Draw the first line
G1 X10.4 Y200.0 Z0.28 F5000.0 ;Move to side a little
G1 X10.4 Y20 Z0.28 F1500.0 E30 ;Draw the second line
G92 E0 ;Reset Extruder
G1 Z2.0 F3000 ;Move Z Axis up
G92 E0
G92 E0
G1 F1800 E-3
;LAYER_COUNT:10
;LAYER:0
M107
G0 F6000 X119.359 Y119.438 Z0.28
;TYPE:SKIRT
G1 F1800 E0
G1 F1200 X119.573 Y119.227 E0.01399
G1 X119.739 Y119.067 E0.02473
G1 X119.951 Y118.87 E0.03821
G1 X120.163 Y118.681 E0.05143
G1 X120.383 Y118.491 E0.06497
G1 X120.569 Y118.335 E0.07627
G1 X120.791 Y118.155 E0.08958
G1 X120.994 Y117.996 E0.10158
G1 X121.237 Y117.812 E0.11578
G1 X121.469 Y117.642 E0.12917
G1 X121.713 Y117.471 E0.14304
G1 X121.913 Y117.336 E0.15428
G1 X122.154 Y117.178 E0.1677
G1 X122.376 Y117.038 E0.17992
G1 X122.634 Y116.881 E0.19398
G1 X122.851 Y116.754 E0.20569
G1 X123.104 Y116.611 E0.21922
G1 X123.356 Y116.474 E0.23258
G1 X123.611 Y116.342 E0.24595
G1 X123.833 Y116.232 E0.25749
G1 X124.107 Y116.101 E0.27163
G1 X124.369 Y115.981 E0.28505
G1 X124.632 Y115.867 E0.29839
G1 X124.851 Y115.777 E0.30942
G1 X125.13 Y115.666 E0.3234
G1 X125.373 Y115.573 E0.33552
G1 X125.651 Y115.473 E0.34927
G1 X125.896 Y115.39 E0.36132
G1 X126.175 Y115.3 E0.37497
G1 X126.442 Y115.219 E0.38796
G1 X126.717 Y115.141 E0.40127
G1 X126.978 Y115.072 E0.41384
G1 X127.262 Y115.002 E0.42746
G1 X127.514 Y114.944 E0.4395
G1 X127.807 Y114.882 E0.45345
G1 X128.029 Y114.838 E0.46399
G1 X128.288 Y114.791 E0.47624
G1 X128.544 Y114.749 E0.48832
G1 X128.863 Y114.702 E0.50334
G1 X129.144 Y114.666 E0.51653
G1 X129.443 Y114.633 E0.53054
G1 X129.726 Y114.607 E0.54377
G1 X130.011 Y114.586 E0.55708
G1 X130.272 Y114.571 E0.56925
G1 X130.572 Y114.559 E0.58323
G1 X130.804 Y114.553 E0.59404
G1 X131.095 Y114.55 E0.60759
G1 X131.389 Y114.553 E0.62128
G1 X131.68 Y114.561 E0.63483
G1 X131.935 Y114.572 E0.64672
G1 X132.234 Y114.59 E0.66067
G1 X132.454 Y114.607 E0.67094
G1 X132.747 Y114.633 E0.68464
G1 X133.052 Y114.666 E0.69892
G1 X133.34 Y114.703 E0.71244
G1 X133.58 Y114.737 E0.72373
G1 X133.867 Y114.783 E0.73727
G1 X134.153 Y114.834 E0.75079
G1 X134.445 Y114.892 E0.76466
G1 X134.932 Y115 E0.78788
G1 X135.254 Y115.08 E0.80333
G1 X135.745 Y115.215 E0.82704
G1 X136.021 Y115.298 E0.84046
G1 X136.297 Y115.387 E0.85397
G1 X136.575 Y115.482 E0.86765
G1 X136.826 Y115.573 E0.88008
G1 X137.102 Y115.678 E0.89383
G1 X137.32 Y115.764 E0.90474
G1 X137.597 Y115.879 E0.91871
G1 X137.828 Y115.979 E0.93043
G1 X138.097 Y116.101 E0.94418
G1 X138.374 Y116.234 E0.95849
G1 X138.629 Y116.362 E0.97178
G1 X138.839 Y116.471 E0.98279
G1 X139.098 Y116.611 E0.9965
G1 X139.334 Y116.744 E1.00912
G1 X139.595 Y116.897 E1.0232
G1 X139.815 Y117.031 E1.0352
G1 X140.062 Y117.187 E1.0488
G1 X140.275 Y117.326 E1.06065
G1 X140.551 Y117.514 E1.0762
G1 X140.813 Y117.336 E1.09094
G1 X141.054 Y117.178 E1.10436
G1 X141.276 Y117.038 E1.11658
G1 X141.534 Y116.881 E1.13065
G1 X141.751 Y116.754 E1.14236
G1 X142.004 Y116.611 E1.15589
G1 X142.256 Y116.474 E1.16924
G1 X142.511 Y116.342 E1.18261
G1 X142.733 Y116.232 E1.19415
G1 X143.007 Y116.101 E1.20829
G1 X143.269 Y115.981 E1.22171
G1 X143.532 Y115.867 E1.23506
G1 X143.751 Y115.777 E1.24608
G1 X144.03 Y115.666 E1.26007
G1 X144.273 Y115.573 E1.27218
G1 X144.551 Y115.473 E1.28594
G1 X144.796 Y115.39 E1.29798
G1 X145.075 Y115.3 E1.31163
G1 X145.342 Y115.219 E1.32463
G1 X145.617 Y115.141 E1.33794
G1 X145.878 Y115.072 E1.35051
G1 X146.162 Y115.002 E1.36413
G1 X146.414 Y114.944 E1.37617
G1 X146.707 Y114.882 E1.39011
G1 X146.929 Y114.838 E1.40065
G1 X147.188 Y114.791 E1.41291
G1 X147.444 Y114.749 E1.42499
G1 X147.763 Y114.702 E1.44
G1 X148.044 Y114.666 E1.45319
G1 X148.343 Y114.633 E1.4672
G1 X148.626 Y114.607 E1.48043
G1 X148.911 Y114.586 E1.49374
G1 X149.172 Y114.571 E1.50591
G1 X149.472 Y114.559 E1.51989
G1 X149.704 Y114.553 E1.5307
G1 X149.995 Y114.55 E1.54425
G1 X150.289 Y114.553 E1.55794
G1 X150.58 Y114.561 E1.5715
G1 X150.835 Y114.572 E1.58338
G1 X151.134 Y114.59 E1.59733
G1 X151.354 Y114.607 E1.60761
G1 X151.647 Y114.633 E1.6213
G1 X151.952 Y114.666 E1.63559
G1 X152.24 Y114.703 E1.64911
G1 X152.48 Y114.737 E1.6604
G1 X152.767 Y114.783 E1.67393
G1 X153.053 Y114.834 E1.68746
G1 X153.345 Y114.892 E1.70132
G1 X153.832 Y115 E1.72455
G1 X154.154 Y115.08 E1.74
G1 X154.645 Y115.215 E1.76371
G1 X154.921 Y115.298 E1.77713
G1 X155.197 Y115.387 E1.79063
G1 X155.475 Y115.482 E1.80431
G1 X155.726 Y115.573 E1.81674
G1 X156.002 Y115.678 E1.83049
G1 X156.22 Y115.764 E1.84141
G1 X156.497 Y115.879 E1.85537
G1 X156.728 Y115.979 E1.86709
G1 X156.997 Y116.101 E1.88085
G1 X157.274 Y116.234 E1.89515
G1 X157.529 Y116.362 E1.90844
G1 X157.739 Y116.471 E1.91946
G1 X157.998 Y116.611 E1.93317
G1 X158.234 Y116.744 E1.94578
G1 X158.495 Y116.897 E1.95987
G1 X158.715 Y117.031 E1.97186
G1 X158.962 Y117.187 E1.98547
G1 X159.175 Y117.326 E1.99731
G1 X159.451 Y117.514 E2.01286
G1 X159.713 Y117.336 E2.02761
G1 X159.954 Y117.178 E2.04103
G1 X160.176 Y117.038 E2.05325
G1 X160.434 Y116.881 E2.06731
G1 X160.651 Y116.754 E2.07902
G1 X160.904 Y116.611 E2.09255
G1 X161.156 Y116.474 E2.10591
G1 X161.411 Y116.342 E2.11928
G1 X161.633 Y116.232 E2.13081
G1 X161.907 Y116.101 E2.14496
G1 X162.169 Y115.981 E2.15838
G1 X162.432 Y115.867 E2.17172
G1 X162.651 Y115.777 E2.18275
G1 X162.93 Y115.666 E2.19673
G1 X163.173 Y115.573 E2.20884
G1 X163.451 Y115.473 E2.2226
G1 X163.696 Y115.39 E2.23465
G1 X163.975 Y115.3 E2.2483
G1 X164.242 Y115.219 E2.26129
G1 X164.517 Y115.141 E2.2746
G1 X164.778 Y115.072 E2.28717
G1 X165.062 Y115.002 E2.30079
G1 X165.314 Y114.944 E2.31283
G1 X165.607 Y114.882 E2.32678
G1 X165.829 Y114.838 E2.33732
G1 X166.088 Y114.791 E2.34957
G1 X166.344 Y114.749 E2.36165
G1 X166.663 Y114.702 E2.37667
G1 X166.944 Y114.666 E2.38986
G1 X167.243 Y114.633 E2.40387
G1 X167.526 Y114.607 E2.4171
G1 X167.811 Y114.586 E2.43041
G1 X168.072 Y114.571 E2.44258
G1 X168.372 Y114.559 E2.45656
G1 X168.604 Y114.553 E2.46737
G1 X168.895 Y114.55 E2.48092
G1 X169.189 Y114.553 E2.49461
G1 X169.48 Y114.561 E2.50816
G1 X169.735 Y114.572 E2.52005
G1 X170.034 Y114.59 E2.534
G1 X170.254 Y114.607 E2.54427
G1 X170.547 Y114.633 E2.55797
G1 X170.852 Y114.666 E2.57225
G1 X171.14 Y114.703 E2.58577
G1 X171.38 Y114.737 E2.59706
G1 X171.667 Y114.783 E2.61059
G1 X171.953 Y114.834 E2.62412
G1 X172.245 Y114.892 E2.63798
G1 X172.732 Y115 E2.66121
G1 X173.054 Y115.08 E2.67666
G1 X173.545 Y115.215 E2.70037
G1 X173.821 Y115.298 E2.71379
G1 X174.097 Y115.387 E2.7273
G1 X174.375 Y115.482 E2.74098
G1 X174.626 Y115.573 E2.75341
G1 X174.902 Y115.678 E2.76716
G1 X175.12 Y115.764 E2.77807
G1 X175.397 Y115.879 E2.79204
G1 X175.628 Y115.979 E2.80376
G1 X175.897 Y116.101 E2.81751
G1 X176.174 Y116.234 E2.83182
G1 X176.429 Y116.362 E2.8451
G1 X176.639 Y116.471 E2.85612
G1 X176.898 Y116.611 E2.86983
G1 X177.134 Y116.744 E2.88245
G1 X177.395 Y116.897 E2.89653
G1 X177.615 Y117.031 E2.90853
G1 X177.862 Y117.187 E2.92213
G1 X178.075 Y117.326 E2.93397
G1 X178.308 Y117.484 E2.94708
G1 X178.732 Y117.786 E2.97132
G1 X179.018 Y118.002 E2.98801
G1 X179.4 Y118.307 E3.01077
G1 X179.623 Y118.493 E3.02429
G1 X179.836 Y118.678 E3.03743
G1 X180.06 Y118.879 E3.05144
G1 X180.258 Y119.063 E3.06403
G1 X180.468 Y119.265 E3.0776
G1 X180.641 Y119.436 E3.08893
G1 X180.852 Y119.652 E3.10299
G1 X181.053 Y119.866 E3.11666
G1 X181.245 Y120.078 E3.12998
G1 X181.401 Y120.255 E3.14096
G1 X181.591 Y120.478 E3.1546
G1 X181.755 Y120.677 E3.16661
G1 X181.943 Y120.913 E3.18066
G1 X182.105 Y121.123 E3.19301
G1 X182.278 Y121.356 E3.20652
G1 X182.395 Y121.522 E3.21598
G1 X182.559 Y121.755 E3.22925
G1 X182.755 Y122.047 E3.24562
G1 X182.914 Y122.296 E3.25938
G1 X183.031 Y122.485 E3.26973
G1 X183.185 Y122.742 E3.28368
G1 X183.335 Y123.005 E3.29778
G1 X183.473 Y123.257 E3.31116
G1 X183.576 Y123.451 E3.32139
G1 X183.71 Y123.713 E3.33509
G1 X183.843 Y123.984 E3.34915
G1 X183.964 Y124.245 E3.36254
G1 X184.059 Y124.46 E3.37349
G1 X184.177 Y124.736 E3.38746
G1 X184.28 Y124.988 E3.40014
G1 X184.386 Y125.262 E3.41382
G1 X184.556 Y125.733 E3.43714
G1 X184.663 Y126.053 E3.45285
G1 X184.749 Y126.332 E3.46644
G1 X184.805 Y126.528 E3.47593
G1 X184.885 Y126.813 E3.48972
G1 X184.956 Y127.086 E3.50285
G1 X185.024 Y127.367 E3.51632
G1 X185.083 Y127.631 E3.52891
G1 X185.142 Y127.918 E3.54255
G1 X185.194 Y128.198 E3.55582
G1 X185.243 Y128.49 E3.5696
G1 X185.28 Y128.734 E3.58109
G1 X185.319 Y129.022 E3.59463
G1 X185.353 Y129.311 E3.60818
G1 X185.382 Y129.608 E3.62207
G1 X185.4 Y129.82 E3.63198
G1 X185.421 Y130.119 E3.64594
G1 X185.436 Y130.417 E3.65983
G1 X185.445 Y130.7 E3.67301
G1 X185.449 Y130.948 E3.68456
G1 X185.449 Y131.246 E3.69844
G1 X185.445 Y131.485 E3.70957
G1 X185.436 Y131.778 E3.72322
G1 X185.421 Y132.087 E3.73763
G1 X185.4 Y132.385 E3.75154
G1 X185.382 Y132.6 E3.76158
G1 X185.354 Y132.885 E3.77492
G1 X185.323 Y133.151 E3.78739
G1 X185.284 Y133.444 E3.80115
G1 X185.239 Y133.736 E3.81491
G1 X185.189 Y134.027 E3.82866
G1 X185.143 Y134.275 E3.8404
G1 X185.082 Y134.572 E3.85452
G1 X185.022 Y134.837 E3.86717
G1 X184.955 Y135.114 E3.88044
G1 X184.891 Y135.362 E3.89237
G1 X184.814 Y135.64 E3.9058
G1 X184.807 Y135.638 E3.90614
G1 X184.738 Y135.903 E3.91889
G1 X184.65 Y136.183 E3.93256
G1 X184.574 Y136.411 E3.94375
G1 X184.475 Y136.695 E3.95775
G1 X184.382 Y136.95 E3.97039
G1 X184.278 Y137.218 E3.98378
G1 X184.178 Y137.462 E3.99606
G1 X184.063 Y137.731 E4.00968
G1 X183.965 Y137.952 E4.02094
G1 X183.84 Y138.221 E4.03475
G1 X183.727 Y138.454 E4.04681
G1 X183.594 Y138.717 E4.06053
G1 X183.455 Y138.978 E4.0743
G1 X183.312 Y139.236 E4.08803
G1 X183.19 Y139.449 E4.09946
G1 X183.038 Y139.704 E4.11329
G1 X182.902 Y139.924 E4.12533
G1 X182.746 Y140.167 E4.13878
G1 X182.586 Y140.407 E4.15221
G1 X182.486 Y140.551 E4.16037
G1 X182.559 Y140.655 E4.16629
G1 X182.755 Y140.947 E4.18266
G1 X182.914 Y141.196 E4.19642
G1 X183.031 Y141.385 E4.20677
G1 X183.185 Y141.642 E4.22072
G1 X183.335 Y141.905 E4.23482
G1 X183.473 Y142.157 E4.2482
G1 X183.576 Y142.351 E4.25843
G1 X183.71 Y142.613 E4.27213
G1 X183.843 Y142.884 E4.28619
G1 X183.964 Y143.145 E4.29958
G1 X184.059 Y143.36 E4.31053
G1 X184.177 Y143.636 E4.3245
G1 X184.28 Y143.888 E4.33718
G1 X184.386 Y144.162 E4.35086
G1 X184.556 Y144.633 E4.37418
G1 X184.663 Y144.953 E4.38989
G1 X184.749 Y145.232 E4.40348
G1 X184.805 Y145.428 E4.41297
G1 X184.885 Y145.713 E4.42676
G1 X184.956 Y145.986 E4.43989
G1 X185.024 Y146.267 E4.45335
G1 X185.083 Y146.531 E4.46595
G1 X185.142 Y146.818 E4.47959
G1 X185.194 Y147.098 E4.49286
G1 X185.243 Y147.39 E4.50664
G1 X185.28 Y147.634 E4.51813
G1 X185.319 Y147.922 E4.53167
G1 X185.353 Y148.211 E4.54522
G1 X185.382 Y148.508 E4.55911
G1 X185.4 Y148.72 E4.56902
G1 X185.421 Y149.019 E4.58298
G1 X185.436 Y149.317 E4.59687
G1 X185.445 Y149.6 E4.61005
G1 X185.449 Y149.848 E4.6216
G1 X185.449 Y150.146 E4.63548
G1 X185.445 Y150.385 E4.64661
G1 X185.436 Y150.678 E4.66026
G1 X185.421 Y150.987 E4.67466
G1 X185.4 Y151.285 E4.68858
G1 X185.382 Y151.5 E4.69862
G1 X185.354 Y151.785 E4.71196
G1 X185.323 Y152.051 E4.72443
G1 X185.284 Y152.344 E4.73819
G1 X185.239 Y152.636 E4.75195
G1 X185.189 Y152.927 E4.7657
G1 X185.143 Y153.175 E4.77744
G1 X185.082 Y153.472 E4.79156
G1 X185.022 Y153.737 E4.80421
G1 X184.955 Y154.014 E4.81748
G1 X184.891 Y154.262 E4.82941
G1 X184.814 Y154.54 E4.84284
G1 X184.807 Y154.538 E4.84318
G1 X184.738 Y154.803 E4.85593
G1 X184.65 Y155.083 E4.8696
G1 X184.574 Y155.311 E4.88079
G1 X184.475 Y155.595 E4.89479
G1 X184.382 Y155.85 E4.90743
G1 X184.278 Y156.118 E4.92082
G1 X184.178 Y156.362 E4.9331
G1 X184.063 Y156.631 E4.94672
G1 X183.965 Y156.852 E4.95797
G1 X183.84 Y157.121 E4.97179
G1 X183.727 Y157.354 E4.98385
G1 X183.594 Y157.617 E4.99757
G1 X183.455 Y157.878 E5.01134
G1 X183.312 Y158.136 E5.02507
G1 X183.19 Y158.349 E5.0365
G1 X183.038 Y158.604 E5.05033
G1 X182.902 Y158.824 E5.06237
G1 X182.746 Y159.067 E5.07582
G1 X182.586 Y159.307 E5.08925
G1 X182.486 Y159.451 E5.09741
G1 X182.559 Y159.555 E5.10333
G1 X182.755 Y159.847 E5.1197
G1 X182.914 Y160.096 E5.13346
G1 X183.031 Y160.285 E5.14381
G1 X183.185 Y160.542 E5.15776
G1 X183.335 Y160.805 E5.17186
G1 X183.473 Y161.057 E5.18524
G1 X183.576 Y161.251 E5.19547
G1 X183.71 Y161.513 E5.20917
G1 X183.843 Y161.784 E5.22322
G1 X183.964 Y162.045 E5.23662
G1 X184.059 Y162.26 E5.24757
G1 X184.177 Y162.536 E5.26154
G1 X184.28 Y162.788 E5.27422
G1 X184.386 Y163.062 E5.2879
G1 X184.556 Y163.533 E5.31122
G1 X184.663 Y163.853 E5.32693
G1 X184.749 Y164.132 E5.34052
G1 X184.805 Y164.328 E5.35001
G1 X184.885 Y164.613 E5.3638
G1 X184.956 Y164.886 E5.37693
G1 X185.024 Y165.167 E5.39039
G1 X185.083 Y165.431 E5.40299
G1 X185.142 Y165.718 E5.41663
G1 X185.194 Y165.998 E5.42989
G1 X185.243 Y166.29 E5.44368
G1 X185.28 Y166.534 E5.45517
G1 X185.319 Y166.822 E5.46871
G1 X185.353 Y167.111 E5.48226
G1 X185.382 Y167.408 E5.49615
G1 X185.4 Y167.62 E5.50606
G1 X185.421 Y167.919 E5.52002
G1 X185.436 Y168.217 E5.53391
G1 X185.445 Y168.5 E5.54709
G1 X185.449 Y168.748 E5.55864
G1 X185.449 Y169.046 E5.57252
G1 X185.445 Y169.285 E5.58365
G1 X185.436 Y169.578 E5.5973
G1 X185.421 Y169.887 E5.6117
G1 X185.4 Y170.185 E5.62562
G1 X185.382 Y170.4 E5.63566
G1 X185.354 Y170.685 E5.649
G1 X185.323 Y170.951 E5.66147
G1 X185.284 Y171.244 E5.67523
G1 X185.239 Y171.536 E5.68899
G1 X185.189 Y171.827 E5.70274
G1 X185.143 Y172.075 E5.71448
G1 X185.082 Y172.372 E5.7286
G1 X185.022 Y172.637 E5.74125
G1 X184.955 Y172.914 E5.75452
G1 X184.891 Y173.162 E5.76645
G1 X184.814 Y173.44 E5.77988
G1 X184.807 Y173.438 E5.78022
G1 X184.738 Y173.703 E5.79297
G1 X184.65 Y173.983 E5.80664
G1 X184.574 Y174.211 E5.81783
G1 X184.475 Y174.495 E5.83183
G1 X184.382 Y174.75 E5.84447
G1 X184.278 Y175.018 E5.85786
G1 X184.178 Y175.262 E5.87014
G1 X184.063 Y175.531 E5.88376
G1 X183.965 Y175.752 E5.89501
G1 X183.84 Y176.021 E5.90883
G1 X183.727 Y176.254 E5.92088
G1 X183.594 Y176.517 E5.93461
G1 X183.455 Y176.778 E5.94838
G1 X183.312 Y177.036 E5.96211
G1 X183.19 Y177.249 E5.97354
G1 X183.038 Y177.504 E5.98737
G1 X182.902 Y177.724 E5.99941
G1 X182.746 Y177.967 E6.01286
G1 X182.586 Y178.207 E6.02629
G1 X182.417 Y178.45 E6.04007
G1 X182.285 Y178.633 E6.05058
G1 X182.112 Y178.867 E6.06413
G1 X181.943 Y179.087 E6.07704
G1 X181.756 Y179.322 E6.09103
G1 X181.579 Y179.537 E6.104
G1 X181.389 Y179.759 E6.1176
G1 X181.244 Y179.923 E6.1278
G1 X181.052 Y180.135 E6.14111
G1 X180.869 Y180.318 E6.15316
G1 X180.874 Y180.323 E6.15349
G1 X180.671 Y180.533 E6.16709
G1 X180.473 Y180.731 E6.18013
G1 X180.258 Y180.938 E6.19403
G1 X180.054 Y181.127 E6.20698
G1 X179.832 Y181.326 E6.22086
G1 X179.627 Y181.503 E6.23347
G1 X179.408 Y181.686 E6.24676
G1 X179.205 Y181.851 E6.25894
G1 X178.973 Y182.032 E6.27265
G1 X178.784 Y182.174 E6.28365
G1 X178.541 Y182.352 E6.29768
G1 X178.277 Y182.538 E6.31272
G1 X178.037 Y182.699 E6.32617
G1 X177.857 Y182.816 E6.33617
G1 X177.61 Y182.972 E6.34977
G1 X177.362 Y183.122 E6.36327
G1 X176.922 Y183.375 E6.3869
G1 X176.671 Y183.512 E6.40022
G1 X176.401 Y183.652 E6.41438
G1 X176.137 Y183.783 E6.4281
G1 X175.902 Y183.895 E6.44023
G1 X175.634 Y184.017 E6.45394
G1 X175.393 Y184.122 E6.46618
G1 X175.116 Y184.237 E6.48014
G1 X174.898 Y184.323 E6.49106
G1 X174.622 Y184.428 E6.50481
G1 X174.371 Y184.519 E6.51724
G1 X174.093 Y184.614 E6.53092
G1 X173.825 Y184.7 E6.54402
G1 X173.55 Y184.783 E6.5574
G1 X173.288 Y184.857 E6.57008
