;FLAVOR:Marlin
;TIME:1823
;Filament used: 0.901384m
;Layer height: 0.2
;MINX:133.52
;MINY:128.852
;MINZ:0.28
;MAXX:166.48
;MAXY:171.148
;MAXZ:18.08
;POSTPROCESSED
;Generated with Cura_SteamEngine 4.12.1
M140 S80
M105
M190 S80
M82 ;absolute extrusion mode
M201 X500.00 Y500.00 Z100.00 E5000.00 ;Setup machine max acceleration
M203 X500.00 Y500.00 Z10.00 E50.00 ;Setup machine max feedrate
M204 P500.00 R1000.00 T500.00 ;Setup Print/Retract/Travel acceleration
M205 X8.00 Y8.00 Z0.40 E5.00 ;Setup Jerk
M220 S100 ;Reset Feedrate
M221 S100 ;Reset Flowrate
M140 S80 ; set bed temp
M190 S80 ; wait for bed temp
G28; home all 
G29;
G92 E0 ;Reset Extruder
;G1 Z2.0 F3000 ;Move Z Axis up
G1 X10.1 Y20 Z0.28 F5000.0 ;Move to start position
M104 S240.0 ; wait for extruder printing temp
M109 S240.0 ; wait for extruder printing temp
G1 X10.1 Y200.0 Z0.28 F1500.0 E15 ;Draw the first line
G1 X10.4 Y200.0 Z0.28 F5000.0 ;Move to side a little
G1 X10.4 Y20 Z0.28 F1500.0 E30 ;Draw the second line
G92 E0 ;Reset Extruder
G1 Z2.0 F3000 ;Move Z Axis up
G92 E0
G92 E0
G1 F1800 E-3
;LAYER_COUNT:90
;LAYER:0
M107
G0 F6000 X135.805 Y131.254 Z0.28
;TYPE:SKIRT
G1 F1800 E0
G1 F1200 X135.922 Y131.137 E0.0077
G1 X136.508 Y130.607 E0.0445
G1 X137.144 Y130.14 E0.08124
G1 X137.824 Y129.739 E0.118
G1 X138.542 Y129.409 E0.15479
G1 X139.289 Y129.154 E0.19155
G1 X140.058 Y128.975 E0.22831
G1 X140.842 Y128.875 E0.26511
G1 X141.437 Y128.852 E0.29284
G1 X158.563 Y128.852 E1.0903
G1 X159.352 Y128.892 E1.12708
G1 X160.132 Y129.011 E1.16382
G1 X160.897 Y129.209 E1.20062
G1 X161.637 Y129.483 E1.23736
G1 X162.346 Y129.831 E1.27414
G1 X163.017 Y130.249 E1.31095
G1 X163.641 Y130.732 E1.34769
G1 X164.078 Y131.137 E1.37544
G1 X164.195 Y131.254 E1.38314
G1 X164.725 Y131.84 E1.41993
G1 X165.192 Y132.476 E1.45668
G1 X165.593 Y133.156 E1.49343
G1 X165.923 Y133.874 E1.53023
G1 X166.178 Y134.621 E1.56698
G1 X166.357 Y135.39 E1.60375
G1 X166.457 Y136.174 E1.64055
G1 X166.48 Y136.769 E1.66828
G1 X166.48 Y163.231 E2.90046
G1 X166.44 Y164.02 E2.93725
G1 X166.321 Y164.8 E2.97399
G1 X166.123 Y165.565 E3.01078
G1 X165.849 Y166.305 E3.04753
G1 X165.501 Y167.014 E3.0843
G1 X165.083 Y167.685 E3.12111
G1 X164.6 Y168.309 E3.15786
G1 X164.195 Y168.746 E3.1856
G1 X164.078 Y168.863 E3.1933
G1 X163.492 Y169.393 E3.2301
G1 X162.856 Y169.86 E3.26684
G1 X162.176 Y170.261 E3.3036
G1 X161.458 Y170.591 E3.34039
G1 X160.711 Y170.846 E3.37715
G1 X159.942 Y171.025 E3.41391
G1 X159.158 Y171.125 E3.45071
G1 X158.563 Y171.148 E3.47844
G1 X141.437 Y171.148 E4.2759
G1 X140.648 Y171.108 E4.31268
G1 X139.868 Y170.989 E4.34942
G1 X139.103 Y170.791 E4.38622
G1 X138.363 Y170.517 E4.42296
G1 X137.654 Y170.169 E4.45974
G1 X136.983 Y169.751 E4.49655
G1 X136.359 Y169.268 E4.53329
G1 X135.922 Y168.863 E4.56104
G1 X135.805 Y168.746 E4.56874
G1 X135.275 Y168.16 E4.60553
G1 X134.808 Y167.524 E4.64228
G1 X134.407 Y166.844 E4.67903
G1 X134.077 Y166.126 E4.71583
G1 X133.822 Y165.379 E4.75258
G1 X133.643 Y164.61 E4.78935
G1 X133.543 Y163.826 E4.82615
G1 X133.52 Y163.231 E4.85388
G1 X133.52 Y136.769 E6.08606
G1 X133.56 Y135.98 E6.12285
G1 X133.679 Y135.2 E6.15959
G1 X133.877 Y134.435 E6.19638
G1 X134.151 Y133.695 E6.23312
G1 X134.499 Y132.986 E6.2699
G1 X134.917 Y132.315 E6.30671
G1 X135.4 Y131.691 E6.34346
G1 X135.805 Y131.254 E6.3712
G0 F6000 X136.087 Y131.536
G1 F1200 X136.204 Y131.419 E6.3789
G1 X136.776 Y130.905 E6.41471
G1 X137.398 Y130.452 E6.45054
G1 X138.063 Y130.066 E6.48635
G1 X138.765 Y129.751 E6.52217
G1 X139.496 Y129.511 E6.558
G1 X140.247 Y129.348 E6.59378
G1 X141.012 Y129.264 E6.62962
G1 X141.437 Y129.252 E6.64942
G1 X158.563 Y129.252 E7.44688
G1 X159.331 Y129.292 E7.48269
G1 X160.091 Y129.411 E7.51851
G1 X160.834 Y129.609 E7.55431
G1 X161.553 Y129.883 E7.59014
G1 X162.239 Y130.23 E7.62594
G1 X162.886 Y130.646 E7.66175
G1 X163.486 Y131.127 E7.69756
G1 X163.796 Y131.419 E7.71739
G1 X163.913 Y131.536 E7.7251
G1 X164.427 Y132.108 E7.7609
G1 X164.88 Y132.73 E7.79673
G1 X165.266 Y133.395 E7.83254
G1 X165.581 Y134.097 E7.86837
G1 X165.821 Y134.828 E7.90419
G1 X165.984 Y135.579 E7.93998
G1 X166.068 Y136.344 E7.97581
G1 X166.08 Y136.769 E7.99561
G1 X166.08 Y163.231 E9.22779
G1 X166.04 Y163.999 E9.2636
G1 X165.921 Y164.759 E9.29942
G1 X165.723 Y165.502 E9.33522
G1 X165.449 Y166.221 E9.37105
G1 X165.102 Y166.907 E9.40685
G1 X164.686 Y167.554 E9.44267
G1 X164.205 Y168.154 E9.47847
G1 X163.913 Y168.464 E9.49831
G1 X163.796 Y168.581 E9.50601
G1 X163.224 Y169.095 E9.54182
G1 X162.602 Y169.548 E9.57765
G1 X161.937 Y169.934 E9.61345
G1 X161.235 Y170.249 E9.64928
G1 X160.504 Y170.489 E9.68511
G1 X159.753 Y170.652 E9.72089
G1 X158.988 Y170.736 E9.75673
G1 X158.563 Y170.748 E9.77652
G1 X141.437 Y170.748 E10.57398
G1 X140.669 Y170.708 E10.60979
G1 X139.909 Y170.589 E10.64561
G1 X139.166 Y170.391 E10.68142
G1 X138.447 Y170.117 E10.71724
G1 X137.761 Y169.77 E10.75304
G1 X137.114 Y169.354 E10.78886
G1 X136.514 Y168.873 E10.82467
G1 X136.204 Y168.581 E10.8445
G1 X136.087 Y168.464 E10.8522
G1 X135.573 Y167.892 E10.88801
G1 X135.12 Y167.27 E10.92384
G1 X134.734 Y166.605 E10.95964
G1 X134.419 Y165.903 E10.99547
G1 X134.179 Y165.172 E11.0313
G1 X134.016 Y164.421 E11.06708
G1 X133.932 Y163.656 E11.10292
G1 X133.92 Y163.231 E11.12271
G1 X133.92 Y136.769 E12.3549
G1 X133.96 Y136.001 E12.39071
G1 X134.079 Y135.241 E12.42653
G1 X134.277 Y134.498 E12.46233
G1 X134.551 Y133.779 E12.49816
G1 X134.898 Y133.093 E12.53396
G1 X135.314 Y132.446 E12.56977
G1 X135.795 Y131.846 E12.60558
G1 X136.087 Y131.536 E12.62541
G0 F6000 X136.37 Y131.819
G1 F1200 X136.487 Y131.702 E12.63312
G1 X137.044 Y131.202 E12.66797
G1 X137.65 Y130.765 E12.70276
G1 X138.3 Y130.394 E12.73761
G1 X138.986 Y130.095 E12.77245
G1 X139.7 Y129.871 E12.8073
G1 X140.433 Y129.724 E12.84211
G1 X141.437 Y129.652 E12.88898
G1 X158.563 Y129.652 E13.68644
G1 X159.31 Y129.692 E13.72127
G1 X160.048 Y129.811 E13.75608
G1 X160.77 Y130.009 E13.79094
G1 X161.466 Y130.282 E13.82575
G1 X162.129 Y130.629 E13.8606
G1 X162.752 Y131.044 E13.89545
G1 X163.513 Y131.702 E13.9423
G1 X163.63 Y131.819 E13.95
G1 X164.13 Y132.376 E13.98486
G1 X164.567 Y132.982 E14.01965
G1 X164.938 Y133.632 E14.0545
G1 X165.237 Y134.318 E14.08934
G1 X165.461 Y135.032 E14.12419
G1 X165.608 Y135.765 E14.159
G1 X165.68 Y136.769 E14.20587
G1 X165.68 Y163.231 E15.43805
G1 X165.64 Y163.978 E15.47288
G1 X165.521 Y164.716 E15.50769
G1 X165.323 Y165.438 E15.54255
G1 X165.05 Y166.134 E15.57736
G1 X164.703 Y166.797 E15.61221
G1 X164.288 Y167.42 E15.64707
G1 X163.63 Y168.181 E15.69391
G1 X163.513 Y168.298 E15.70161
G1 X162.956 Y168.798 E15.73647
G1 X162.35 Y169.235 E15.77126
G1 X161.7 Y169.606 E15.80611
G1 X161.014 Y169.905 E15.84095
G1 X160.3 Y170.129 E15.8758
G1 X159.567 Y170.276 E15.91061
G1 X158.563 Y170.348 E15.95748
G1 X141.437 Y170.348 E16.75494
G1 X140.69 Y170.308 E16.78977
G1 X139.952 Y170.189 E16.82458
G1 X139.23 Y169.991 E16.85944
G1 X138.534 Y169.718 E16.89425
G1 X137.871 Y169.371 E16.9291
G1 X137.248 Y168.956 E16.96395
G1 X136.487 Y168.298 E17.0108
G1 X136.37 Y168.181 E17.0185
G1 X135.87 Y167.624 E17.05336
G1 X135.433 Y167.018 E17.08815
G1 X135.062 Y166.368 E17.12299
G1 X134.763 Y165.682 E17.15784
G1 X134.539 Y164.968 E17.19268
G1 X134.392 Y164.235 E17.2275
G1 X134.32 Y163.231 E17.27437
G1 X134.32 Y136.769 E18.50655
G1 X134.36 Y136.022 E18.54138
G1 X134.479 Y135.284 E18.57619
G1 X134.677 Y134.562 E18.61105
G1 X134.95 Y133.866 E18.64586
G1 X135.297 Y133.203 E18.68071
G1 X135.712 Y132.58 E18.71556
G1 X136.37 Y131.819 E18.76241
G0 F6000 X136.653 Y132.102
G1 F1200 X136.77 Y131.985 E18.77011
G1 X137.311 Y131.501 E18.80391
G1 X137.902 Y131.078 E18.83776
G1 X138.536 Y130.724 E18.87157
G1 X139.205 Y130.441 E18.90539
G1 X139.901 Y130.233 E18.93922
G1 X140.616 Y130.103 E18.97306
G1 X141.437 Y130.052 E19.01136
G1 X158.563 Y130.052 E19.80882
G1 X159.288 Y130.092 E19.84263
G1 X160.005 Y130.211 E19.87647
G1 X160.704 Y130.409 E19.9103
G1 X161.377 Y130.682 E19.94412
G1 X162.016 Y131.027 E19.97793
G1 X162.613 Y131.441 E20.01176
G1 X163.23 Y131.985 E20.05006
G1 X163.347 Y132.102 E20.05777
G1 X163.831 Y132.643 E20.09157
G1 X164.254 Y133.234 E20.12541
G1 X164.608 Y133.868 E20.15922
G1 X164.891 Y134.537 E20.19305
G1 X165.099 Y135.233 E20.22687
G1 X165.229 Y135.948 E20.26071
G1 X165.28 Y136.769 E20.29901
G1 X165.28 Y163.231 E21.5312
G1 X165.24 Y163.956 E21.56501
G1 X165.121 Y164.673 E21.59885
G1 X164.923 Y165.372 E21.63268
G1 X164.65 Y166.045 E21.6665
G1 X164.305 Y166.684 E21.70031
G1 X163.891 Y167.281 E21.73414
G1 X163.347 Y167.898 E21.77244
G1 X163.23 Y168.015 E21.78015
G1 X162.689 Y168.499 E21.81395
G1 X162.098 Y168.922 E21.84779
G1 X161.464 Y169.276 E21.8816
G1 X160.795 Y169.559 E21.91543
G1 X160.099 Y169.767 E21.94925
G1 X159.384 Y169.897 E21.98309
G1 X158.563 Y169.948 E22.02139
G1 X141.437 Y169.948 E22.81885
G1 X140.712 Y169.908 E22.85266
G1 X139.995 Y169.789 E22.8865
G1 X139.296 Y169.591 E22.92033
G1 X138.623 Y169.318 E22.95415
G1 X137.984 Y168.973 E22.98797
G1 X137.387 Y168.559 E23.02179
G1 X136.77 Y168.015 E23.0601
G1 X136.653 Y167.898 E23.0678
G1 X136.169 Y167.357 E23.1016
G1 X135.746 Y166.766 E23.13545
G1 X135.392 Y166.132 E23.16926
G1 X135.109 Y165.463 E23.20308
G1 X134.901 Y164.767 E23.23691
G1 X134.771 Y164.052 E23.27075
G1 X134.72 Y163.231 E23.30905
G1 X134.72 Y136.769 E24.54123
G1 X134.76 Y136.044 E24.57504
G1 X134.879 Y135.327 E24.60888
G1 X135.077 Y134.628 E24.64271
G1 X135.35 Y133.955 E24.67653
G1 X135.695 Y133.316 E24.71034
G1 X136.109 Y132.719 E24.74417
G1 X136.653 Y132.102 E24.78248
G0 F6000 X136.936 Y132.385
G1 F1200 X137.053 Y132.268 E24.79018
G1 X137.578 Y131.799 E24.82296
G1 X138.153 Y131.393 E24.85574
G1 X138.771 Y131.055 E24.88854
G1 X139.422 Y130.788 E24.9213
G1 X140.1 Y130.598 E24.95409
G1 X140.795 Y130.485 E24.98687
G1 X141.437 Y130.452 E25.01681
G1 X158.563 Y130.452 E25.81427
G1 X159.266 Y130.492 E25.84705
G1 X159.96 Y130.611 E25.87984
G1 X160.635 Y130.809 E25.9126
G1 X161.284 Y131.081 E25.94536
G1 X161.898 Y131.426 E25.97816
G1 X162.469 Y131.837 E26.01092
G1 X162.947 Y132.268 E26.04089
G1 X163.064 Y132.385 E26.04859
G1 X163.533 Y132.91 E26.08137
G1 X163.939 Y133.485 E26.11415
G1 X164.277 Y134.103 E26.14695
G1 X164.544 Y134.754 E26.17971
G1 X164.734 Y135.432 E26.2125
G1 X164.847 Y136.127 E26.24528
G1 X164.88 Y136.769 E26.27522
G1 X164.88 Y163.231 E27.5074
G1 X164.84 Y163.934 E27.54019
G1 X164.721 Y164.628 E27.57297
G1 X164.523 Y165.303 E27.60573
G1 X164.251 Y165.952 E27.6385
G1 X163.906 Y166.566 E27.67129
G1 X163.495 Y167.137 E27.70405
G1 X163.064 Y167.615 E27.73402
G1 X162.947 Y167.732 E27.74172
G1 X162.422 Y168.201 E27.7745
G1 X161.847 Y168.607 E27.80728
G1 X161.229 Y168.945 E27.84008
G1 X160.578 Y169.212 E27.87284
G1 X159.9 Y169.402 E27.90563
G1 X159.205 Y169.515 E27.93842
G1 X158.563 Y169.548 E27.96835
G1 X141.437 Y169.548 E28.76581
G1 X140.734 Y169.508 E28.7986
G1 X140.04 Y169.389 E28.83138
G1 X139.365 Y169.191 E28.86414
G1 X138.716 Y168.919 E28.89691
G1 X138.102 Y168.574 E28.9297
G1 X137.531 Y168.163 E28.96246
G1 X137.053 Y167.732 E28.99243
G1 X136.936 Y167.615 E29.00014
G1 X136.467 Y167.09 E29.03292
G1 X136.061 Y166.515 E29.06569
G1 X135.723 Y165.897 E29.09849
G1 X135.456 Y165.246 E29.13125
G1 X135.266 Y164.568 E29.16404
G1 X135.153 Y163.873 E29.19683
G1 X135.12 Y163.231 E29.22676
G1 X135.12 Y136.769 E30.45894
G1 X135.16 Y136.066 E30.49173
G1 X135.279 Y135.372 E30.52452
G1 X135.477 Y134.697 E30.55727
G1 X135.749 Y134.048 E30.59004
G1 X136.094 Y133.434 E30.62284
G1 X136.505 Y132.863 E30.65559
G1 X136.936 Y132.385 E30.68556
G0 F6000 X137.219 Y132.668
G1 F1200 X137.336 Y132.551 E30.69327
G1 X137.845 Y132.098 E30.725
G1 X138.403 Y131.709 E30.75667
G1 X139.003 Y131.387 E30.78838
G1 X139.637 Y131.138 E30.82009
G1 X140.296 Y130.965 E30.85182
G1 X140.97 Y130.871 E30.88351
G1 X141.437 Y130.852 E30.90527
G1 X158.563 Y130.852 E31.70273
G1 X159.243 Y130.892 E31.73445
G1 X159.913 Y131.011 E31.76613
G1 X160.565 Y131.208 E31.79785
G1 X161.189 Y131.48 E31.82955
G1 X161.777 Y131.824 E31.86127
G1 X162.321 Y132.234 E31.89299
G1 X162.664 Y132.551 E31.91474
G1 X162.781 Y132.668 E31.92244
G1 X163.234 Y133.177 E31.95417
G1 X163.623 Y133.735 E31.98584
G1 X163.945 Y134.335 E32.01755
G1 X164.194 Y134.969 E32.04927
G1 X164.367 Y135.628 E32.08099
G1 X164.461 Y136.302 E32.11268
G1 X164.48 Y136.769 E32.13444
G1 X164.48 Y163.231 E33.36662
G1 X164.44 Y163.911 E33.39834
G1 X164.321 Y164.581 E33.43003
G1 X164.124 Y165.233 E33.46175
G1 X163.852 Y165.857 E33.49344
G1 X163.508 Y166.445 E33.52516
G1 X163.098 Y166.989 E33.55688
G1 X162.781 Y167.332 E33.57863
G1 X162.664 Y167.449 E33.58633
G1 X162.155 Y167.902 E33.61806
G1 X161.597 Y168.291 E33.64974
G1 X160.997 Y168.613 E33.68144
G1 X160.363 Y168.862 E33.71316
G1 X159.704 Y169.035 E33.74489
G1 X159.03 Y169.129 E33.77657
G1 X158.563 Y169.148 E33.79834
G1 X141.437 Y169.148 E34.5958
G1 X140.757 Y169.108 E34.62751
G1 X140.087 Y168.989 E34.6592
G1 X139.435 Y168.792 E34.69092
G1 X138.811 Y168.52 E34.72261
G1 X138.223 Y168.176 E34.75433
G1 X137.679 Y167.766 E34.78605
G1 X137.336 Y167.449 E34.8078
G1 X137.219 Y167.332 E34.81551
G1 X136.766 Y166.823 E34.84723
G1 X136.377 Y166.265 E34.87891
G1 X136.055 Y165.665 E34.91062
G1 X135.806 Y165.031 E34.94233
G1 X135.633 Y164.372 E34.97406
G1 X135.539 Y163.698 E35.00575
G1 X135.52 Y163.231 E35.02751
G1 X135.52 Y136.769 E36.25969
G1 X135.56 Y136.089 E36.29141
G1 X135.679 Y135.419 E36.3231
G1 X135.876 Y134.767 E36.35481
G1 X136.148 Y134.143 E36.38651
G1 X136.492 Y133.555 E36.41823
G1 X136.902 Y133.011 E36.44995
G1 X137.219 Y132.668 E36.4717
G0 F6000 X137.502 Y132.951
G1 F1200 X137.619 Y132.834 E36.4794
G1 X138.111 Y132.398 E36.51001
G1 X138.652 Y132.026 E36.54058
G1 X139.234 Y131.722 E36.57116
G1 X139.849 Y131.491 E36.60175
G1 X140.488 Y131.336 E36.63237
G1 X141.437 Y131.252 E36.67673
G1 X158.563 Y131.252 E37.47419
G1 X159.219 Y131.292 E37.50479
G1 X159.865 Y131.411 E37.53538
G1 X160.492 Y131.608 E37.56598
G1 X161.09 Y131.88 E37.59657
G1 X161.651 Y132.222 E37.62716
G1 X162.381 Y132.834 E37.67152
G1 X162.498 Y132.951 E37.67923
G1 X162.934 Y133.443 E37.70984
G1 X163.306 Y133.984 E37.74041
G1 X163.61 Y134.566 E37.77098
G1 X163.841 Y135.181 E37.80157
G1 X163.996 Y135.82 E37.83219
G1 X164.08 Y136.769 E37.87655
G1 X164.08 Y163.231 E39.10873
G1 X164.04 Y163.887 E39.13934
G1 X163.921 Y164.533 E39.16992
G1 X163.724 Y165.16 E39.20053
G1 X163.452 Y165.758 E39.23112
G1 X163.11 Y166.319 E39.26171
G1 X162.498 Y167.049 E39.30607
G1 X162.381 Y167.166 E39.31377
G1 X161.889 Y167.602 E39.34438
G1 X161.348 Y167.974 E39.37496
G1 X160.766 Y168.278 E39.40553
G1 X160.151 Y168.509 E39.43612
G1 X159.512 Y168.664 E39.46674
G1 X158.563 Y168.748 E39.5111
G1 X141.437 Y168.748 E40.30856
G1 X140.781 Y168.708 E40.33916
G1 X140.135 Y168.589 E40.36975
G1 X139.508 Y168.392 E40.40035
G1 X138.91 Y168.12 E40.43094
G1 X138.349 Y167.778 E40.46153
G1 X137.619 Y167.166 E40.50589
G1 X137.502 Y167.049 E40.5136
G1 X137.066 Y166.557 E40.54421
G1 X136.694 Y166.016 E40.57478
G1 X136.39 Y165.434 E40.60535
G1 X136.159 Y164.819 E40.63594
G1 X136.004 Y164.18 E40.66656
G1 X135.92 Y163.231 E40.71092
G1 X135.92 Y136.769 E41.94311
G1 X135.96 Y136.113 E41.97371
G1 X136.079 Y135.467 E42.00429
G1 X136.276 Y134.84 E42.0349
G1 X136.548 Y134.242 E42.06549
G1 X136.89 Y133.681 E42.09608
G1 X137.502 Y132.951 E42.14044
G0 F6000 X137.784 Y133.233
G1 F1200 X137.901 Y133.116 E42.14814
G1 X138.376 Y132.699 E42.17758
G1 X138.899 Y132.344 E42.20701
G1 X139.463 Y132.058 E42.23645
G1 X140.058 Y131.846 E42.26587
G1 X140.676 Y131.71 E42.29533
G1 X141.437 Y131.652 E42.33087
G1 X158.563 Y131.652 E43.12833
G1 X159.194 Y131.692 E43.15777
G1 X159.815 Y131.811 E43.18721
G1 X160.415 Y132.008 E43.21662
G1 X160.987 Y132.279 E43.24609
G1 X161.519 Y132.619 E43.27549
G1 X162.099 Y133.116 E43.31106
G1 X162.216 Y133.233 E43.31876
G1 X162.633 Y133.708 E43.34819
G1 X162.988 Y134.231 E43.37763
G1 X163.274 Y134.795 E43.40707
G1 X163.486 Y135.39 E43.43648
G1 X163.622 Y136.008 E43.46595
G1 X163.68 Y136.769 E43.50149
G1 X163.68 Y163.231 E44.73367
G1 X163.64 Y163.862 E44.76311
G1 X163.521 Y164.483 E44.79255
G1 X163.324 Y165.083 E44.82196
