;FLAVOR:Marlin
;TIME:2541
;Filament used: 1.5953m
;Layer height: 0.2
;MINX:108.358
;MINY:113.243
;MINZ:0.28
;MAXX:188.169
;MAXY:188.648
;MAXZ:2.88
;POSTPROCESSED
;Generated with Cura_SteamEngine 4.12.1
M140 S80
M105
M190 S80
M82 ;absolute extrusion mode
M201 X500.00 Y500.00 Z100.00 E5000.00 ;Setup machine max acceleration
M203 X500.00 Y500.00 Z10.00 E50.00 ;Setup machine max feedrate
M204 P500.00 R1000.00 T500.00 ;Setup Print/Retract/Travel acceleration
M205 X8.00 Y8.00 Z0.40 E5.00 ;Setup Jerk
M220 S100 ;Reset Feedrate
M221 S100 ;Reset Flowrate
M140 S80 ; set bed temp
M190 S80 ; wait for bed temp
G28; home all 
G29;
G92 E0 ;Reset Extruder
;G1 Z2.0 F3000 ;Move Z Axis up
G1 X10.1 Y20 Z0.28 F5000.0 ;Move to start position
M104 S240.0 ; wait for extruder printing temp
M109 S240.0 ; wait for extruder printing temp
G1 X10.1 Y200.0 Z0.28 F1500.0 E15 ;Draw the first line
G1 X10.4 Y200.0 Z0.28 F5000.0 ;Move to side a little
G1 X10.4 Y20 Z0.28 F1500.0 E30 ;Draw the second line
G92 E0 ;Reset Extruder
G1 Z2.0 F3000 ;Move Z Axis up
G92 E0
G92 E0
G1 F1800 E-3
;LAYER_COUNT:14
;LAYER:0
M107
G0 F6000 X121.726 Y118.923 Z0.28
;TYPE:SKIRT
G1 F1800 E0
G1 F1200 X122.231 Y118.422 E0.03312
G1 X122.533 Y118.137 E0.05246
G1 X122.856 Y117.849 E0.07261
G1 X123.147 Y117.603 E0.09035
G1 X123.677 Y117.175 E0.12207
G1 X123.995 Y116.931 E0.14074
G1 X124.261 Y116.737 E0.15607
G1 X124.866 Y116.33 E0.19002
G1 X126.125 Y115.567 E0.25857
G1 X126.821 Y115.193 E0.29536
G1 X127.196 Y115.026 E0.31448
G1 X128.919 Y114.316 E0.40125
G1 X129.664 Y114.053 E0.43804
G1 X130.052 Y113.948 E0.45676
G1 X131.492 Y113.6 E0.52574
G1 X131.67 Y113.56 E0.53424
G1 X132.191 Y113.461 E0.55893
G1 X132.528 Y113.409 E0.57481
G1 X132.933 Y113.358 E0.59381
G1 X133.675 Y113.283 E0.62854
G1 X134.464 Y113.243 E0.66533
G1 X135.952 Y113.244 E0.73462
G1 X136.741 Y113.285 E0.7714
G1 X137.137 Y113.335 E0.78999
G1 X138.977 Y113.619 E0.87668
G1 X140.008 Y113.851 E0.92589
G1 X141.082 Y114.17 E0.97806
G1 X141.712 Y114.387 E1.00909
G1 X142.336 Y114.632 E1.0403
G1 X142.939 Y114.898 E1.07099
G1 X143.74 Y115.293 E1.11258
G1 X143.817 Y115.329 E1.11654
G1 X144.708 Y115.812 E1.16373
G1 X145.643 Y116.4 E1.21516
G1 X146.286 Y116.851 E1.25173
G1 X147.175 Y117.544 E1.30422
G1 X147.877 Y118.162 E1.34777
G1 X148.934 Y119.212 E1.41714
G1 X149.464 Y119.795 E1.45383
G1 X149.906 Y120.333 E1.48625
G1 X150.13 Y120.619 E1.50317
G1 X150.377 Y120.95 E1.5224
G1 X150.7 Y121.417 E1.54884
G1 X151.301 Y122.358 E1.60083
G1 X151.751 Y123.164 E1.64381
G1 X152.401 Y124.51 E1.71342
G1 X152.797 Y125.498 E1.76298
G1 X153.255 Y126.912 E1.83219
G1 X153.354 Y127.306 E1.8511
G1 X153.912 Y126.435 E1.89927
G1 X154.456 Y125.688 E1.9423
G1 X155.402 Y124.538 E2.01164
G1 X155.922 Y123.967 E2.0476
G1 X156.425 Y123.466 E2.08066
G1 X156.712 Y123.193 E2.0991
G1 X156.981 Y122.951 E2.11595
G1 X157.199 Y122.762 E2.12939
G1 X157.361 Y122.628 E2.13918
G1 X157.884 Y122.206 E2.17047
G1 X158.173 Y121.984 E2.18744
G1 X158.502 Y121.743 E2.20643
G1 X159.085 Y121.354 E2.23906
G1 X160.361 Y120.585 E2.30843
G1 X161.416 Y120.054 E2.36343
G1 X163.125 Y119.35 E2.4495
G1 X163.87 Y119.087 E2.48628
G1 X164.257 Y118.982 E2.50496
G1 X165.697 Y118.634 E2.57394
G1 X165.875 Y118.594 E2.58243
G1 X166.392 Y118.496 E2.60694
G1 X166.728 Y118.444 E2.62277
G1 X167.138 Y118.391 E2.64202
G1 X167.881 Y118.316 E2.67679
G1 X168.669 Y118.277 E2.71353
G1 X170.157 Y118.278 E2.78282
G1 X170.946 Y118.319 E2.81961
G1 X171.342 Y118.369 E2.83819
G1 X173.181 Y118.653 E2.92484
G1 X174.212 Y118.885 E2.97405
G1 X175.286 Y119.204 E3.02622
G1 X175.917 Y119.421 E3.05729
G1 X176.556 Y119.672 E3.08925
G1 X177.167 Y119.943 E3.12038
G1 X177.932 Y120.322 E3.16013
G1 X178.021 Y120.363 E3.16469
G1 X178.911 Y120.845 E3.21182
G1 X179.848 Y121.434 E3.26336
G1 X180.495 Y121.888 E3.30016
G1 X181.382 Y122.58 E3.35255
G1 X182.073 Y123.188 E3.3954
G1 X183.123 Y124.228 E3.46422
G1 X183.661 Y124.818 E3.5014
G1 X184.117 Y125.373 E3.53485
G1 X184.358 Y125.683 E3.55313
G1 X184.595 Y126.003 E3.57167
G1 X184.898 Y126.443 E3.59655
G1 X185.508 Y127.397 E3.64928
G1 X185.964 Y128.214 E3.69284
G1 X186.608 Y129.551 E3.76195
G1 X187.001 Y130.531 E3.81111
G1 X187.459 Y131.944 E3.88028
G1 X187.714 Y132.961 E3.9291
G1 X187.981 Y134.437 E3.99894
G1 X188.076 Y135.143 E4.03211
G1 X188.104 Y135.462 E4.04702
G1 X188.12 Y135.679 E4.05716
G1 X188.147 Y136.131 E4.07824
G1 X188.158 Y136.383 E4.08999
G1 X188.167 Y136.712 E4.10531
G1 X188.169 Y137.021 E4.1197
G1 X188.164 Y137.429 E4.1387
G1 X188.152 Y137.786 E4.15533
G1 X188.113 Y138.457 E4.18663
G1 X188.078 Y138.872 E4.20602
G1 X188.032 Y139.283 E4.22528
G1 X187.959 Y139.784 E4.24886
G1 X187.764 Y140.878 E4.3006
G1 X187.637 Y141.462 E4.32843
G1 X187.532 Y141.868 E4.34796
G1 X187.442 Y142.187 E4.36339
G1 X187.249 Y142.821 E4.39425
G1 X187.119 Y143.21 E4.41335
G1 X186.98 Y143.593 E4.43232
G1 X186.784 Y144.081 E4.45681
G1 X186.329 Y145.112 E4.50928
G1 X185.9 Y145.944 E4.55287
G1 X185.142 Y147.221 E4.62202
G1 X184.792 Y147.76 E4.65194
G1 X184.578 Y148.061 E4.66914
G1 X184.331 Y148.389 E4.68826
G1 X183.87 Y148.97 E4.7228
G1 X183.526 Y149.374 E4.7475
G1 X183.015 Y149.935 E4.78284
G1 X182.451 Y150.495 E4.81985
G1 X181.346 Y151.484 E4.8889
G1 X180.411 Y152.201 E4.94376
G1 X178.942 Y153.161 E5.02548
G1 X178.619 Y153.362 E5.04319
G1 X177.79 Y153.798 E5.08681
G1 X176.435 Y154.409 E5.15602
G1 X175.451 Y154.775 E5.20491
G1 X174.031 Y155.197 E5.27389
G1 X173.958 Y155.213 E5.27737
G1 X174.248 Y155.439 E5.29449
G1 X174.961 Y156.068 E5.33876
G1 X176.019 Y157.121 E5.40827
G1 X176.535 Y157.687 E5.44393
G1 X176.977 Y158.223 E5.47628
G1 X177.228 Y158.544 E5.49525
G1 X177.479 Y158.883 E5.51489
G1 X177.775 Y159.313 E5.5392
G1 X178.369 Y160.239 E5.59043
G1 X178.83 Y161.062 E5.63435
G1 X179.483 Y162.416 E5.70435
G1 X179.877 Y163.4 E5.75371
G1 X180.335 Y164.814 E5.82292
G1 X180.591 Y165.833 E5.87184
G1 X180.857 Y167.307 E5.94158
G1 X180.949 Y167.984 E5.9734
G1 X180.978 Y168.302 E5.98827
G1 X180.996 Y168.547 E5.99971
G1 X181.023 Y169.001 E6.02088
G1 X181.035 Y169.274 E6.03361
G1 X181.043 Y169.603 E6.04893
G1 X181.044 Y169.889 E6.06225
G1 X181.039 Y170.296 E6.0812
G1 X181.027 Y170.652 E6.09779
G1 X180.988 Y171.324 E6.12913
G1 X180.955 Y171.717 E6.1475
G1 X180.911 Y172.121 E6.16642
G1 X180.836 Y172.644 E6.19102
G1 X180.64 Y173.744 E6.24305
G1 X180.513 Y174.329 E6.27092
G1 X180.408 Y174.735 E6.29045
G1 X180.318 Y175.054 E6.30588
G1 X180.125 Y175.688 E6.33674
G1 X179.995 Y176.077 E6.35584
G1 X179.856 Y176.46 E6.37481
G1 X179.657 Y176.954 E6.39961
G1 X179.201 Y177.985 E6.45211
G1 X178.781 Y178.802 E6.49488
G1 X178.029 Y180.073 E6.56365
G1 X177.659 Y180.641 E6.59521
G1 X177.44 Y180.947 E6.61274
G1 X177.206 Y181.257 E6.63082
G1 X176.744 Y181.839 E6.66542
G1 X176.401 Y182.241 E6.69003
G1 X175.89 Y182.802 E6.72536
G1 X175.326 Y183.362 E6.76237
G1 X174.221 Y184.351 E6.83142
G1 X173.286 Y185.069 E6.88632
G1 X171.823 Y186.025 E6.9677
G1 X171.493 Y186.229 E6.98576
G1 X170.661 Y186.668 E7.02957
G1 X169.316 Y187.275 E7.09828
G1 X168.327 Y187.642 E7.1474
G1 X166.892 Y188.068 E7.2171
G1 X165.873 Y188.298 E7.26574
G1 X164.48 Y188.515 E7.33139
G1 X164.066 Y188.568 E7.35082
G1 X163.73 Y188.598 E7.36653
G1 X163.386 Y188.621 E7.38258
G1 X162.995 Y188.637 E7.40081
G1 X162.359 Y188.648 E7.43043
G1 X161.817 Y188.648 E7.45566
G1 X161.415 Y188.634 E7.47439
G1 X161.117 Y188.618 E7.48829
G1 X160.734 Y188.59 E7.50617
G1 X160.249 Y188.54 E7.52887
G1 X159.266 Y188.406 E7.57507
G1 X158.784 Y188.324 E7.59784
G1 X158.336 Y188.234 E7.61911
G1 X157.65 Y188.064 E7.65202
G1 X156.23 Y187.642 E7.721
G1 X155.244 Y187.275 E7.76999
G1 X153.879 Y186.659 E7.83972
G1 X153.261 Y186.346 E7.87198
G1 X152.911 Y186.149 E7.89068
G1 X152.697 Y186.024 E7.90222
G1 X152.408 Y185.849 E7.91796
G1 X152.074 Y185.635 E7.93643
G1 X151.51 Y185.253 E7.96815
G1 X151.2 Y185.032 E7.98587
G1 X150.935 Y184.833 E8.0013
G1 X150.323 Y184.341 E8.03787
G1 X149.218 Y183.352 E8.10692
G1 X148.562 Y182.69 E8.15032
G1 X147.821 Y181.847 E8.20258
G1 X147.186 Y181.02 E8.25113
G1 X146.196 Y179.533 E8.33431
G1 X145.958 Y179.152 E8.35523
G1 X145.572 Y178.417 E8.39389
G1 X144.946 Y177.056 E8.46365
G1 X144.898 Y176.954 E8.46889
G1 X144.679 Y176.407 E8.49633
G1 X144.516 Y175.945 E8.51914
G1 X144.39 Y175.566 E8.53774
G1 X144.259 Y175.129 E8.55898
G1 X144.062 Y174.396 E8.59433
G1 X143.968 Y174.008 E8.61292
G1 X143.9 Y173.691 E8.62801
G1 X143.857 Y173.475 E8.63827
G1 X143.785 Y173.086 E8.65669
G1 X143.733 Y172.769 E8.67165
G1 X143.677 Y172.377 E8.69009
G1 X143.613 Y171.74 E8.7199
G1 X143.524 Y170.252 E8.78931
G1 X143.514 Y169.537 E8.8226
G1 X143.527 Y169.13 E8.84157
G1 X143.544 Y168.812 E8.85639
G1 X143.592 Y168.153 E8.88716
G1 X143.634 Y167.729 E8.907
G1 X143.642 Y167.665 E8.91
G1 X143.484 Y167.61 E8.91779
G1 X142.858 Y167.364 E8.94911
G1 X142.257 Y167.098 E8.97972
G1 X141.454 Y166.702 E9.02141
G1 X141.245 Y166.948 E9.03644
G1 X140.734 Y167.509 E9.07177
G1 X140.17 Y168.069 E9.10878
G1 X139.065 Y169.058 E9.17783
G1 X138.13 Y169.775 E9.2327
G1 X136.661 Y170.735 E9.31441
G1 X136.338 Y170.936 E9.33213
G1 X135.511 Y171.371 E9.37564
G1 X134.159 Y171.981 E9.44471
G1 X133.171 Y172.348 E9.49378
G1 X131.736 Y172.774 E9.56348
G1 X130.717 Y173.004 E9.61213
G1 X129.324 Y173.221 E9.67777
G1 X128.91 Y173.274 E9.69721
G1 X128.574 Y173.304 E9.71292
G1 X128.23 Y173.327 E9.72897
G1 X127.851 Y173.343 E9.74663
G1 X127.213 Y173.355 E9.77635
G1 X126.639 Y173.355 E9.80307
G1 X126.238 Y173.34 E9.82176
G1 X125.961 Y173.324 E9.83468
G1 X125.578 Y173.296 E9.85256
G1 X125.104 Y173.247 E9.87475
G1 X124.118 Y173.114 E9.92108
G1 X123.601 Y173.026 E9.9455
G1 X123.165 Y172.937 E9.96622
G1 X122.511 Y172.774 E9.9976
G1 X121.082 Y172.351 E10.067
G1 X120.083 Y171.98 E10.11662
G1 X118.718 Y171.363 E10.18637
G1 X118.119 Y171.06 E10.21763
G1 X117.762 Y170.86 E10.23668
G1 X117.526 Y170.722 E10.24941
G1 X117.246 Y170.552 E10.26467
G1 X116.925 Y170.347 E10.2824
G1 X116.36 Y169.965 E10.31416
G1 X116.045 Y169.74 E10.33218
G1 X115.78 Y169.541 E10.34761
G1 X115.167 Y169.048 E10.38424
G1 X114.062 Y168.059 E10.4533
G1 X113.408 Y167.4 E10.49653
G1 X112.675 Y166.567 E10.5482
G1 X112.038 Y165.736 E10.59695
G1 X111.041 Y164.238 E10.68074
G1 X110.859 Y163.952 E10.69653
G1 X110.417 Y163.125 E10.74019
G1 X109.791 Y161.765 E10.8099
G1 X109.742 Y161.661 E10.81526
G1 X109.521 Y161.107 E10.84303
G1 X109.36 Y160.651 E10.86555
G1 X109.234 Y160.272 E10.88415
G1 X109.104 Y159.838 E10.90524
G1 X108.907 Y159.106 E10.94054
G1 X108.814 Y158.72 E10.95903
G1 X108.746 Y158.404 E10.97408
G1 X108.7 Y158.176 E10.98491
G1 X108.628 Y157.785 E11.00342
G1 X108.578 Y157.478 E11.01791
G1 X108.522 Y157.087 E11.0363
G1 X108.457 Y156.446 E11.0663
G1 X108.368 Y154.957 E11.13576
G1 X108.358 Y154.243 E11.16901
G1 X108.371 Y153.836 E11.18797
G1 X108.388 Y153.518 E11.2028
G1 X108.436 Y152.859 E11.23356
G1 X108.479 Y152.433 E11.2535
G1 X108.531 Y152.028 E11.27251
G1 X108.616 Y151.506 E11.29714
G1 X108.835 Y150.4 E11.34964
G1 X109.029 Y149.627 E11.38675
G1 X109.354 Y148.568 E11.43833
G1 X109.563 Y147.974 E11.46765
G1 X109.829 Y147.305 E11.50118
G1 X110.051 Y146.799 E11.52691
G1 X110.377 Y146.123 E11.56185
G1 X110.553 Y145.78 E11.5798
G1 X110.748 Y145.422 E11.59879
G1 X111.032 Y144.943 E11.62472
G1 X111.629 Y144.012 E11.67622
G1 X112.168 Y143.271 E11.71888
G1 X113.116 Y142.117 E11.78842
G1 X113.65 Y141.531 E11.82534
G1 X114.155 Y141.03 E11.85846
G1 X114.457 Y140.745 E11.8778
G1 X114.78 Y140.457 E11.89795
G1 X115.062 Y140.217 E11.91519
G1 X115.593 Y139.787 E11.94701
G1 X115.896 Y139.554 E11.96481
G1 X116.224 Y139.314 E11.98373
G1 X116.806 Y138.927 E12.01628
G1 X117.582 Y138.46 E12.05845
G1 X117.495 Y138.217 E12.07047
G1 X117.422 Y138.004 E12.08095
G1 X117.302 Y137.637 E12.09893
G1 X117.187 Y137.252 E12.11764
G1 X116.986 Y136.51 E12.15344
G1 X116.888 Y136.107 E12.17275
G1 X116.82 Y135.79 E12.18785
G1 X116.777 Y135.57 E12.19828
G1 X116.705 Y135.18 E12.21675
G1 X116.654 Y134.87 E12.23138
G1 X116.598 Y134.479 E12.24977
G1 X116.533 Y133.838 E12.27977
G1 X116.444 Y132.349 E12.34923
G1 X116.434 Y131.636 E12.38243
G1 X116.447 Y131.228 E12.40144
G1 X116.465 Y130.897 E12.41688
G1 X116.514 Y130.239 E12.4476
G1 X116.553 Y129.843 E12.46613
G1 X116.604 Y129.438 E12.48514
G1 X116.692 Y128.898 E12.51061
G1 X116.911 Y127.792 E12.56311
G1 X117.105 Y127.019 E12.60022
G1 X117.43 Y125.96 E12.65181
G1 X117.639 Y125.366 E12.68113
G1 X117.905 Y124.697 E12.71465
G1 X118.127 Y124.191 E12.74038
G1 X118.453 Y123.515 E12.77533
G1 X118.629 Y123.172 E12.79328
G1 X118.824 Y122.814 E12.81226
G1 X119.108 Y122.335 E12.83819
G1 X119.705 Y121.404 E12.88969
G1 X120.244 Y120.663 E12.93236
G1 X121.192 Y119.509 E13.0019
G1 X121.726 Y118.923 E13.03881
G0 F6000 X122.007 Y119.207
G1 F1200 X122.512 Y118.706 E13.07194
G1 X122.799 Y118.436 E13.09029
G1 X123.122 Y118.148 E13.11044
G1 X123.398 Y117.914 E13.12729
G1 X123.928 Y117.486 E13.15901
G1 X124.23 Y117.255 E13.17671
G1 X124.5 Y117.058 E13.19227
G1 X125.074 Y116.672 E13.22448
G1 X126.333 Y115.909 E13.29303
G1 X127.349 Y115.396 E13.34603
G1 X129.072 Y114.686 E13.43281
G1 X130.147 Y114.337 E13.48543
G1 X131.58 Y113.99 E13.55409
G1 X131.758 Y113.95 E13.56258
G1 X132.252 Y113.857 E13.58599
G1 X132.589 Y113.805 E13.60187
G1 X132.973 Y113.756 E13.6199
G1 X133.715 Y113.681 E13.65462
G1 X134.464 Y113.643 E13.68954
G1 X135.952 Y113.644 E13.75883
G1 X137.076 Y113.731 E13.81133
G1 X138.916 Y114.015 E13.89802
G1 X139.894 Y114.234 E13.94469
G1 X140.968 Y114.553 E13.99685
G1 X141.565 Y114.759 E14.02626
G1 X142.189 Y115.004 E14.05748
G1 X142.762 Y115.257 E14.08664
G1 X143.574 Y115.658 E14.12881
G1 X143.65 Y115.693 E14.13271
G1 X144.495 Y116.151 E14.17746
G1 X145.43 Y116.739 E14.2289
G1 X146.041 Y117.167 E14.26363
G1 X146.93 Y117.86 E14.31612
G1 X147.595 Y118.446 E14.35739
G1 X148.652 Y119.496 E14.42677
G1 X149.155 Y120.048 E14.46154
G1 X149.597 Y120.586 E14.49396
G1 X149.81 Y120.858 E14.51005
G1 X150.057 Y121.189 E14.52928
G1 X150.363 Y121.632 E14.55435
G1 X150.964 Y122.573 E14.60634
G1 X151.391 Y123.338 E14.64714
G1 X152.041 Y124.684 E14.71674
G1 X152.417 Y125.622 E14.76379
G1 X152.875 Y127.036 E14.833
G1 X153.117 Y128.002 E14.87937
G1 X153.188 Y128.393 E14.89788
G1 X153.371 Y128.056 E14.91573
G1 X153.641 Y127.6 E14.94041
G1 X154.249 Y126.651 E14.99289
G1 X154.765 Y125.942 E15.03372
G1 X155.711 Y124.792 E15.10306
G1 X156.204 Y124.25 E15.13718
G1 X156.707 Y123.749 E15.17024
G1 X156.98 Y123.491 E15.18773
G1 X157.397 Y123.118 E15.21378
G1 X157.612 Y122.939 E15.22681
G1 X158.135 Y122.517 E15.2581
G1 X158.409 Y122.306 E15.2742
G1 X158.738 Y122.065 E15.29319
G1 X159.291 Y121.697 E15.32412
G1 X160.567 Y120.928 E15.39349
G1 X161.568 Y120.424 E15.44568
G1 X163.277 Y119.72 E15.53174
G1 X164.352 Y119.371 E15.58437
G1 X165.785 Y119.024 E15.65303
G1 X165.963 Y118.984 E15.66152
G1 X166.453 Y118.891 E15.68475
G1 X166.789 Y118.839 E15.70058
G1 X167.178 Y118.789 E15.71884
G1 X167.921 Y118.714 E15.75361
G1 X168.669 Y118.677 E15.78849
G1 X170.157 Y118.678 E15.85777
G1 X171.281 Y118.765 E15.91027
G1 X173.12 Y119.049 E15.99691
G1 X174.098 Y119.268 E16.04358
G1 X175.172 Y119.587 E16.09575
G1 X175.77 Y119.793 E16.1252
G1 X176.409 Y120.044 E16.15717
G1 X176.989 Y120.301 E16.18671
G1 X177.781 Y120.693 E16.22786
G1 X177.854 Y120.727 E16.23161
G1 X178.698 Y121.184 E16.2763
G1 X179.635 Y121.773 E16.32784
G1 X180.249 Y122.204 E16.36277
G1 X181.136 Y122.896 E16.41515
G1 X181.791 Y123.472 E16.45577
G1 X182.841 Y124.512 E16.52458
G1 X183.352 Y125.072 E16.55988
G1 X183.808 Y125.627 E16.59333
G1 X184.037 Y125.921 E16.61068
G1 X184.274 Y126.241 E16.62923
G1 X184.561 Y126.659 E16.65284
G1 X185.171 Y127.613 E16.70556
G1 X185.604 Y128.388 E16.7469
G1 X186.248 Y129.725 E16.816
G1 X186.62 Y130.654 E16.8626
G1 X187.078 Y132.067 E16.93176
G1 X187.321 Y133.032 E16.9781
G1 X187.588 Y134.508 E17.04795
G1 X187.678 Y135.178 E17.07942
G1 X187.706 Y135.497 E17.09434
G1 X187.721 Y135.703 E17.10395
G1 X187.748 Y136.155 E17.12504
G1 X187.758 Y136.394 E17.13618
G1 X187.767 Y136.723 E17.1515
G1 X187.769 Y137.016 E17.16514
G1 X187.764 Y137.424 E17.18414
G1 X187.753 Y137.762 E17.19989
G1 X187.714 Y138.433 E17.23119
