;FLAVOR:Marlin
;TIME:2032
;Filament used: 1.27424m
;Layer height: 0.2
;MINX:108.358
;MINY:113.243
;MINZ:0.28
;MAXX:184.112
;MAXY:173.355
;MAXZ:2.88
;POSTPROCESSED
;Generated with Cura_SteamEngine 4.12.1
M140 S80
M105
M190 S80
M82 ;absolute extrusion mode
M201 X500.00 Y500.00 Z100.00 E5000.00 ;Setup machine max acceleration
M203 X500.00 Y500.00 Z10.00 E50.00 ;Setup machine max feedrate
M204 P500.00 R1000.00 T500.00 ;Setup Print/Retract/Travel acceleration
M205 X8.00 Y8.00 Z0.40 E5.00 ;Setup Jerk
M220 S100 ;Reset Feedrate
M221 S100 ;Reset Flowrate
M140 S80 ; set bed temp
M190 S80 ; wait for bed temp
G28; home all 
G29;
G92 E0 ;Reset Extruder
;G1 Z2.0 F3000 ;Move Z Axis up
G1 X10.1 Y20 Z0.28 F5000.0 ;Move to start position
M104 S240.0 ; wait for extruder printing temp
M109 S240.0 ; wait for extruder printing temp
G1 X10.1 Y200.0 Z0.28 F1500.0 E15 ;Draw the first line
G1 X10.4 Y200.0 Z0.28 F5000.0 ;Move to side a little
G1 X10.4 Y20 Z0.28 F1500.0 E30 ;Draw the second line
G92 E0 ;Reset Extruder
G1 Z2.0 F3000 ;Move Z Axis up
G92 E0
G92 E0
G1 F1800 E-3
;LAYER_COUNT:14
;LAYER:0
M107
G0 F6000 X121.726 Y118.923 Z0.28
;TYPE:SKIRT
G1 F1800 E0
G1 F1200 X122.231 Y118.422 E0.03312
G1 X122.533 Y118.137 E0.05246
G1 X122.856 Y117.849 E0.07261
G1 X123.147 Y117.603 E0.09035
G1 X123.677 Y117.175 E0.12207
G1 X123.995 Y116.931 E0.14074
G1 X124.261 Y116.737 E0.15607
G1 X124.866 Y116.33 E0.19002
G1 X126.125 Y115.567 E0.25857
G1 X126.821 Y115.193 E0.29536
G1 X127.196 Y115.026 E0.31448
G1 X128.919 Y114.316 E0.40125
G1 X129.664 Y114.053 E0.43804
G1 X130.052 Y113.948 E0.45676
G1 X131.492 Y113.6 E0.52574
G1 X131.67 Y113.56 E0.53424
G1 X132.191 Y113.461 E0.55893
G1 X132.528 Y113.409 E0.57481
G1 X132.933 Y113.358 E0.59381
G1 X133.675 Y113.283 E0.62854
G1 X134.464 Y113.243 E0.66533
G1 X135.952 Y113.244 E0.73462
G1 X136.741 Y113.285 E0.7714
G1 X137.137 Y113.335 E0.78999
G1 X138.977 Y113.619 E0.87668
G1 X140.008 Y113.851 E0.92589
G1 X141.082 Y114.17 E0.97806
G1 X141.712 Y114.387 E1.00909
G1 X142.336 Y114.632 E1.0403
G1 X142.939 Y114.898 E1.07099
G1 X143.74 Y115.293 E1.11258
G1 X143.817 Y115.329 E1.11654
G1 X144.708 Y115.812 E1.16373
G1 X145.643 Y116.4 E1.21516
G1 X146.286 Y116.851 E1.25173
G1 X147.175 Y117.544 E1.30422
G1 X147.877 Y118.162 E1.34777
G1 X148.934 Y119.212 E1.41714
G1 X149.464 Y119.795 E1.45383
G1 X149.906 Y120.333 E1.48625
G1 X150.13 Y120.619 E1.50317
G1 X150.377 Y120.95 E1.5224
G1 X150.442 Y121.043 E1.52768
G1 X150.877 Y120.494 E1.5603
G1 X151.224 Y120.086 E1.58524
G1 X151.735 Y119.525 E1.62057
G1 X152.299 Y118.965 E1.65758
G1 X153.404 Y117.976 E1.72663
G1 X154.339 Y117.259 E1.7815
G1 X155.808 Y116.299 E1.86321
G1 X156.131 Y116.098 E1.88093
G1 X156.96 Y115.662 E1.92454
G1 X158.313 Y115.052 E1.99365
G1 X159.298 Y114.686 E2.04258
G1 X160.732 Y114.26 E2.11224
G1 X161.751 Y114.03 E2.16088
G1 X163.149 Y113.812 E2.22676
G1 X163.623 Y113.753 E2.24901
G1 X163.895 Y113.73 E2.26172
G1 X164.239 Y113.707 E2.27777
G1 X164.618 Y113.691 E2.29543
G1 X165.256 Y113.679 E2.32515
G1 X165.83 Y113.679 E2.35188
G1 X166.231 Y113.694 E2.37056
G1 X166.506 Y113.71 E2.38339
G1 X166.89 Y113.738 E2.40132
G1 X167.365 Y113.787 E2.42355
G1 X168.344 Y113.919 E2.46955
G1 X168.858 Y114.006 E2.49382
G1 X169.3 Y114.096 E2.51483
G1 X169.957 Y114.259 E2.54635
G1 X171.387 Y114.682 E2.61579
G1 X172.386 Y115.054 E2.66542
G1 X173.749 Y115.67 E2.73507
G1 X174.346 Y115.971 E2.7662
G1 X174.698 Y116.168 E2.78499
G1 X174.943 Y116.311 E2.7982
G1 X175.229 Y116.485 E2.81379
G1 X175.544 Y116.687 E2.83121
G1 X176.109 Y117.069 E2.86297
G1 X176.424 Y117.294 E2.88099
G1 X176.689 Y117.493 E2.89642
G1 X177.301 Y117.985 E2.93299
G1 X178.406 Y118.974 E3.00204
G1 X179.059 Y119.633 E3.04524
G1 X179.793 Y120.467 E3.09697
G1 X180.431 Y121.298 E3.14576
G1 X181.428 Y122.796 E3.22955
G1 X181.595 Y123.058 E3.24401
G1 X182.049 Y123.902 E3.28864
G1 X182.677 Y125.264 E3.35848
G1 X182.728 Y125.373 E3.36408
G1 X182.936 Y125.891 E3.39007
G1 X183.046 Y126.196 E3.40517
G1 X183.124 Y126.422 E3.4163
G1 X183.248 Y126.802 E3.43491
G1 X183.364 Y127.191 E3.45382
G1 X183.559 Y127.914 E3.48869
G1 X183.654 Y128.307 E3.50751
G1 X183.724 Y128.633 E3.52304
G1 X183.771 Y128.869 E3.53424
G1 X183.845 Y129.274 E3.55341
G1 X183.889 Y129.541 E3.56601
G1 X183.943 Y129.908 E3.58329
G1 X184.012 Y130.581 E3.61479
G1 X184.101 Y132.08 E3.68471
G1 X184.112 Y132.771 E3.71689
G1 X184.1 Y133.179 E3.7359
G1 X184.081 Y133.529 E3.75222
G1 X184.032 Y134.187 E3.78294
G1 X183.993 Y134.583 E3.80147
G1 X183.942 Y134.988 E3.82048
G1 X183.854 Y135.528 E3.84596
G1 X183.635 Y136.634 E3.89846
G1 X183.441 Y137.407 E3.93557
G1 X183.116 Y138.466 E3.98715
G1 X182.904 Y139.067 E4.01682
G1 X182.64 Y139.729 E4.05001
G1 X182.42 Y140.229 E4.07545
G1 X182.091 Y140.911 E4.1107
G1 X181.919 Y141.248 E4.12832
G1 X181.726 Y141.603 E4.14714
G1 X181.441 Y142.085 E4.17321
G1 X180.842 Y143.02 E4.22492
G1 X180.301 Y143.763 E4.26771
G1 X179.353 Y144.917 E4.33726
G1 X178.819 Y145.504 E4.37421
G1 X178.321 Y145.998 E4.40687
G1 X178.042 Y146.261 E4.42472
G1 X177.706 Y146.563 E4.44576
G1 X177.384 Y146.837 E4.46545
G1 X176.86 Y147.259 E4.49677
G1 X176.577 Y147.476 E4.51338
G1 X176.248 Y147.717 E4.53237
G1 X175.663 Y148.107 E4.56511
G1 X174.386 Y148.876 E4.63452
G1 X173.334 Y149.405 E4.68935
G1 X171.626 Y150.109 E4.77537
G1 X170.882 Y150.373 E4.81213
G1 X170.493 Y150.478 E4.8309
G1 X169.053 Y150.826 E4.89988
G1 X168.744 Y150.891 E4.91458
G1 X168.733 Y151.1 E4.92433
G1 X168.684 Y151.758 E4.95505
G1 X168.645 Y152.151 E4.97344
G1 X168.594 Y152.557 E4.99249
G1 X168.506 Y153.101 E5.01815
G1 X168.287 Y154.206 E5.07061
G1 X168.093 Y154.978 E5.10767
G1 X167.768 Y156.037 E5.15925
G1 X167.556 Y156.638 E5.18893
G1 X167.29 Y157.305 E5.22237
G1 X167.069 Y157.808 E5.24795
G1 X166.742 Y158.485 E5.28296
G1 X166.567 Y158.825 E5.30076
G1 X166.379 Y159.17 E5.31906
G1 X166.102 Y159.639 E5.34442
G1 X165.496 Y160.587 E5.39681
G1 X164.952 Y161.337 E5.43996
G1 X164.005 Y162.49 E5.50943
G1 X163.47 Y163.076 E5.54638
G1 X162.967 Y163.575 E5.57937
G1 X162.665 Y163.86 E5.59871
G1 X162.342 Y164.148 E5.61886
G1 X162.051 Y164.394 E5.6366
G1 X161.521 Y164.822 E5.66832
G1 X161.203 Y165.066 E5.68699
G1 X160.937 Y165.26 E5.70232
G1 X160.332 Y165.667 E5.73627
G1 X159.073 Y166.43 E5.80482
G1 X158.377 Y166.804 E5.84161
G1 X158.002 Y166.971 E5.86073
G1 X156.279 Y167.681 E5.9475
G1 X155.534 Y167.944 E5.98429
G1 X155.147 Y168.049 E6.00296
G1 X153.833 Y168.368 E6.06592
G1 X153.493 Y168.444 E6.08215
G1 X153.043 Y168.529 E6.10347
G1 X152.703 Y168.583 E6.1195
G1 X152.264 Y168.64 E6.14011
G1 X151.522 Y168.715 E6.17484
G1 X150.733 Y168.755 E6.21163
G1 X149.247 Y168.754 E6.28082
G1 X148.458 Y168.713 E6.31761
G1 X148.059 Y168.662 E6.33634
G1 X146.217 Y168.377 E6.42313
G1 X145.187 Y168.146 E6.47229
G1 X144.114 Y167.827 E6.52441
G1 X143.484 Y167.61 E6.55544
G1 X142.858 Y167.364 E6.58676
G1 X142.257 Y167.098 E6.61736
G1 X141.454 Y166.702 E6.65905
G1 X141.245 Y166.948 E6.67408
G1 X140.734 Y167.509 E6.70942
G1 X140.17 Y168.069 E6.74642
G1 X139.065 Y169.058 E6.81548
G1 X138.13 Y169.775 E6.87034
G1 X136.661 Y170.735 E6.95206
G1 X136.338 Y170.936 E6.96977
G1 X135.511 Y171.371 E7.01328
G1 X134.159 Y171.981 E7.08235
G1 X133.171 Y172.348 E7.13142
G1 X131.736 Y172.774 E7.20113
G1 X130.717 Y173.004 E7.24977
G1 X129.324 Y173.221 E7.31541
G1 X128.91 Y173.274 E7.33485
G1 X128.574 Y173.304 E7.35056
G1 X128.23 Y173.327 E7.36661
G1 X127.851 Y173.343 E7.38427
G1 X127.213 Y173.355 E7.41399
G1 X126.639 Y173.355 E7.44072
G1 X126.238 Y173.34 E7.4594
G1 X125.961 Y173.324 E7.47232
G1 X125.578 Y173.296 E7.4902
G1 X125.104 Y173.247 E7.51239
G1 X124.118 Y173.114 E7.55872
G1 X123.601 Y173.026 E7.58314
G1 X123.165 Y172.937 E7.60386
G1 X122.511 Y172.774 E7.63524
G1 X121.082 Y172.351 E7.70464
G1 X120.083 Y171.98 E7.75426
G1 X118.718 Y171.363 E7.82401
G1 X118.119 Y171.06 E7.85527
G1 X117.762 Y170.86 E7.87432
G1 X117.526 Y170.722 E7.88705
G1 X117.246 Y170.552 E7.90231
G1 X116.925 Y170.347 E7.92004
G1 X116.36 Y169.965 E7.9518
G1 X116.045 Y169.74 E7.96983
G1 X115.78 Y169.541 E7.98526
G1 X115.167 Y169.048 E8.02189
G1 X114.062 Y168.059 E8.09094
G1 X113.408 Y167.4 E8.13417
G1 X112.675 Y166.567 E8.18584
G1 X112.038 Y165.736 E8.23459
G1 X111.041 Y164.238 E8.31838
G1 X110.859 Y163.952 E8.33417
G1 X110.417 Y163.125 E8.37783
G1 X109.791 Y161.765 E8.44755
G1 X109.742 Y161.661 E8.4529
G1 X109.521 Y161.107 E8.48067
G1 X109.36 Y160.651 E8.50319
G1 X109.234 Y160.272 E8.52179
G1 X109.104 Y159.838 E8.54288
G1 X108.907 Y159.106 E8.57818
G1 X108.814 Y158.72 E8.59667
G1 X108.746 Y158.404 E8.61172
G1 X108.7 Y158.176 E8.62255
G1 X108.628 Y157.785 E8.64106
G1 X108.578 Y157.478 E8.65555
G1 X108.522 Y157.087 E8.67394
G1 X108.457 Y156.446 E8.70394
G1 X108.368 Y154.957 E8.7734
G1 X108.358 Y154.243 E8.80665
G1 X108.371 Y153.836 E8.82561
G1 X108.388 Y153.518 E8.84044
G1 X108.436 Y152.859 E8.87121
G1 X108.479 Y152.433 E8.89114
G1 X108.531 Y152.028 E8.91016
G1 X108.616 Y151.506 E8.93478
G1 X108.835 Y150.4 E8.98728
G1 X109.029 Y149.627 E9.02439
G1 X109.354 Y148.568 E9.07597
G1 X109.563 Y147.974 E9.1053
G1 X109.829 Y147.305 E9.13882
G1 X110.051 Y146.799 E9.16455
G1 X110.377 Y146.123 E9.19949
G1 X110.553 Y145.78 E9.21745
G1 X110.748 Y145.422 E9.23643
G1 X111.032 Y144.943 E9.26236
G1 X111.629 Y144.012 E9.31386
G1 X112.168 Y143.271 E9.35652
G1 X113.116 Y142.117 E9.42607
G1 X113.65 Y141.531 E9.46298
G1 X114.155 Y141.03 E9.49611
G1 X114.457 Y140.745 E9.51544
G1 X114.78 Y140.457 E9.53559
G1 X115.062 Y140.217 E9.55283
G1 X115.593 Y139.787 E9.58465
G1 X115.896 Y139.554 E9.60245
G1 X116.224 Y139.314 E9.62137
G1 X116.806 Y138.927 E9.65392
G1 X117.582 Y138.46 E9.69609
G1 X117.495 Y138.217 E9.70811
G1 X117.422 Y138.004 E9.71859
G1 X117.302 Y137.637 E9.73657
G1 X117.187 Y137.252 E9.75528
G1 X116.986 Y136.51 E9.79108
G1 X116.888 Y136.107 E9.81039
G1 X116.82 Y135.79 E9.82549
G1 X116.777 Y135.57 E9.83593
G1 X116.705 Y135.18 E9.85439
G1 X116.654 Y134.87 E9.86902
G1 X116.598 Y134.479 E9.88741
G1 X116.533 Y133.838 E9.91742
G1 X116.444 Y132.349 E9.98687
G1 X116.434 Y131.636 E10.02008
G1 X116.447 Y131.228 E10.03908
G1 X116.465 Y130.897 E10.05452
G1 X116.514 Y130.239 E10.08524
G1 X116.553 Y129.843 E10.10377
G1 X116.604 Y129.438 E10.12278
G1 X116.692 Y128.898 E10.14826
G1 X116.911 Y127.792 E10.20076
G1 X117.105 Y127.019 E10.23787
G1 X117.43 Y125.96 E10.28945
G1 X117.639 Y125.366 E10.31877
G1 X117.905 Y124.697 E10.35229
G1 X118.127 Y124.191 E10.37802
G1 X118.453 Y123.515 E10.41297
G1 X118.629 Y123.172 E10.43092
G1 X118.824 Y122.814 E10.4499
G1 X119.108 Y122.335 E10.47583
G1 X119.705 Y121.404 E10.52733
G1 X120.244 Y120.663 E10.57
G1 X121.192 Y119.509 E10.63954
G1 X121.726 Y118.923 E10.67646
G0 F6000 X122.007 Y119.207
G1 F1200 X122.512 Y118.706 E10.70958
G1 X122.799 Y118.436 E10.72793
G1 X123.122 Y118.148 E10.74808
G1 X123.398 Y117.914 E10.76493
G1 X123.928 Y117.486 E10.79665
G1 X124.23 Y117.255 E10.81435
G1 X124.5 Y117.058 E10.82992
G1 X125.074 Y116.672 E10.86213
G1 X126.333 Y115.909 E10.93068
G1 X127.349 Y115.396 E10.98367
G1 X129.072 Y114.686 E11.07045
G1 X130.147 Y114.337 E11.12308
G1 X131.58 Y113.99 E11.19173
G1 X131.758 Y113.95 E11.20023
G1 X132.252 Y113.857 E11.22363
G1 X132.589 Y113.805 E11.23951
G1 X132.973 Y113.756 E11.25754
G1 X133.715 Y113.681 E11.29226
G1 X134.464 Y113.643 E11.32719
G1 X135.952 Y113.644 E11.39647
G1 X137.076 Y113.731 E11.44897
G1 X138.916 Y114.015 E11.53566
G1 X139.894 Y114.234 E11.58233
G1 X140.968 Y114.553 E11.6345
G1 X141.565 Y114.759 E11.6639
G1 X142.189 Y115.004 E11.69512
G1 X142.762 Y115.257 E11.72429
G1 X143.574 Y115.658 E11.76646
G1 X143.65 Y115.693 E11.77035
G1 X144.495 Y116.151 E11.81511
G1 X145.43 Y116.739 E11.86654
G1 X146.041 Y117.167 E11.90127
G1 X146.93 Y117.86 E11.95376
G1 X147.595 Y118.446 E11.99503
G1 X148.652 Y119.496 E12.06441
G1 X149.155 Y120.048 E12.09918
G1 X149.597 Y120.586 E12.1316
G1 X149.81 Y120.858 E12.14769
G1 X150.057 Y121.189 E12.16692
G1 X150.363 Y121.632 E12.19199
G1 X150.426 Y121.731 E12.19746
G1 X150.51 Y121.614 E12.20416
G1 X150.728 Y121.325 E12.22102
G1 X151.19 Y120.742 E12.25566
G1 X151.519 Y120.355 E12.27931
G1 X152.03 Y119.794 E12.31464
G1 X152.566 Y119.263 E12.34978
G1 X153.671 Y118.274 E12.41883
G1 X154.558 Y117.593 E12.4709
G1 X156.027 Y116.633 E12.55261
G1 X156.338 Y116.44 E12.56966
G1 X157.125 Y116.027 E12.61104
G1 X158.478 Y115.417 E12.68015
G1 X159.412 Y115.069 E12.72656
G1 X160.846 Y114.643 E12.79622
G1 X161.813 Y114.425 E12.84238
G1 X163.211 Y114.207 E12.90826
G1 X163.66 Y114.151 E12.92933
G1 X163.921 Y114.129 E12.94153
G1 X164.265 Y114.106 E12.95758
G1 X164.625 Y114.091 E12.97436
G1 X165.283 Y114.078 E13.005
G1 X165.815 Y114.079 E13.02978
G1 X166.216 Y114.094 E13.04846
G1 X166.477 Y114.109 E13.06063
G1 X166.861 Y114.137 E13.07856
G1 X167.312 Y114.183 E13.09967
G1 X168.291 Y114.315 E13.14567
G1 X168.778 Y114.398 E13.16867
G1 X169.22 Y114.488 E13.18968
G1 X169.843 Y114.643 E13.21957
G1 X171.273 Y115.066 E13.28901
G1 X172.222 Y115.419 E13.33616
G1 X173.585 Y116.035 E13.40581
G1 X174.151 Y116.321 E13.43534
G1 X174.503 Y116.518 E13.45412
G1 X174.735 Y116.653 E13.46662
G1 X175.021 Y116.827 E13.48221
G1 X175.32 Y117.019 E13.49875
G1 X175.885 Y117.401 E13.53051
G1 X176.184 Y117.614 E13.5476
G1 X176.449 Y117.813 E13.56303
G1 X177.034 Y118.283 E13.59798
G1 X178.139 Y119.272 E13.66703
G1 X178.759 Y119.897 E13.70802
G1 X179.493 Y120.731 E13.75976
G1 X180.098 Y121.52 E13.80605
G1 X181.095 Y123.018 E13.88984
G1 X181.255 Y123.269 E13.9037
G1 X181.686 Y124.069 E13.94602
G1 X182.314 Y125.431 E14.01585
G1 X182.379 Y125.572 E14.02308
G1 X182.56 Y126.026 E14.04584
G1 X182.67 Y126.331 E14.06094
G1 X182.744 Y126.546 E14.07153
G1 X182.868 Y126.926 E14.09014
G1 X182.978 Y127.295 E14.10807
G1 X183.173 Y128.018 E14.14294
G1 X183.263 Y128.391 E14.1608
G1 X183.333 Y128.717 E14.17633
G1 X183.377 Y128.941 E14.18696
G1 X183.451 Y129.346 E14.20613
G1 X183.493 Y129.599 E14.21807
G1 X183.547 Y129.966 E14.23535
G1 X183.613 Y130.604 E14.26521
G1 X183.702 Y132.103 E14.33513
G1 X183.712 Y132.76 E14.36573
G1 X183.7 Y133.168 E14.38474
G1 X183.683 Y133.5 E14.40022
G1 X183.634 Y134.158 E14.43094
G1 X183.596 Y134.533 E14.44849
G1 X183.545 Y134.938 E14.4675
G1 X183.462 Y135.45 E14.49165
G1 X183.243 Y136.556 E14.54415
G1 X183.058 Y137.29 E14.5794
G1 X182.733 Y138.349 E14.63098
G1 X182.533 Y138.919 E14.65911
G1 X182.269 Y139.581 E14.69229
G1 X182.06 Y140.055 E14.71642
G1 X181.731 Y140.737 E14.75167
G1 X181.567 Y141.057 E14.76842
G1 X181.374 Y141.412 E14.78723
G1 X181.104 Y141.869 E14.81195
G1 X180.505 Y142.804 E14.86365
G1 X179.992 Y143.509 E14.90425
G1 X179.044 Y144.663 E14.9738
G1 X178.537 Y145.22 E15.00887
G1 X178.039 Y145.714 E15.04153
G1 X177.775 Y145.964 E15.05846
G1 X177.439 Y146.266 E15.0795
G1 X177.133 Y146.525 E15.09816
G1 X176.609 Y146.947 E15.12949
G1 X176.341 Y147.154 E15.14526
G1 X176.012 Y147.395 E15.16425
G1 X175.456 Y147.764 E15.19532
G1 X174.179 Y148.533 E15.26473
G1 X173.182 Y149.036 E15.31673
G1 X171.474 Y149.74 E15.40276
G1 X170.398 Y150.089 E15.45543
G1 X168.965 Y150.436 E15.52408
G1 X168.787 Y150.476 E15.53258
G1 X168.357 Y150.558 E15.55296
G1 X168.351 Y150.757 E15.56223
G1 X168.335 Y151.071 E15.57687
G1 X168.286 Y151.729 E15.6076
G1 X168.248 Y152.101 E15.62501
G1 X168.197 Y152.507 E15.64406
G1 X168.114 Y153.024 E15.66844
G1 X167.895 Y154.129 E15.7209
G1 X167.71 Y154.861 E15.75606
G1 X167.385 Y155.92 E15.80764
G1 X167.185 Y156.49 E15.83576
G1 X166.919 Y157.157 E15.8692
G1 X166.708 Y157.635 E15.89353
G1 X166.381 Y158.312 E15.92854
G1 X166.216 Y158.634 E15.94539
G1 X166.028 Y158.979 E15.96368
G1 X165.765 Y159.424 E15.98775
G1 X165.159 Y160.372 E16.04014
G1 X164.642 Y161.083 E16.08108
G1 X163.695 Y162.236 E16.15055
G1 X163.189 Y162.792 E16.18556
G1 X162.686 Y163.291 E16.21855
G1 X162.399 Y163.561 E16.2369
G1 X162.076 Y163.849 E16.25705
G1 X161.8 Y164.083 E16.2739
G1 X161.27 Y164.511 E16.30562
G1 X160.968 Y164.742 E16.32333
G1 X160.698 Y164.939 E16.33889
G1 X160.124 Y165.325 E16.3711
G1 X158.865 Y166.088 E16.43965
G1 X157.849 Y166.601 E16.49265
G1 X156.126 Y167.311 E16.57942
G1 X155.053 Y167.66 E16.63196
G1 X153.581 Y168.016 E16.70248
