;FLAVOR:Marlin
;TIME:485
;Filament used: 0.250827m
;Layer height: 0.2
;MINX:133.52
;MINY:138.476
;MINZ:0.28
;MAXX:166.48
;MAXY:161.524
;MAXZ:4.88
;POSTPROCESSED
;Generated with Cura_SteamEngine 4.12.1
M140 S80
M105
M190 S80
M82 ;absolute extrusion mode
M201 X500.00 Y500.00 Z100.00 E5000.00 ;Setup machine max acceleration
M203 X500.00 Y500.00 Z10.00 E50.00 ;Setup machine max feedrate
M204 P500.00 R1000.00 T500.00 ;Setup Print/Retract/Travel acceleration
M205 X8.00 Y8.00 Z0.40 E5.00 ;Setup Jerk
M220 S100 ;Reset Feedrate
M221 S100 ;Reset Flowrate
M140 S80 ; set bed temp
M190 S80 ; wait for bed temp
G28; home all 
G29;
G92 E0 ;Reset Extruder
;G1 Z2.0 F3000 ;Move Z Axis up
G1 X10.1 Y20 Z0.28 F5000.0 ;Move to start position
M104 S240.0 ; wait for extruder printing temp
M109 S240.0 ; wait for extruder printing temp
G1 X10.1 Y200.0 Z0.28 F1500.0 E15 ;Draw the first line
G1 X10.4 Y200.0 Z0.28 F5000.0 ;Move to side a little
G1 X10.4 Y20 Z0.28 F1500.0 E30 ;Draw the second line
G92 E0 ;Reset Extruder
G1 Z2.0 F3000 ;Move Z Axis up
G92 E0
G92 E0
G1 F1800 E-3
;LAYER_COUNT:24
;LAYER:0
M107
G0 F6000 X135.922 Y140.761 Z0.28
;TYPE:SKIRT
G1 F1800 E0
G1 F1200 X136.508 Y140.231 E0.03679
G1 X137.144 Y139.764 E0.07353
G1 X137.824 Y139.363 E0.11029
G1 X138.542 Y139.033 E0.14709
G1 X139.289 Y138.778 E0.18384
G1 X140.058 Y138.599 E0.22061
G1 X140.842 Y138.499 E0.25741
G1 X141.437 Y138.476 E0.28513
G1 X158.563 Y138.476 E1.08259
G1 X159.352 Y138.516 E1.11938
G1 X160.132 Y138.635 E1.15612
G1 X160.897 Y138.833 E1.19292
G1 X161.637 Y139.107 E1.22966
G1 X162.346 Y139.455 E1.26644
G1 X163.017 Y139.873 E1.30325
G1 X163.641 Y140.356 E1.33999
G1 X164.078 Y140.761 E1.36773
G1 X164.195 Y140.878 E1.37544
G1 X164.725 Y141.464 E1.41223
G1 X165.192 Y142.1 E1.44897
G1 X165.593 Y142.78 E1.48573
G1 X165.923 Y143.498 E1.52253
G1 X166.178 Y144.245 E1.55928
G1 X166.357 Y145.014 E1.59604
G1 X166.457 Y145.798 E1.63285
G1 X166.48 Y146.393 E1.66057
G1 X166.48 Y153.607 E1.99649
G1 X166.44 Y154.396 E2.03327
G1 X166.321 Y155.176 E2.07001
G1 X166.123 Y155.941 E2.10681
G1 X165.849 Y156.681 E2.14355
G1 X165.501 Y157.39 E2.18033
G1 X165.083 Y158.061 E2.21714
G1 X164.6 Y158.685 E2.25388
G1 X164.195 Y159.122 E2.28163
G1 X164.078 Y159.239 E2.28933
G1 X163.492 Y159.769 E2.32612
G1 X162.856 Y160.236 E2.36286
G1 X162.176 Y160.637 E2.39962
G1 X161.458 Y160.967 E2.43642
G1 X160.711 Y161.222 E2.47317
G1 X159.942 Y161.401 E2.50994
G1 X159.158 Y161.501 E2.54674
G1 X158.563 Y161.524 E2.57447
G1 X141.437 Y161.524 E3.37193
G1 X140.648 Y161.484 E3.40871
G1 X139.868 Y161.365 E3.44545
G1 X139.103 Y161.167 E3.48225
G1 X138.363 Y160.893 E3.51899
G1 X137.654 Y160.545 E3.55577
G1 X136.983 Y160.127 E3.59258
G1 X136.359 Y159.644 E3.62932
G1 X135.922 Y159.239 E3.65707
G1 X135.805 Y159.122 E3.66477
G1 X135.275 Y158.536 E3.70156
G1 X134.808 Y157.9 E3.7383
G1 X134.407 Y157.22 E3.77506
G1 X134.077 Y156.502 E3.81186
G1 X133.822 Y155.755 E3.84861
G1 X133.643 Y154.986 E3.88538
G1 X133.543 Y154.202 E3.92218
G1 X133.52 Y153.607 E3.94991
G1 X133.52 Y146.393 E4.28582
G1 X133.56 Y145.604 E4.32261
G1 X133.679 Y144.824 E4.35935
G1 X133.877 Y144.059 E4.39614
G1 X134.151 Y143.319 E4.43289
G1 X134.499 Y142.61 E4.46966
G1 X134.917 Y141.939 E4.50647
G1 X135.4 Y141.315 E4.54322
G1 X135.805 Y140.878 E4.57096
G1 X135.922 Y140.761 E4.57866
G0 F6000 X136.204 Y141.043
G1 F1200 X136.776 Y140.529 E4.61447
G1 X137.398 Y140.076 E4.6503
G1 X138.063 Y139.69 E4.68611
G1 X138.765 Y139.375 E4.72193
G1 X139.496 Y139.135 E4.75776
G1 X140.247 Y138.972 E4.79354
G1 X141.012 Y138.888 E4.82938
G1 X141.437 Y138.876 E4.84918
G1 X158.563 Y138.876 E5.64664
G1 X159.331 Y138.916 E5.68245
G1 X160.091 Y139.035 E5.71827
G1 X160.834 Y139.233 E5.75407
G1 X161.553 Y139.507 E5.7899
G1 X162.239 Y139.854 E5.8257
G1 X162.886 Y140.27 E5.86151
G1 X163.486 Y140.751 E5.89732
G1 X163.796 Y141.043 E5.91715
G1 X163.913 Y141.16 E5.92486
G1 X164.427 Y141.732 E5.96066
G1 X164.88 Y142.354 E5.99649
G1 X165.266 Y143.019 E6.0323
G1 X165.581 Y143.721 E6.06813
G1 X165.821 Y144.452 E6.10395
G1 X165.984 Y145.203 E6.13974
G1 X166.068 Y145.968 E6.17557
G1 X166.08 Y146.393 E6.19537
G1 X166.08 Y153.607 E6.53128
G1 X166.04 Y154.375 E6.56709
G1 X165.921 Y155.135 E6.60291
G1 X165.723 Y155.878 E6.63872
G1 X165.449 Y156.597 E6.67455
G1 X165.102 Y157.283 E6.71034
G1 X164.686 Y157.93 E6.74616
G1 X164.205 Y158.53 E6.78197
G1 X163.913 Y158.84 E6.8018
G1 X163.796 Y158.957 E6.8095
G1 X163.224 Y159.471 E6.84531
G1 X162.602 Y159.924 E6.88114
G1 X161.937 Y160.31 E6.91694
G1 X161.235 Y160.625 E6.95277
G1 X160.504 Y160.865 E6.9886
G1 X159.753 Y161.028 E7.02438
G1 X158.988 Y161.112 E7.06022
G1 X158.563 Y161.124 E7.08002
G1 X141.437 Y161.124 E7.87747
G1 X140.669 Y161.084 E7.91328
G1 X139.909 Y160.965 E7.9491
G1 X139.166 Y160.767 E7.98491
G1 X138.447 Y160.493 E8.02074
G1 X137.761 Y160.146 E8.05653
G1 X137.114 Y159.73 E8.09235
G1 X136.514 Y159.249 E8.12816
G1 X136.204 Y158.957 E8.14799
G1 X136.087 Y158.84 E8.15569
G1 X135.573 Y158.268 E8.1915
G1 X135.12 Y157.646 E8.22733
G1 X134.734 Y156.981 E8.26314
G1 X134.419 Y156.279 E8.29896
G1 X134.179 Y155.548 E8.33479
G1 X134.016 Y154.797 E8.37057
G1 X133.932 Y154.032 E8.40641
G1 X133.92 Y153.607 E8.42621
G1 X133.92 Y146.393 E8.76212
G1 X133.96 Y145.625 E8.79793
G1 X134.079 Y144.865 E8.83375
G1 X134.277 Y144.122 E8.86956
G1 X134.551 Y143.403 E8.90538
G1 X134.898 Y142.717 E8.94118
G1 X135.314 Y142.07 E8.977
G1 X135.795 Y141.47 E9.01281
G1 X136.087 Y141.16 E9.03264
G1 X136.204 Y141.043 E9.04034
G0 F6000 X136.487 Y141.326
G1 F1200 X137.044 Y140.826 E9.07519
G1 X137.65 Y140.389 E9.10998
G1 X138.3 Y140.018 E9.14483
G1 X138.986 Y139.719 E9.17968
G1 X139.7 Y139.495 E9.21452
G1 X140.433 Y139.348 E9.24933
G1 X141.437 Y139.276 E9.29621
G1 X158.563 Y139.276 E10.09366
G1 X159.31 Y139.316 E10.1285
G1 X160.048 Y139.435 E10.1633
G1 X160.77 Y139.633 E10.19817
G1 X161.466 Y139.906 E10.23298
G1 X162.129 Y140.253 E10.26782
G1 X162.752 Y140.668 E10.30268
G1 X163.513 Y141.326 E10.34952
G1 X163.63 Y141.443 E10.35723
G1 X164.13 Y142 E10.39208
G1 X164.567 Y142.606 E10.42687
G1 X164.938 Y143.256 E10.46172
G1 X165.237 Y143.942 E10.49657
G1 X165.461 Y144.656 E10.53141
G1 X165.608 Y145.389 E10.56622
G1 X165.68 Y146.393 E10.61309
G1 X165.68 Y153.607 E10.94901
G1 X165.64 Y154.354 E10.98384
G1 X165.521 Y155.092 E11.01865
G1 X165.323 Y155.814 E11.05351
G1 X165.05 Y156.51 E11.08832
G1 X164.703 Y157.173 E11.12317
G1 X164.288 Y157.796 E11.15802
G1 X163.63 Y158.557 E11.20487
G1 X163.513 Y158.674 E11.21257
G1 X162.956 Y159.174 E11.24743
G1 X162.35 Y159.611 E11.28222
G1 X161.7 Y159.982 E11.31706
G1 X161.014 Y160.281 E11.35191
G1 X160.3 Y160.505 E11.38675
G1 X159.567 Y160.652 E11.42157
G1 X158.563 Y160.724 E11.46844
G1 X141.437 Y160.724 E12.26589
G1 X140.69 Y160.684 E12.30073
G1 X139.952 Y160.565 E12.33554
G1 X139.23 Y160.367 E12.3704
G1 X138.534 Y160.094 E12.40521
G1 X137.871 Y159.747 E12.44005
G1 X137.248 Y159.332 E12.47491
G1 X136.487 Y158.674 E12.52176
G1 X136.37 Y158.557 E12.52946
G1 X135.87 Y158 E12.56431
G1 X135.433 Y157.394 E12.5991
G1 X135.062 Y156.744 E12.63395
G1 X134.763 Y156.058 E12.6688
G1 X134.539 Y155.344 E12.70364
G1 X134.392 Y154.611 E12.73845
G1 X134.32 Y153.607 E12.78532
G1 X134.32 Y146.393 E13.12124
G1 X134.36 Y145.646 E13.15607
G1 X134.479 Y144.908 E13.19088
G1 X134.677 Y144.186 E13.22574
G1 X134.95 Y143.49 E13.26055
G1 X135.297 Y142.827 E13.2954
G1 X135.712 Y142.204 E13.33025
G1 X136.37 Y141.443 E13.3771
G1 X136.487 Y141.326 E13.3848
G0 F6000 X136.77 Y141.609
G1 F1200 X137.311 Y141.125 E13.4186
G1 X137.902 Y140.702 E13.45245
G1 X138.536 Y140.348 E13.48626
G1 X139.205 Y140.065 E13.52008
G1 X139.901 Y139.857 E13.55391
G1 X140.616 Y139.727 E13.58775
G1 X141.437 Y139.676 E13.62605
G1 X158.563 Y139.676 E14.42351
G1 X159.288 Y139.716 E14.45732
G1 X160.005 Y139.835 E14.49116
G1 X160.704 Y140.033 E14.52499
G1 X161.377 Y140.306 E14.55881
G1 X162.016 Y140.651 E14.59262
G1 X162.613 Y141.065 E14.62645
G1 X163.23 Y141.609 E14.66475
G1 X163.347 Y141.726 E14.67246
G1 X163.831 Y142.267 E14.70626
G1 X164.254 Y142.858 E14.7401
G1 X164.608 Y143.492 E14.77391
G1 X164.891 Y144.161 E14.80774
G1 X165.099 Y144.857 E14.84156
G1 X165.229 Y145.572 E14.8754
G1 X165.28 Y146.393 E14.9137
G1 X165.28 Y153.607 E15.24962
G1 X165.24 Y154.332 E15.28343
G1 X165.121 Y155.049 E15.31727
G1 X164.923 Y155.748 E15.3511
G1 X164.65 Y156.421 E15.38492
G1 X164.305 Y157.06 E15.41873
G1 X163.891 Y157.657 E15.45256
G1 X163.347 Y158.274 E15.49087
G1 X163.23 Y158.391 E15.49857
G1 X162.689 Y158.875 E15.53237
G1 X162.098 Y159.298 E15.56621
G1 X161.464 Y159.652 E15.60002
G1 X160.795 Y159.935 E15.63385
G1 X160.099 Y160.143 E15.66767
G1 X159.384 Y160.273 E15.70151
G1 X158.563 Y160.324 E15.73982
G1 X141.437 Y160.324 E16.53727
G1 X140.712 Y160.284 E16.57108
G1 X139.995 Y160.165 E16.60493
G1 X139.296 Y159.967 E16.63876
G1 X138.623 Y159.694 E16.67257
G1 X137.984 Y159.349 E16.70639
G1 X137.387 Y158.935 E16.74022
G1 X136.77 Y158.391 E16.77852
G1 X136.653 Y158.274 E16.78622
G1 X136.169 Y157.733 E16.82003
G1 X135.746 Y157.142 E16.85387
G1 X135.392 Y156.508 E16.88768
G1 X135.109 Y155.839 E16.9215
G1 X134.901 Y155.143 E16.95533
G1 X134.771 Y154.428 E16.98917
G1 X134.72 Y153.607 E17.02747
G1 X134.72 Y146.393 E17.36338
G1 X134.76 Y145.668 E17.3972
G1 X134.879 Y144.951 E17.43104
G1 X135.077 Y144.252 E17.46487
G1 X135.35 Y143.579 E17.49869
G1 X135.695 Y142.94 E17.5325
G1 X136.109 Y142.343 E17.56633
G1 X136.653 Y141.726 E17.60463
G1 X136.77 Y141.609 E17.61234
G0 F6000 X137.053 Y141.892
G1 F1200 X137.578 Y141.423 E17.64512
G1 X138.153 Y141.017 E17.67789
G1 X138.771 Y140.679 E17.71069
G1 X139.422 Y140.412 E17.74346
G1 X140.1 Y140.222 E17.77624
G1 X140.795 Y140.109 E17.80903
G1 X141.437 Y140.076 E17.83896
G1 X158.563 Y140.076 E18.63642
G1 X159.266 Y140.116 E18.66921
G1 X159.96 Y140.235 E18.702
G1 X160.635 Y140.433 E18.73475
G1 X161.284 Y140.705 E18.76752
G1 X161.898 Y141.05 E18.80031
G1 X162.469 Y141.461 E18.83307
G1 X162.947 Y141.892 E18.86304
G1 X163.064 Y142.009 E18.87075
G1 X163.533 Y142.534 E18.90353
G1 X163.939 Y143.109 E18.9363
G1 X164.277 Y143.727 E18.9691
G1 X164.544 Y144.378 E19.00187
G1 X164.734 Y145.056 E19.03465
G1 X164.847 Y145.751 E19.06744
G1 X164.88 Y146.393 E19.09737
G1 X164.88 Y153.607 E19.43329
G1 X164.84 Y154.31 E19.46607
G1 X164.721 Y155.004 E19.49886
G1 X164.523 Y155.679 E19.53162
G1 X164.251 Y156.328 E19.56438
G1 X163.906 Y156.942 E19.59718
G1 X163.495 Y157.513 E19.62994
G1 X163.064 Y157.991 E19.65991
G1 X162.947 Y158.108 E19.66761
G1 X162.422 Y158.577 E19.70039
G1 X161.847 Y158.983 E19.73317
G1 X161.229 Y159.321 E19.76597
G1 X160.578 Y159.588 E19.79873
G1 X159.9 Y159.778 E19.83152
G1 X159.205 Y159.891 E19.86431
G1 X158.563 Y159.924 E19.89424
G1 X141.437 Y159.924 E20.6917
G1 X140.734 Y159.884 E20.72449
G1 X140.04 Y159.765 E20.75727
G1 X139.365 Y159.567 E20.79003
G1 X138.716 Y159.295 E20.82279
G1 X138.102 Y158.95 E20.85559
G1 X137.531 Y158.539 E20.88835
G1 X137.053 Y158.108 E20.91832
G1 X136.936 Y157.991 E20.92602
G1 X136.467 Y157.466 E20.9588
G1 X136.061 Y156.891 E20.99158
G1 X135.723 Y156.273 E21.02438
G1 X135.456 Y155.622 E21.05714
G1 X135.266 Y154.944 E21.08993
G1 X135.153 Y154.249 E21.12272
G1 X135.12 Y153.607 E21.15265
G1 X135.12 Y146.393 E21.48856
G1 X135.16 Y145.69 E21.52135
G1 X135.279 Y144.996 E21.55414
G1 X135.477 Y144.321 E21.58689
G1 X135.749 Y143.672 E21.61966
G1 X136.094 Y143.058 E21.65246
G1 X136.505 Y142.487 E21.68521
G1 X136.936 Y142.009 E21.71518
G1 X137.053 Y141.892 E21.72289
G0 F6000 X137.336 Y142.175
G1 F1200 X137.845 Y141.722 E21.75462
G1 X138.403 Y141.333 E21.78629
G1 X139.003 Y141.011 E21.818
G1 X139.637 Y140.762 E21.84972
G1 X140.296 Y140.589 E21.88144
G1 X140.97 Y140.495 E21.91313
G1 X141.437 Y140.476 E21.93489
G1 X158.563 Y140.476 E22.73235
G1 X159.243 Y140.516 E22.76407
G1 X159.913 Y140.635 E22.79576
G1 X160.565 Y140.832 E22.82747
G1 X161.189 Y141.104 E22.85917
G1 X161.777 Y141.448 E22.89089
G1 X162.321 Y141.858 E22.92261
G1 X162.664 Y142.175 E22.94436
G1 X162.781 Y142.292 E22.95206
G1 X163.234 Y142.801 E22.98379
G1 X163.623 Y143.359 E23.01546
G1 X163.945 Y143.959 E23.04717
G1 X164.194 Y144.593 E23.07889
G1 X164.367 Y145.252 E23.11061
G1 X164.461 Y145.926 E23.1423
G1 X164.48 Y146.393 E23.16406
G1 X164.48 Y153.607 E23.49998
G1 X164.44 Y154.287 E23.5317
G1 X164.321 Y154.957 E23.56338
G1 X164.124 Y155.609 E23.5951
G1 X163.852 Y156.233 E23.62679
G1 X163.508 Y156.821 E23.65852
G1 X163.098 Y157.365 E23.69024
G1 X162.781 Y157.708 E23.71198
G1 X162.664 Y157.825 E23.71969
G1 X162.155 Y158.278 E23.75142
G1 X161.597 Y158.667 E23.78309
G1 X160.997 Y158.989 E23.8148
G1 X160.363 Y159.238 E23.84651
G1 X159.704 Y159.411 E23.87824
G1 X159.03 Y159.505 E23.90993
G1 X158.563 Y159.524 E23.93169
G1 X141.437 Y159.524 E24.72915
G1 X140.757 Y159.484 E24.76087
G1 X140.087 Y159.365 E24.79255
G1 X139.435 Y159.168 E24.82427
G1 X138.811 Y158.896 E24.85597
G1 X138.223 Y158.552 E24.88769
G1 X137.679 Y158.142 E24.91941
G1 X137.336 Y157.825 E24.94115
G1 X137.219 Y157.708 E24.94886
G1 X136.766 Y157.199 E24.98059
G1 X136.377 Y156.641 E25.01226
G1 X136.055 Y156.041 E25.04397
G1 X135.806 Y155.407 E25.07569
G1 X135.633 Y154.748 E25.10741
G1 X135.539 Y154.074 E25.1391
G1 X135.52 Y153.607 E25.16086
G1 X135.52 Y146.393 E25.49678
G1 X135.56 Y145.713 E25.52849
G1 X135.679 Y145.043 E25.56018
G1 X135.876 Y144.391 E25.5919
G1 X136.148 Y143.767 E25.62359
G1 X136.492 Y143.179 E25.65531
G1 X136.902 Y142.635 E25.68703
G1 X137.219 Y142.292 E25.70878
G1 X137.336 Y142.175 E25.71649
G0 F6000 X137.619 Y142.458
G1 F1200 X138.111 Y142.022 E25.7471
G1 X138.652 Y141.65 E25.77767
G1 X139.234 Y141.346 E25.80824
G1 X139.849 Y141.115 E25.83883
G1 X140.488 Y140.96 E25.86945
G1 X141.437 Y140.876 E25.91381
G1 X158.563 Y140.876 E26.71127
G1 X159.219 Y140.916 E26.74187
G1 X159.865 Y141.035 E26.77246
G1 X160.492 Y141.232 E26.80306
G1 X161.09 Y141.504 E26.83365
G1 X161.651 Y141.846 E26.86425
G1 X162.381 Y142.458 E26.90861
G1 X162.498 Y142.575 E26.91631
G1 X162.934 Y143.067 E26.94692
G1 X163.306 Y143.608 E26.97749
G1 X163.61 Y144.19 E27.00807
G1 X163.841 Y144.805 E27.03866
G1 X163.996 Y145.444 E27.06928
G1 X164.08 Y146.393 E27.11364
G1 X164.08 Y153.607 E27.44955
G1 X164.04 Y154.263 E27.48015
G1 X163.921 Y154.909 E27.51074
G1 X163.724 Y155.536 E27.54134
G1 X163.452 Y156.134 E27.57193
G1 X163.11 Y156.695 E27.60253
G1 X162.498 Y157.425 E27.64689
G1 X162.381 Y157.542 E27.65459
G1 X161.889 Y157.978 E27.6852
G1 X161.348 Y158.35 E27.71577
G1 X160.766 Y158.654 E27.74635
G1 X160.151 Y158.885 E27.77694
G1 X159.512 Y159.04 E27.80756
G1 X158.563 Y159.124 E27.85192
G1 X141.437 Y159.124 E28.64938
G1 X140.781 Y159.084 E28.67998
G1 X140.135 Y158.965 E28.71057
G1 X139.508 Y158.768 E28.74117
G1 X138.91 Y158.496 E28.77176
G1 X138.349 Y158.154 E28.80235
G1 X137.619 Y157.542 E28.84671
G1 X137.502 Y157.425 E28.85441
G1 X137.066 Y156.933 E28.88502
G1 X136.694 Y156.392 E28.9156
G1 X136.39 Y155.81 E28.94617
G1 X136.159 Y155.195 E28.97676
G1 X136.004 Y154.556 E29.00738
G1 X135.92 Y153.607 E29.05174
G1 X135.92 Y146.393 E29.38766
G1 X135.96 Y145.737 E29.41826
G1 X136.079 Y145.091 E29.44884
G1 X136.276 Y144.464 E29.47945
G1 X136.548 Y143.866 E29.51004
G1 X136.89 Y143.305 E29.54063
G1 X137.502 Y142.575 E29.58499
G1 X137.619 Y142.458 E29.59269
G0 F6000 X137.901 Y142.74
G1 F1200 X138.376 Y142.323 E29.62213
G1 X138.899 Y141.968 E29.65156
G1 X139.463 Y141.682 E29.68101
G1 X140.058 Y141.47 E29.71042
G1 X140.676 Y141.334 E29.73988
G1 X141.437 Y141.276 E29.77542
G1 X158.563 Y141.276 E30.57288
G1 X159.194 Y141.316 E30.60232
G1 X159.815 Y141.435 E30.63176
G1 X160.415 Y141.632 E30.66117
G1 X160.987 Y141.903 E30.69064
G1 X161.519 Y142.243 E30.72004
G1 X162.099 Y142.74 E30.75561
G1 X162.216 Y142.857 E30.76331
G1 X162.633 Y143.332 E30.79274
G1 X162.988 Y143.855 E30.82218
G1 X163.274 Y144.419 E30.85162
G1 X163.486 Y145.014 E30.88103
G1 X163.622 Y145.632 E30.9105
G1 X163.68 Y146.393 E30.94604
G1 X163.68 Y153.607 E31.28195
G1 X163.64 Y154.238 E31.31139
G1 X163.521 Y154.859 E31.34083
G1 X163.324 Y155.459 E31.37024
G1 X163.053 Y156.031 E31.39971
G1 X162.713 Y156.563 E31.42911
