;FLAVOR:Marlin
;TIME:3231
;Filament used: 1.55568m
;Layer height: 0.2
;MINX:127.256
;MINY:133.953
;MINZ:0.28
;MAXX:172.745
;MAXY:183.45
;MAXZ:28.28
;POSTPROCESSED
;Generated with Cura_SteamEngine 4.12.1
M140 S80
M105
M190 S80
M82 ;absolute extrusion mode
M201 X500.00 Y500.00 Z100.00 E5000.00 ;Setup machine max acceleration
M203 X500.00 Y500.00 Z10.00 E50.00 ;Setup machine max feedrate
M204 P500.00 R1000.00 T500.00 ;Setup Print/Retract/Travel acceleration
M205 X8.00 Y8.00 Z0.40 E5.00 ;Setup Jerk
M220 S100 ;Reset Feedrate
M221 S100 ;Reset Flowrate
M140 S80 ; set bed temp
M190 S80 ; wait for bed temp
G28; home all 
G29;
G92 E0 ;Reset Extruder
;G1 Z2.0 F3000 ;Move Z Axis up
G1 X10.1 Y20 Z0.28 F5000.0 ;Move to start position
M104 S240.0 ; wait for extruder printing temp
M109 S240.0 ; wait for extruder printing temp
G1 X10.1 Y200.0 Z0.28 F1500.0 E15 ;Draw the first line
G1 X10.4 Y200.0 Z0.28 F5000.0 ;Move to side a little
G1 X10.4 Y20 Z0.28 F1500.0 E30 ;Draw the second line
G92 E0 ;Reset Extruder
G1 Z2.0 F3000 ;Move Z Axis up
G92 E0
G92 E0
G1 F1800 E-3
;LAYER_COUNT:141
;LAYER:0
M107
G0 F6000 X135.985 Y136.425 Z0.28
;TYPE:SKIRT
G1 F1800 E0
G1 F1200 X136.571 Y135.895 E0.03679
G1 X137.207 Y135.428 E0.07353
G1 X137.887 Y135.027 E0.11029
G1 X138.605 Y134.697 E0.14709
G1 X139.352 Y134.442 E0.18384
G1 X140.121 Y134.263 E0.22061
G1 X140.905 Y134.163 E0.25741
G1 X141.5 Y134.14 E0.28513
G1 X142.09 Y134.14 E0.31261
G1 X142.389 Y134.072 E0.32689
G1 X143.173 Y133.977 E0.36366
G1 X143.694 Y133.957 E0.38794
G1 X144.505 Y133.954 E0.4257
G1 X146.291 Y133.957 E0.50886
G1 X147.08 Y133.998 E0.54565
G1 X147.86 Y134.119 E0.58241
G1 X147.944 Y134.141 E0.58645
G1 X152.083 Y134.141 E0.77918
G1 X152.372 Y134.075 E0.79298
G1 X153.156 Y133.978 E0.82977
G1 X153.693 Y133.957 E0.85479
G1 X154.71 Y133.953 E0.90215
G1 X156.298 Y133.957 E0.97609
G1 X157.086 Y133.999 E1.01284
G1 X157.866 Y134.12 E1.04959
G1 X158.631 Y134.32 E1.08641
G1 X159.37 Y134.596 E1.12314
G1 X160.079 Y134.946 E1.15996
G1 X160.748 Y135.365 E1.19672
G1 X161.371 Y135.849 E1.23345
G1 X161.685 Y136.149 E1.25367
G1 X161.701 Y136.155 E1.25447
G1 X162.41 Y136.503 E1.29125
G1 X163.081 Y136.921 E1.32806
G1 X163.705 Y137.404 E1.3648
G1 X164.142 Y137.809 E1.39255
G1 X164.259 Y137.926 E1.40025
G1 X164.789 Y138.512 E1.43704
G1 X165.256 Y139.148 E1.47378
G1 X165.657 Y139.828 E1.51054
G1 X165.987 Y140.546 E1.54734
G1 X166.242 Y141.293 E1.58409
G1 X166.421 Y142.062 E1.62086
G1 X166.494 Y142.637 E1.64785
G1 X167.122 Y143.311 E1.69074
G1 X171.036 Y148.204 E1.98251
G1 X171.497 Y148.845 E2.01927
G1 X171.892 Y149.529 E2.05605
G1 X172.215 Y150.249 E2.0928
G1 X172.463 Y150.999 E2.12958
G1 X172.635 Y151.77 E2.16636
G1 X172.728 Y152.554 E2.20312
G1 X172.745 Y153.076 E2.22744
G1 X172.745 Y153.216 E2.23396
G1 X172.705 Y154.005 E2.27075
G1 X172.586 Y154.785 E2.30749
G1 X172.388 Y155.55 E2.34428
G1 X172.114 Y156.29 E2.38103
G1 X171.766 Y156.999 E2.4178
G1 X171.348 Y157.67 E2.45462
G1 X171.037 Y158.087 E2.47884
G1 X167.989 Y161.899 E2.70611
G1 X171.035 Y165.708 E2.93321
G1 X171.497 Y166.349 E2.97
G1 X171.891 Y167.033 E3.00676
G1 X172.214 Y167.754 E3.04354
G1 X172.462 Y168.503 E3.08028
G1 X172.634 Y169.274 E3.11707
G1 X172.727 Y170.058 E3.15383
G1 X172.744 Y170.58 E3.17815
G1 X172.744 Y170.72 E3.18467
G1 X172.704 Y171.509 E3.22145
G1 X172.585 Y172.289 E3.25819
G1 X172.387 Y173.054 E3.29499
G1 X172.113 Y173.794 E3.33173
G1 X171.765 Y174.503 E3.36851
G1 X171.347 Y175.174 E3.40532
G1 X171.035 Y175.592 E3.42961
G1 X167.123 Y180.483 E3.72124
G1 X166.599 Y181.074 E3.75802
G1 X166.019 Y181.609 E3.79476
G1 X165.387 Y182.082 E3.83152
G1 X164.382 Y182.655 E3.88539
G1 X164.3 Y182.694 E3.88962
G1 X163.571 Y182.997 E3.92638
G1 X162.815 Y183.224 E3.96313
G1 X162.039 Y183.374 E3.99993
G1 X160.95 Y183.45 E4.05077
G1 X139.05 Y183.45 E5.07052
G1 X138.261 Y183.41 E5.10731
G1 X137.481 Y183.291 E5.14405
G1 X136.716 Y183.093 E5.18084
G1 X135.7 Y182.694 E5.23167
G1 X135.618 Y182.655 E5.2359
G1 X134.923 Y182.28 E5.27267
G1 X134.269 Y181.837 E5.30945
G1 X133.664 Y181.33 E5.34621
G1 X132.877 Y180.483 E5.40005
G1 X128.965 Y175.592 E5.69168
G1 X128.503 Y174.951 E5.72847
G1 X128.109 Y174.267 E5.76523
G1 X127.786 Y173.546 E5.80201
G1 X127.538 Y172.797 E5.83875
G1 X127.366 Y172.026 E5.87554
G1 X127.273 Y171.242 E5.9123
G1 X127.256 Y170.72 E5.93662
G1 X127.256 Y170.58 E5.94314
G1 X127.296 Y169.791 E5.97992
G1 X127.415 Y169.011 E6.01666
G1 X127.613 Y168.246 E6.05346
G1 X127.887 Y167.506 E6.0902
G1 X128.235 Y166.797 E6.12698
G1 X128.653 Y166.126 E6.16379
G1 X128.965 Y165.708 E6.18808
G1 X132.014 Y161.895 E6.41541
G1 X128.966 Y158.085 E6.64261
G1 X128.505 Y157.444 E6.67937
G1 X128.111 Y156.76 E6.71613
G1 X127.787 Y156.039 E6.75294
G1 X127.539 Y155.29 E6.78967
G1 X127.367 Y154.519 E6.82646
G1 X127.275 Y153.735 E6.86321
G1 X127.257 Y153.212 E6.88758
G1 X127.257 Y153.077 E6.89387
G1 X127.297 Y152.288 E6.93065
G1 X127.416 Y151.508 E6.96739
G1 X127.614 Y150.743 E7.00419
G1 X127.888 Y150.003 E7.04093
G1 X128.236 Y149.294 E7.07771
G1 X128.654 Y148.623 E7.11452
G1 X128.965 Y148.206 E7.13874
G1 X132.877 Y143.313 E7.43045
G1 X133.4 Y142.722 E7.4672
G1 X133.583 Y142.553 E7.4788
G1 X133.583 Y142.057 E7.50189
G1 X133.623 Y141.268 E7.53868
G1 X133.742 Y140.488 E7.57542
G1 X133.94 Y139.723 E7.61221
G1 X134.214 Y138.983 E7.64896
G1 X134.562 Y138.274 E7.68573
G1 X134.98 Y137.603 E7.72255
G1 X135.463 Y136.979 E7.75929
G1 X135.868 Y136.542 E7.78703
G1 X135.985 Y136.425 E7.79474
G0 F6000 X136.267 Y136.707
G1 F1200 X136.839 Y136.193 E7.83055
G1 X137.461 Y135.74 E7.86638
G1 X138.126 Y135.354 E7.90218
G1 X138.828 Y135.039 E7.93801
G1 X139.559 Y134.799 E7.97383
G1 X140.31 Y134.636 E8.00962
G1 X141.075 Y134.552 E8.04545
G1 X141.5 Y134.54 E8.06525
G1 X142.135 Y134.54 E8.09482
G1 X142.517 Y134.456 E8.11303
G1 X143.281 Y134.37 E8.14883
G1 X143.696 Y134.357 E8.16817
G1 X144.504 Y134.354 E8.20579
G1 X146.29 Y134.357 E8.28895
G1 X147.058 Y134.398 E8.32477
G1 X147.818 Y134.519 E8.3606
G1 X147.9 Y134.541 E8.36455
G1 X152.132 Y134.541 E8.56161
G1 X152.501 Y134.459 E8.57921
G1 X153.265 Y134.371 E8.61502
G1 X153.694 Y134.357 E8.63501
G1 X154.709 Y134.353 E8.68227
G1 X156.297 Y134.357 E8.75622
G1 X157.065 Y134.399 E8.79203
G1 X157.824 Y134.52 E8.82782
G1 X158.567 Y134.72 E8.86365
G1 X159.285 Y134.996 E8.89947
G1 X159.971 Y135.344 E8.93529
G1 X160.616 Y135.762 E8.97108
G1 X161.215 Y136.245 E9.00691
G1 X161.471 Y136.5 E9.02373
G1 X161.617 Y136.555 E9.031
G1 X162.303 Y136.902 E9.06679
G1 X162.95 Y137.318 E9.10261
G1 X163.55 Y137.799 E9.13842
G1 X163.86 Y138.091 E9.15825
G1 X163.977 Y138.208 E9.16595
G1 X164.491 Y138.78 E9.20176
G1 X164.944 Y139.402 E9.23759
G1 X165.33 Y140.067 E9.27339
G1 X165.645 Y140.769 E9.30922
G1 X165.885 Y141.5 E9.34505
G1 X166.048 Y142.251 E9.38083
G1 X166.108 Y142.8 E9.40655
G1 X166.81 Y143.561 E9.45476
G1 X170.724 Y148.454 E9.74652
G1 X171.172 Y149.078 E9.78229
G1 X171.554 Y149.746 E9.81812
G1 X171.863 Y150.45 E9.85392
G1 X172.099 Y151.183 E9.88978
G1 X172.257 Y151.935 E9.92556
G1 X172.345 Y153.076 E9.97885
G1 X172.345 Y153.216 E9.98537
G1 X172.305 Y153.984 E10.02118
G1 X172.186 Y154.744 E10.057
G1 X171.988 Y155.487 E10.0928
G1 X171.714 Y156.206 E10.12863
G1 X171.367 Y156.892 E10.16443
G1 X170.724 Y157.838 E10.21769
G1 X167.476 Y161.899 E10.45983
G1 X170.723 Y165.958 E10.70187
G1 X171.171 Y166.583 E10.73767
G1 X171.553 Y167.251 E10.7735
G1 X171.863 Y167.955 E10.80932
G1 X172.098 Y168.687 E10.84512
G1 X172.256 Y169.44 E10.88095
G1 X172.344 Y170.58 E10.93419
G1 X172.344 Y170.72 E10.94071
G1 X172.304 Y171.488 E10.97652
G1 X172.185 Y172.248 E11.01234
G1 X171.987 Y172.991 E11.04814
G1 X171.713 Y173.71 E11.08397
G1 X171.366 Y174.396 E11.11977
G1 X170.723 Y175.342 E11.17303
G1 X166.811 Y180.233 E11.46466
G1 X166.3 Y180.808 E11.50048
G1 X165.732 Y181.327 E11.53631
G1 X165.113 Y181.784 E11.57214
G1 X164.21 Y182.294 E11.62043
G1 X164.128 Y182.333 E11.62465
G1 X163.418 Y182.626 E11.66042
G1 X162.68 Y182.845 E11.69627
G1 X161.924 Y182.986 E11.73207
G1 X160.95 Y183.05 E11.77753
G1 X139.05 Y183.05 E12.79728
G1 X138.282 Y183.01 E12.83309
G1 X137.522 Y182.891 E12.86891
G1 X136.779 Y182.693 E12.90472
G1 X135.872 Y182.333 E12.95015
G1 X135.79 Y182.294 E12.95438
G1 X135.113 Y181.928 E12.99022
G1 X134.478 Y181.493 E13.02606
G1 X133.892 Y180.996 E13.06184
G1 X133.189 Y180.233 E13.11015
G1 X129.277 Y175.342 E13.40178
G1 X128.829 Y174.717 E13.43759
G1 X128.447 Y174.049 E13.47342
G1 X128.137 Y173.345 E13.50924
G1 X127.902 Y172.613 E13.54504
G1 X127.744 Y171.86 E13.58086
G1 X127.656 Y170.72 E13.6341
G1 X127.656 Y170.58 E13.64062
G1 X127.696 Y169.812 E13.67643
G1 X127.815 Y169.052 E13.71225
G1 X128.013 Y168.309 E13.74806
G1 X128.287 Y167.59 E13.78389
G1 X128.634 Y166.904 E13.81968
G1 X129.277 Y165.958 E13.87295
G1 X132.527 Y161.895 E14.11522
G1 X129.279 Y157.835 E14.35732
G1 X128.83 Y157.21 E14.39315
G1 X128.449 Y156.542 E14.42896
G1 X128.139 Y155.838 E14.46478
G1 X127.903 Y155.106 E14.50059
G1 X127.746 Y154.353 E14.53641
G1 X127.657 Y153.212 E14.5897
G1 X127.657 Y153.077 E14.59599
G1 X127.697 Y152.309 E14.6318
G1 X127.816 Y151.549 E14.66762
G1 X128.014 Y150.806 E14.70342
G1 X128.288 Y150.087 E14.73925
G1 X128.635 Y149.401 E14.77505
G1 X129.277 Y148.456 E14.82824
G1 X133.189 Y143.563 E15.11995
G1 X133.7 Y142.988 E15.15577
G1 X133.983 Y142.729 E15.17363
G1 X133.983 Y142.057 E15.20492
G1 X134.023 Y141.289 E15.24073
G1 X134.142 Y140.529 E15.27655
G1 X134.34 Y139.786 E15.31236
G1 X134.614 Y139.067 E15.34819
G1 X134.961 Y138.381 E15.38398
G1 X135.377 Y137.734 E15.4198
G1 X135.858 Y137.134 E15.45561
G1 X136.15 Y136.824 E15.47544
G1 X136.267 Y136.707 E15.48314
G0 F6000 X136.55 Y136.99
G1 F1200 X137.107 Y136.49 E15.518
G1 X137.713 Y136.053 E15.55279
G1 X138.363 Y135.682 E15.58764
G1 X139.049 Y135.383 E15.62248
G1 X139.763 Y135.159 E15.65733
G1 X140.496 Y135.012 E15.69214
G1 X141.5 Y134.94 E15.73901
G1 X142.175 Y134.94 E15.77044
G1 X142.643 Y134.841 E15.79271
G1 X143.698 Y134.757 E15.84199
G1 X144.504 Y134.754 E15.87952
G1 X146.29 Y134.757 E15.96269
G1 X147.037 Y134.798 E15.99752
G1 X147.775 Y134.919 E16.03235
G1 X147.855 Y134.941 E16.03621
G1 X152.172 Y134.941 E16.23723
G1 X152.627 Y134.844 E16.25889
G1 X153.696 Y134.757 E16.30883
G1 X154.708 Y134.753 E16.35596
G1 X156.296 Y134.757 E16.4299
G1 X157.043 Y134.799 E16.46474
G1 X157.781 Y134.92 E16.49956
G1 X158.502 Y135.12 E16.5344
G1 X159.197 Y135.395 E16.5692
G1 X159.86 Y135.743 E16.60407
G1 X160.481 Y136.159 E16.63888
G1 X161.054 Y136.64 E16.67371
G1 X161.251 Y136.845 E16.68695
G1 X161.53 Y136.954 E16.7009
G1 X162.193 Y137.301 E16.73574
G1 X162.816 Y137.716 E16.7706
G1 X163.577 Y138.374 E16.81744
G1 X163.694 Y138.491 E16.82515
G1 X164.194 Y139.048 E16.86
G1 X164.631 Y139.654 E16.89479
G1 X165.002 Y140.304 E16.92964
G1 X165.301 Y140.99 E16.96449
G1 X165.525 Y141.704 E16.99933
G1 X165.672 Y142.437 E17.03414
G1 X165.712 Y142.989 E17.05991
G1 X165.872 Y143.127 E17.06975
G1 X166.497 Y143.81 E17.11286
G1 X170.411 Y148.703 E17.40463
G1 X170.847 Y149.312 E17.4395
G1 X171.215 Y149.963 E17.47432
G1 X171.511 Y150.65 E17.50916
G1 X171.733 Y151.364 E17.54397
G1 X171.876 Y152.098 E17.57879
G1 X171.945 Y153.076 E17.62445
G1 X171.945 Y153.216 E17.63096
G1 X171.905 Y153.963 E17.6658
G1 X171.786 Y154.701 E17.70061
G1 X171.588 Y155.423 E17.73547
G1 X171.315 Y156.119 E17.77028
G1 X170.968 Y156.782 E17.80512
G1 X170.412 Y157.588 E17.85072
G1 X166.965 Y161.899 E18.10774
G1 X170.411 Y166.208 E18.36465
G1 X170.846 Y166.816 E18.39946
G1 X171.214 Y167.467 E18.43428
G1 X171.51 Y168.154 E18.46912
G1 X171.732 Y168.869 E18.50398
G1 X171.875 Y169.603 E18.5388
G1 X171.944 Y170.58 E18.58441
G1 X171.944 Y170.72 E18.59092
G1 X171.904 Y171.467 E18.62576
G1 X171.785 Y172.205 E18.66057
G1 X171.587 Y172.927 E18.69543
G1 X171.314 Y173.623 E18.73024
G1 X170.967 Y174.286 E18.76508
G1 X170.411 Y175.092 E18.81068
G1 X166.499 Y179.983 E19.10231
G1 X166.001 Y180.542 E19.13717
G1 X165.446 Y181.044 E19.17202
G1 X164.841 Y181.484 E19.20685
G1 X164.039 Y181.932 E19.24963
G1 X163.957 Y181.971 E19.25386
G1 X163.265 Y182.256 E19.2887
G1 X162.547 Y182.465 E19.32353
G1 X161.81 Y182.597 E19.35839
G1 X160.95 Y182.65 E19.39851
G1 X139.05 Y182.65 E20.41827
G1 X138.303 Y182.61 E20.4531
G1 X137.565 Y182.491 E20.48791
G1 X136.843 Y182.293 E20.52277
G1 X136.043 Y181.971 E20.56292
G1 X135.961 Y181.932 E20.56715
G1 X135.304 Y181.576 E20.60195
G1 X134.688 Y181.15 E20.63682
G1 X134.122 Y180.662 E20.67162
G1 X133.501 Y179.983 E20.71447
G1 X129.589 Y175.092 E21.0061
G1 X129.154 Y174.484 E21.04091
G1 X128.786 Y173.833 E21.07573
G1 X128.49 Y173.146 E21.11056
G1 X128.268 Y172.431 E21.14543
G1 X128.125 Y171.697 E21.18025
G1 X128.056 Y170.72 E21.22585
G1 X128.056 Y170.58 E21.23237
G1 X128.096 Y169.833 E21.26721
G1 X128.215 Y169.095 E21.30201
G1 X128.413 Y168.373 E21.33687
G1 X128.686 Y167.677 E21.37169
G1 X129.033 Y167.014 E21.40653
G1 X129.589 Y166.208 E21.45213
G1 X133.039 Y161.895 E21.7093
G1 X129.591 Y157.585 E21.96631
G1 X129.156 Y156.977 E22.00113
G1 X128.788 Y156.325 E22.03599
G1 X128.491 Y155.639 E22.0708
G1 X128.27 Y154.924 E22.10564
G1 X128.126 Y154.19 E22.14047
G1 X128.057 Y153.212 E22.18613
G1 X128.057 Y153.077 E22.19241
G1 X128.097 Y152.33 E22.22725
G1 X128.216 Y151.592 E22.26205
G1 X128.414 Y150.87 E22.29691
G1 X128.687 Y150.174 E22.33173
G1 X129.034 Y149.511 E22.36657
G1 X129.59 Y148.706 E22.41213
G1 X133.502 Y143.813 E22.70383
G1 X133.999 Y143.254 E22.73866
G1 X134.383 Y142.907 E22.76276
G1 X134.383 Y142.057 E22.80234
G1 X134.423 Y141.31 E22.83718
G1 X134.542 Y140.572 E22.87198
G1 X134.74 Y139.85 E22.90684
G1 X135.013 Y139.154 E22.94166
G1 X135.36 Y138.491 E22.9765
G1 X135.775 Y137.868 E23.01136
G1 X136.433 Y137.107 E23.0582
G1 X136.55 Y136.99 E23.06591
G0 F6000 X136.833 Y137.273
G1 F1200 X137.374 Y136.789 E23.09971
G1 X137.965 Y136.366 E23.13355
G1 X138.599 Y136.012 E23.16736
G1 X139.268 Y135.729 E23.20119
G1 X139.964 Y135.521 E23.23501
G1 X140.679 Y135.391 E23.26885
G1 X141.5 Y135.34 E23.30715
G1 X142.212 Y135.34 E23.34031
G1 X142.767 Y135.227 E23.36668
G1 X143.699 Y135.157 E23.4102
G1 X144.503 Y135.154 E23.44764
G1 X146.289 Y135.157 E23.5308
G1 X147.014 Y135.198 E23.56462
G1 X147.731 Y135.319 E23.59847
G1 X147.809 Y135.341 E23.60225
G1 X152.207 Y135.341 E23.80704
G1 X152.753 Y135.229 E23.83299
G1 X153.698 Y135.157 E23.87712
G1 X154.707 Y135.153 E23.9241
G1 X156.295 Y135.157 E23.99805
G1 X157.02 Y135.199 E24.03186
G1 X157.736 Y135.32 E24.06568
G1 X158.434 Y135.519 E24.09947
G1 X159.107 Y135.794 E24.13333
G1 X159.745 Y136.141 E24.16714
G1 X160.341 Y136.556 E24.20096
G1 X160.888 Y137.034 E24.23479
G1 X161.028 Y137.186 E24.24441
G1 X161.441 Y137.354 E24.26517
G1 X162.08 Y137.699 E24.29899
G1 X162.677 Y138.113 E24.33281
G1 X163.294 Y138.657 E24.37112
G1 X163.411 Y138.774 E24.37882
G1 X163.895 Y139.315 E24.41262
G1 X164.318 Y139.906 E24.44646
G1 X164.672 Y140.54 E24.48028
G1 X164.955 Y141.209 E24.5141
G1 X165.163 Y141.905 E24.54793
G1 X165.293 Y142.62 E24.58176
G1 X165.328 Y143.187 E24.60822
G1 X165.641 Y143.46 E24.62756
G1 X166.185 Y144.06 E24.66527
G1 X170.099 Y148.953 E24.95703
G1 X170.521 Y149.545 E24.99089
G1 X170.875 Y150.179 E25.0247
G1 X171.158 Y150.848 E25.05852
G1 X171.365 Y151.544 E25.09233
G1 X171.494 Y152.259 E25.12616
G1 X171.545 Y153.076 E25.16428
G1 X171.545 Y153.216 E25.1708
G1 X171.505 Y153.941 E25.20461
G1 X171.386 Y154.658 E25.23845
G1 X171.188 Y155.357 E25.27228
G1 X170.915 Y156.03 E25.3061
G1 X170.57 Y156.669 E25.33991
G1 X170.1 Y157.338 E25.37798
G1 X166.452 Y161.9 E25.64998
G1 X170.098 Y166.458 E25.92176
G1 X170.52 Y167.049 E25.95558
G1 X170.874 Y167.683 E25.98939
G1 X171.157 Y168.352 E26.02321
G1 X171.364 Y169.048 E26.05703
G1 X171.493 Y169.763 E26.09086
G1 X171.544 Y170.58 E26.12897
G1 X171.544 Y170.72 E26.13549
G1 X171.504 Y171.445 E26.1693
G1 X171.385 Y172.162 E26.20315
G1 X171.187 Y172.861 E26.23698
G1 X170.914 Y173.534 E26.27079
G1 X170.569 Y174.173 E26.30461
G1 X170.098 Y174.842 E26.34271
G1 X166.186 Y179.733 E26.63434
G1 X165.702 Y180.275 E26.66817
G1 X165.161 Y180.76 E26.70201
G1 X164.57 Y181.182 E26.73582
G1 X163.867 Y181.571 E26.77323
