;FLAVOR:Marlin
;TIME:3744
;Filament used: 2.285m
;Layer height: 0.2
;MINX:108.72
;MINY:100.077
;MINZ:0.28
;MAXX:206.242
;MAXY:191.849
;MAXZ:2.88
;POSTPROCESSED
;Generated with Cura_SteamEngine 4.12.1
M140 S80
M105
M190 S80
M82 ;absolute extrusion mode
M201 X500.00 Y500.00 Z100.00 E5000.00 ;Setup machine max acceleration
M203 X500.00 Y500.00 Z10.00 E50.00 ;Setup machine max feedrate
M204 P500.00 R1000.00 T500.00 ;Setup Print/Retract/Travel acceleration
M205 X8.00 Y8.00 Z0.40 E5.00 ;Setup Jerk
M220 S100 ;Reset Feedrate
M221 S100 ;Reset Flowrate
M140 S80 ; set bed temp
M190 S80 ; wait for bed temp
G28; home all 
G29;
G92 E0 ;Reset Extruder
;G1 Z2.0 F3000 ;Move Z Axis up
G1 X10.1 Y20 Z0.28 F5000.0 ;Move to start position
M104 S240.0 ; wait for extruder printing temp
M109 S240.0 ; wait for extruder printing temp
G1 X10.1 Y200.0 Z0.28 F1500.0 E15 ;Draw the first line
G1 X10.4 Y200.0 Z0.28 F5000.0 ;Move to side a little
G1 X10.4 Y20 Z0.28 F1500.0 E30 ;Draw the second line
G92 E0 ;Reset Extruder
G1 Z2.0 F3000 ;Move Z Axis up
G92 E0
G92 E0
G1 F1800 E-3
;LAYER_COUNT:14
;LAYER:0
M107
G0 F6000 X121.73 Y118.919 Z0.28
;TYPE:SKIRT
G1 F1800 E0
G1 F1200 X122.226 Y118.427 E0.03253
G1 X122.505 Y118.164 E0.05038
G1 X122.841 Y117.862 E0.07142
G1 X123.163 Y117.588 E0.09111
G1 X123.687 Y117.166 E0.12244
G1 X123.97 Y116.949 E0.13904
G1 X124.299 Y116.708 E0.15803
G1 X124.884 Y116.318 E0.19077
G1 X126.161 Y115.549 E0.26018
G1 X127.213 Y115.02 E0.31501
G1 X128.921 Y114.316 E0.40104
G1 X129.665 Y114.052 E0.4378
G1 X130.053 Y113.947 E0.45651
G1 X131.367 Y113.628 E0.51948
G1 X131.707 Y113.552 E0.5357
G1 X132.16 Y113.466 E0.55717
G1 X132.501 Y113.412 E0.57324
G1 X132.934 Y113.356 E0.59357
G1 X133.674 Y113.281 E0.62821
G1 X134.466 Y113.241 E0.66513
G1 X135.953 Y113.242 E0.73438
G1 X136.657 Y113.279 E0.7672
G1 X136.796 Y112.807 E0.79011
G1 X137.17 Y111.801 E0.84009
G1 X137.787 Y110.437 E0.9098
G1 X138.087 Y109.843 E0.94079
G1 X138.284 Y109.491 E0.95957
G1 X138.427 Y109.246 E0.97278
G1 X138.601 Y108.96 E0.98837
G1 X138.803 Y108.645 E1.00579
G1 X139.185 Y108.08 E1.03755
G1 X139.41 Y107.765 E1.05557
G1 X139.609 Y107.5 E1.071
G1 X140.101 Y106.888 E1.10757
G1 X141.09 Y105.783 E1.17662
G1 X141.749 Y105.13 E1.21982
G1 X142.583 Y104.396 E1.27155
G1 X143.414 Y103.758 E1.32034
G1 X144.912 Y102.761 E1.40413
G1 X145.174 Y102.594 E1.41859
G1 X146.018 Y102.14 E1.46322
G1 X147.378 Y101.513 E1.53295
G1 X147.487 Y101.462 E1.53856
G1 X148.003 Y101.254 E1.56446
G1 X148.305 Y101.145 E1.57941
G1 X148.55 Y101.061 E1.59147
G1 X148.936 Y100.936 E1.61036
G1 X149.301 Y100.828 E1.62809
G1 X150.025 Y100.632 E1.66302
G1 X150.436 Y100.532 E1.68271
G1 X150.769 Y100.461 E1.69857
G1 X150.979 Y100.42 E1.70853
G1 X151.385 Y100.345 E1.72775
G1 X151.696 Y100.294 E1.74243
G1 X152.059 Y100.242 E1.7595
G1 X152.701 Y100.177 E1.78955
G1 X154.193 Y100.088 E1.85915
G1 X154.886 Y100.077 E1.89142
G1 X155.295 Y100.089 E1.91047
G1 X155.652 Y100.108 E1.92712
G1 X156.316 Y100.158 E1.95813
G1 X156.724 Y100.2 E1.97723
G1 X157.121 Y100.251 E1.99586
G1 X157.633 Y100.334 E2.02002
G1 X158.741 Y100.552 E2.0726
G1 X159.528 Y100.75 E2.11039
G1 X160.591 Y101.077 E2.16217
G1 X161.187 Y101.287 E2.1916
G1 X161.849 Y101.551 E2.22478
G1 X162.347 Y101.77 E2.25012
G1 X163.017 Y102.093 E2.28475
G1 X163.368 Y102.273 E2.30312
G1 X163.727 Y102.469 E2.32216
G1 X164.193 Y102.745 E2.34738
G1 X165.137 Y103.349 E2.39957
G1 X165.888 Y103.895 E2.4428
G1 X167.038 Y104.841 E2.51214
G1 X167.609 Y105.361 E2.5481
G1 X168.11 Y105.864 E2.58116
G1 X168.383 Y106.151 E2.5996
G1 X168.625 Y106.42 E2.61645
G1 X168.814 Y106.638 E2.62989
G1 X168.948 Y106.8 E2.63968
G1 X169.37 Y107.323 E2.67097
G1 X169.592 Y107.612 E2.68794
G1 X169.833 Y107.941 E2.70693
G1 X170.223 Y108.526 E2.73967
G1 X170.992 Y109.803 E2.80908
G1 X171.523 Y110.859 E2.86412
G1 X172.232 Y112.582 E2.95087
G1 X172.495 Y113.326 E2.98762
G1 X172.604 Y113.731 E3.00715
G1 X172.956 Y115.199 E3.07744
G1 X173.08 Y115.83 E3.10739
G1 X173.133 Y116.174 E3.12359
G1 X173.184 Y116.574 E3.14237
G1 X173.259 Y117.313 E3.17696
G1 X173.299 Y118.106 E3.21393
G1 X173.299 Y118.677 E3.24052
G1 X174.214 Y118.883 E3.28419
G1 X175.288 Y119.202 E3.33636
G1 X175.923 Y119.421 E3.36764
G1 X176.543 Y119.665 E3.39866
G1 X177.141 Y119.929 E3.4291
G1 X177.946 Y120.326 E3.47089
G1 X178.023 Y120.362 E3.47485
G1 X178.911 Y120.843 E3.52188
G1 X179.847 Y121.431 E3.57335
G1 X180.492 Y121.884 E3.61005
G1 X181.38 Y122.576 E3.66247
G1 X182.083 Y123.194 E3.70606
G1 X183.141 Y124.245 E3.7755
G1 X183.67 Y124.826 E3.81209
G1 X184.118 Y125.371 E3.84494
G1 X184.341 Y125.657 E3.86182
G1 X184.58 Y125.977 E3.88042
G1 X184.904 Y126.445 E3.90693
G1 X185.509 Y127.392 E3.95925
G1 X185.963 Y128.206 E4.00265
G1 X186.61 Y129.549 E4.07207
G1 X187.003 Y130.53 E4.12128
G1 X187.461 Y131.944 E4.19049
G1 X187.717 Y132.964 E4.23945
G1 X187.739 Y133.084 E4.24513
G1 X187.849 Y133.082 E4.25026
G1 X188.257 Y133.095 E4.26927
G1 X188.595 Y133.113 E4.28503
G1 X189.259 Y133.163 E4.31603
G1 X189.648 Y133.202 E4.33424
G1 X190.045 Y133.252 E4.35287
G1 X190.582 Y133.339 E4.3782
G1 X191.69 Y133.558 E4.43079
G1 X192.471 Y133.755 E4.4683
G1 X193.534 Y134.082 E4.52008
G1 X194.127 Y134.29 E4.54935
G1 X194.79 Y134.554 E4.58258
G1 X195.288 Y134.773 E4.60791
G1 X195.965 Y135.099 E4.6429
G1 X196.311 Y135.277 E4.66101
G1 X196.671 Y135.473 E4.6801
G1 X197.15 Y135.756 E4.70601
G1 X198.08 Y136.352 E4.75744
G1 X198.822 Y136.892 E4.80017
G1 X199.976 Y137.84 E4.86971
G1 X200.562 Y138.374 E4.90663
G1 X201.062 Y138.878 E4.93969
G1 X201.346 Y139.179 E4.95896
G1 X201.635 Y139.503 E4.97917
G1 X201.882 Y139.795 E4.99698
G1 X202.31 Y140.325 E5.02871
G1 X202.558 Y140.649 E5.0477
G1 X202.735 Y140.892 E5.0617
G1 X203.155 Y141.514 E5.09665
G1 X203.918 Y142.773 E5.1652
G1 X204.292 Y143.469 E5.20199
G1 X204.46 Y143.848 E5.2213
G1 X205.175 Y145.586 E5.3088
G1 X205.439 Y146.331 E5.34561
G1 X205.545 Y146.728 E5.36474
G1 X205.875 Y148.1 E5.43045
G1 X205.914 Y148.269 E5.43853
G1 X206.02 Y148.813 E5.46433
G1 X206.074 Y149.157 E5.48055
G1 X206.129 Y149.589 E5.50083
G1 X206.203 Y150.327 E5.53536
G1 X206.242 Y151.11 E5.57187
G1 X206.241 Y152.6 E5.64125
G1 X206.2 Y153.389 E5.67804
G1 X206.15 Y153.785 E5.69662
G1 X205.866 Y155.625 E5.78332
G1 X205.634 Y156.656 E5.83252
G1 X205.315 Y157.73 E5.88469
G1 X205.098 Y158.36 E5.91572
G1 X204.853 Y158.984 E5.94694
G1 X204.587 Y159.587 E5.97762
G1 X204.181 Y160.409 E6.02031
G1 X204.159 Y160.457 E6.02277
G1 X203.675 Y161.353 E6.07019
G1 X203.089 Y162.286 E6.12149
G1 X202.634 Y162.934 E6.15836
G1 X201.939 Y163.825 E6.21098
G1 X201.323 Y164.525 E6.2544
G1 X200.273 Y165.582 E6.32378
G1 X199.69 Y166.112 E6.36046
G1 X199.152 Y166.554 E6.39289
G1 X198.866 Y166.778 E6.4098
G1 X198.535 Y167.025 E6.42903
G1 X198.067 Y167.349 E6.45554
G1 X197.127 Y167.949 E6.50746
G1 X196.322 Y168.398 E6.55038
G1 X194.972 Y169.05 E6.62019
G1 X193.983 Y169.446 E6.6698
G1 X192.572 Y169.903 E6.73886
G1 X191.555 Y170.159 E6.7877
G1 X190.087 Y170.424 E6.85716
G1 X189.418 Y170.515 E6.88859
G1 X189.093 Y170.545 E6.90379
G1 X188.84 Y170.564 E6.91561
G1 X188.387 Y170.591 E6.93674
G1 X188.11 Y170.603 E6.94965
G1 X187.776 Y170.611 E6.9652
G1 X187.492 Y170.612 E6.97843
G1 X187.089 Y170.607 E6.9972
G1 X186.728 Y170.595 E7.01401
G1 X186.048 Y170.555 E7.04573
G1 X185.927 Y170.545 E7.05139
G1 X185.832 Y170.865 E7.06693
G1 X185.461 Y171.864 E7.11655
G1 X184.844 Y173.229 E7.1863
G1 X184.543 Y173.825 E7.21739
G1 X184.346 Y174.177 E7.23618
G1 X184.207 Y174.415 E7.24901
G1 X184.034 Y174.7 E7.26454
G1 X183.828 Y175.022 E7.28233
G1 X183.446 Y175.587 E7.31409
G1 X183.221 Y175.902 E7.33212
G1 X183.022 Y176.167 E7.34755
G1 X182.531 Y176.778 E7.38405
G1 X181.545 Y177.88 E7.4529
G1 X180.887 Y178.533 E7.49607
G1 X180.05 Y179.27 E7.548
G1 X179.222 Y179.906 E7.59661
G1 X177.731 Y180.9 E7.68006
G1 X177.4 Y181.109 E7.69828
G1 X177.343 Y181.143 E7.70137
G1 X176.613 Y181.527 E7.73978
G1 X175.253 Y182.154 E7.80952
G1 X175.144 Y182.205 E7.81512
G1 X174.613 Y182.418 E7.84176
G1 X174.309 Y182.527 E7.8568
G1 X174.102 Y182.598 E7.86699
G1 X173.714 Y182.725 E7.886
G1 X173.32 Y182.843 E7.90515
G1 X172.601 Y183.037 E7.93983
G1 X172.191 Y183.136 E7.95947
G1 X171.857 Y183.207 E7.97537
G1 X171.246 Y183.322 E8.00432
G1 X170.935 Y183.373 E8.01899
G1 X170.572 Y183.425 E8.03607
G1 X169.93 Y183.49 E8.06611
G1 X168.437 Y183.579 E8.13576
G1 X167.743 Y183.59 E8.16808
G1 X167.336 Y183.578 E8.18704
G1 X166.98 Y183.559 E8.20364
G1 X166.316 Y183.509 E8.23464
G1 X165.904 Y183.467 E8.25393
G1 X165.501 Y183.415 E8.27285
G1 X164.993 Y183.332 E8.29682
G1 X163.89 Y183.115 E8.34916
G1 X163.103 Y182.917 E8.38695
G1 X162.258 Y182.657 E8.42812
G1 X161.89 Y183.279 E8.46177
G1 X161.517 Y183.852 E8.49361
G1 X161.302 Y184.152 E8.51079
G1 X161.071 Y184.458 E8.52864
G1 X160.609 Y185.04 E8.56325
G1 X160.276 Y185.432 E8.5872
G1 X159.766 Y185.994 E8.62253
G1 X159.187 Y186.568 E8.6605
G1 X158.079 Y187.558 E8.72969
G1 X157.322 Y188.155 E8.77458
G1 X157.09 Y188.312 E8.78762
G1 X155.679 Y189.232 E8.86606
G1 X155.369 Y189.425 E8.88306
G1 X154.531 Y189.866 E8.92715
G1 X153.176 Y190.477 E8.99637
G1 X152.192 Y190.843 E9.04525
G1 X150.772 Y191.265 E9.11423
G1 X149.757 Y191.494 E9.16268
G1 X148.346 Y191.715 E9.22918
G1 X147.867 Y191.775 E9.25166
G1 X147.595 Y191.798 E9.26437
G1 X147.251 Y191.821 E9.28043
G1 X146.872 Y191.837 E9.29809
G1 X146.235 Y191.849 E9.32776
G1 X145.662 Y191.849 E9.35444
G1 X145.26 Y191.834 E9.37317
G1 X144.982 Y191.818 E9.38614
G1 X144.599 Y191.79 E9.40402
G1 X144.125 Y191.741 E9.42621
G1 X143.139 Y191.608 E9.47254
G1 X142.622 Y191.52 E9.49696
G1 X142.186 Y191.431 E9.51768
G1 X141.537 Y191.27 E9.54881
G1 X140.108 Y190.848 E9.61819
G1 X139.102 Y190.474 E9.66817
G1 X137.738 Y189.857 E9.73788
G1 X137.144 Y189.557 E9.76887
G1 X136.792 Y189.36 E9.78765
G1 X136.551 Y189.219 E9.80065
G1 X136.263 Y189.044 E9.81634
G1 X135.941 Y188.838 E9.83414
G1 X135.378 Y188.457 E9.8658
G1 X135.066 Y188.234 E9.88365
G1 X134.801 Y188.035 E9.89909
G1 X134.188 Y187.542 E9.93571
G1 X133.083 Y186.553 E10.00477
G1 X132.429 Y185.894 E10.048
G1 X131.696 Y185.061 E10.09967
G1 X131.057 Y184.227 E10.14859
G1 X130.061 Y182.729 E10.23235
G1 X129.881 Y182.446 E10.24797
G1 X129.441 Y181.624 E10.29138
G1 X128.814 Y180.264 E10.36112
G1 X128.763 Y180.155 E10.36672
G1 X128.552 Y179.63 E10.39307
G1 X128.442 Y179.324 E10.40821
G1 X128.365 Y179.099 E10.41928
G1 X128.24 Y178.715 E10.43809
G1 X128.128 Y178.338 E10.4564
G1 X127.931 Y177.61 E10.49152
G1 X127.833 Y177.209 E10.51074
G1 X127.765 Y176.892 E10.52584
G1 X127.722 Y176.672 E10.53627
G1 X127.65 Y176.282 E10.55474
G1 X127.598 Y175.969 E10.56952
G1 X127.542 Y175.577 E10.58795
G1 X127.477 Y174.926 E10.61842
G1 X127.114 Y174.931 E10.63532
G1 X126.705 Y174.918 E10.65438
G1 X126.377 Y174.901 E10.66967
G1 X125.715 Y174.852 E10.70058
G1 X125.295 Y174.809 E10.72024
G1 X124.891 Y174.757 E10.73921
G1 X124.375 Y174.673 E10.76355
G1 X123.272 Y174.455 E10.8159
G1 X122.491 Y174.258 E10.85341
G1 X121.428 Y173.931 E10.9052
G1 X120.834 Y173.722 E10.93452
G1 X120.169 Y173.457 E10.96785
G1 X119.678 Y173.241 E10.99283
G1 X119.01 Y172.92 E11.02734
G1 X118.64 Y172.73 E11.04671
G1 X118.275 Y172.53 E11.06609
G1 X117.818 Y172.259 E11.09083
G1 X116.887 Y171.663 E11.1423
G1 X116.14 Y171.12 E11.1853
G1 X114.984 Y170.17 E11.25497
G1 X114.409 Y169.648 E11.29114
G1 X113.915 Y169.152 E11.32373
G1 X113.629 Y168.848 E11.34317
G1 X113.332 Y168.516 E11.36391
G1 X113.076 Y168.215 E11.38231
G1 X112.649 Y167.686 E11.41397
G1 X112.423 Y167.393 E11.4312
G1 X112.183 Y167.065 E11.45012
G1 X111.794 Y166.479 E11.48287
G1 X111.026 Y165.202 E11.55226
G1 X110.5 Y164.159 E11.60665
G1 X109.794 Y162.449 E11.6928
G1 X109.53 Y161.704 E11.7296
G1 X109.422 Y161.303 E11.74894
G1 X109.105 Y159.99 E11.81183
G1 X109.033 Y159.67 E11.82711
G1 X108.944 Y159.2 E11.84938
G1 X108.89 Y158.857 E11.86555
G1 X108.835 Y158.435 E11.88537
G1 X108.76 Y157.699 E11.91982
G1 X108.72 Y156.903 E11.95693
G1 X108.721 Y155.413 E12.02631
G1 X108.762 Y154.624 E12.0631
G1 X108.812 Y154.228 E12.08168
G1 X109.096 Y152.388 E12.16837
G1 X109.328 Y151.356 E12.21763
G1 X109.648 Y150.279 E12.26994
G1 X109.867 Y149.644 E12.30122
G1 X110.113 Y149.019 E12.3325
G1 X110.38 Y148.416 E12.36321
G1 X110.784 Y147.6 E12.4056
G1 X110.813 Y147.537 E12.40883
G1 X111.284 Y146.666 E12.45494
G1 X111.868 Y145.734 E12.50615
G1 X112.327 Y145.08 E12.54336
G1 X113.021 Y144.19 E12.59591
G1 X113.644 Y143.484 E12.63976
G1 X114.697 Y142.426 E12.70926
G1 X115.263 Y141.91 E12.74493
G1 X115.799 Y141.468 E12.77728
G1 X116.12 Y141.217 E12.79625
G1 X116.459 Y140.966 E12.81589
G1 X116.894 Y140.666 E12.8405
G1 X117.82 Y140.073 E12.8917
G1 X118.194 Y139.864 E12.91165
G1 X117.869 Y139.158 E12.94784
G1 X117.819 Y139.051 E12.95334
G1 X117.608 Y138.526 E12.97968
G1 X117.498 Y138.22 E12.99483
G1 X117.421 Y137.995 E13.0059
G1 X117.296 Y137.611 E13.0247
G1 X117.183 Y137.232 E13.04312
G1 X116.989 Y136.514 E13.07775
G1 X116.888 Y136.096 E13.09777
G1 X116.817 Y135.761 E13.11372
G1 X116.779 Y135.569 E13.12283
G1 X116.703 Y135.16 E13.1422
G1 X116.655 Y134.872 E13.1558
G1 X116.603 Y134.519 E13.17241
G1 X116.533 Y133.839 E13.20425
G1 X116.445 Y132.34 E13.27417
G1 X116.435 Y131.654 E13.30611
G1 X116.447 Y131.246 E13.32512
G1 X116.466 Y130.896 E13.34144
G1 X116.515 Y130.238 E13.37216
G1 X116.554 Y129.845 E13.39055
G1 X116.605 Y129.439 E13.40961
G1 X116.693 Y128.895 E13.43527
G1 X116.912 Y127.79 E13.48772
G1 X117.106 Y127.018 E13.52479
G1 X117.431 Y125.959 E13.57637
G1 X117.642 Y125.359 E13.60598
G1 X117.909 Y124.689 E13.63957
G1 X118.131 Y124.185 E13.66521
G1 X118.457 Y123.51 E13.70012
G1 X118.631 Y123.171 E13.71786
G1 X118.826 Y122.813 E13.73684
G1 X119.11 Y122.334 E13.76277
G1 X119.707 Y121.403 E13.81427
G1 X120.247 Y120.661 E13.857
G1 X121.197 Y119.505 E13.92668
G1 X121.73 Y118.919 E13.96356
G0 F6000 X122.012 Y119.203
G1 F1200 X122.508 Y118.711 E13.99609
G1 X122.772 Y118.461 E14.01302
G1 X123.108 Y118.159 E14.03406
G1 X123.414 Y117.9 E14.05273
G1 X123.938 Y117.478 E14.08405
G1 X124.206 Y117.271 E14.09982
G1 X124.535 Y117.03 E14.11881
G1 X125.091 Y116.661 E14.14989
G1 X126.368 Y115.892 E14.2193
G1 X127.365 Y115.389 E14.2713
G1 X129.073 Y114.685 E14.35732
G1 X130.147 Y114.336 E14.4099
G1 X131.619 Y113.98 E14.48042
G1 X131.792 Y113.942 E14.48867
G1 X132.223 Y113.861 E14.50909
G1 X132.564 Y113.807 E14.52516
G1 X132.975 Y113.754 E14.54446
G1 X133.715 Y113.679 E14.5791
G1 X134.466 Y113.641 E14.61411
G1 X135.953 Y113.642 E14.68335
G1 X136.944 Y113.719 E14.72963
G1 X137.18 Y112.92 E14.76843
G1 X137.535 Y111.966 E14.81583
G1 X138.152 Y110.602 E14.88554
G1 X138.437 Y110.038 E14.91496
G1 X138.634 Y109.686 E14.93374
G1 X138.769 Y109.454 E14.94624
G1 X138.943 Y109.168 E14.96183
G1 X139.135 Y108.869 E14.97838
G1 X139.517 Y108.304 E15.01013
G1 X139.73 Y108.005 E15.02723
G1 X139.929 Y107.74 E15.04266
G1 X140.399 Y107.155 E15.0776
G1 X141.388 Y106.05 E15.14665
G1 X142.013 Y105.43 E15.18765
G1 X142.847 Y104.696 E15.23938
G1 X143.636 Y104.091 E15.28568
G1 X145.134 Y103.094 E15.36947
G1 X145.385 Y102.934 E15.38333
G1 X146.186 Y102.503 E15.42568
G1 X147.546 Y101.876 E15.49542
G1 X147.686 Y101.811 E15.5026
G1 X148.139 Y101.63 E15.52532
G1 X148.441 Y101.521 E15.54027
G1 X148.673 Y101.442 E15.55168
G1 X149.059 Y101.317 E15.57057
G1 X149.405 Y101.214 E15.58738
G1 X150.129 Y101.018 E15.62231
G1 X150.52 Y100.924 E15.64103
G1 X150.853 Y100.853 E15.65689
G1 X151.052 Y100.813 E15.66634
G1 X151.458 Y100.738 E15.68556
G1 X151.753 Y100.69 E15.69948
G1 X152.116 Y100.638 E15.71656
G1 X152.724 Y100.576 E15.74502
G1 X154.216 Y100.487 E15.81461
G1 X154.874 Y100.477 E15.84526
G1 X155.283 Y100.489 E15.86431
G1 X155.622 Y100.507 E15.88012
G1 X156.286 Y100.557 E15.91112
G1 X156.673 Y100.596 E15.92923
G1 X157.07 Y100.647 E15.94787
G1 X157.556 Y100.726 E15.9708
G1 X158.664 Y100.944 E16.02338
G1 X159.411 Y101.132 E16.05925
G1 X160.474 Y101.459 E16.11104
G1 X161.039 Y101.658 E16.13893
G1 X161.701 Y101.922 E16.17211
G1 X162.174 Y102.13 E16.19618
G1 X162.844 Y102.453 E16.23081
G1 X163.176 Y102.624 E16.2482
G1 X163.535 Y102.82 E16.26724
G1 X163.977 Y103.082 E16.29117
