;FLAVOR:Marlin
;TIME:5348
;Filament used: 3.07717m
;Layer height: 0.2
;MINX:119.538
;MINY:116.078
;MINZ:0.2
;MAXX:180.432
;MAXY:166.8
;MAXZ:31
;Generated with Cura_SteamEngine 4.12.1
M140 S80
M105
M190 S80
M82 ;absolute extrusion mode
M201 X500.00 Y500.00 Z100.00 E5000.00 ;Setup machine max acceleration
M203 X500.00 Y500.00 Z10.00 E50.00 ;Setup machine max feedrate
M204 P500.00 R1000.00 T500.00 ;Setup Print/Retract/Travel acceleration
M205 X8.00 Y8.00 Z0.40 E5.00 ;Setup Jerk
M220 S100 ;Reset Feedrate
M221 S100 ;Reset Flowrate
M140 S80.0 ; set bed temp
M190 S80.0 ; wait for bed temp
G28; home all 
G29;
G92 E0 ;Reset Extruder
G1 Z2.0 F3000 ;Move Z Axis up
G1 X10.1 Y20 Z0.28 F5000.0 ;Move to start position
M104 S230 ; wait for extruder printing temp
M109 S230 ; wait for extruder printing temp
G1 X10.1 Y200.0 Z0.28 F1500.0 E15 ;Draw the first line
G1 X10.4 Y200.0 Z0.28 F5000.0 ;Move to side a little
G1 X10.4 Y20 Z0.28 F1500.0 E30 ;Draw the second line
G92 E0 ;Reset Extruder
G1 Z2.0 F3000 ;Move Z Axis up
G92 E0
G92 E0
G1 F2700 E-5
;LAYER_COUNT:155
;LAYER:0
M107
G0 F6000 X138.784 Y122.377 Z0.2
;TYPE:SKIRT
G1 F2700 E0
G1 F1200 X139.333 Y121.81 E0.02625
G1 X139.937 Y121.301 E0.05252
G1 X140.243 Y121.095 E0.06479
G1 X140.308 Y120.999 E0.06865
G1 X140.817 Y120.395 E0.09492
G1 X141.325 Y119.899 E0.11853
G1 X141.622 Y119.634 E0.13177
G1 X141.705 Y119.567 E0.13532
G1 X142.226 Y119.033 E0.16013
G1 X142.881 Y118.375 E0.19101
G1 X143.466 Y117.844 E0.21729
G1 X144.101 Y117.376 E0.24353
G1 X144.781 Y116.973 E0.26982
G1 X145.497 Y116.642 E0.29605
G1 X146.244 Y116.384 E0.32234
G1 X147.013 Y116.204 E0.34861
G1 X147.796 Y116.102 E0.37487
G1 X148.409 Y116.078 E0.39527
G1 X158.582 Y116.078 E0.73363
G1 X159.371 Y116.118 E0.7599
G1 X160.151 Y116.237 E0.78615
G1 X160.916 Y116.435 E0.81243
G1 X161.656 Y116.709 E0.83868
G1 X162.365 Y117.057 E0.86494
G1 X163.036 Y117.475 E0.89124
G1 X163.66 Y117.958 E0.91748
G1 X164.233 Y118.501 E0.94374
G1 X164.748 Y119.1 E0.97001
G1 X165.199 Y119.748 E0.99627
G1 X165.583 Y120.439 E1.02256
G1 X165.895 Y121.164 E1.04882
G1 X166.132 Y121.917 E1.07507
G1 X166.291 Y122.691 E1.10135
G1 X166.376 Y123.568 E1.13066
G1 X166.501 Y126.708 E1.23518
G1 X166.492 Y127.497 E1.26142
G1 X166.404 Y128.282 E1.2877
G1 X166.237 Y129.054 E1.31397
G1 X165.992 Y129.805 E1.34024
G1 X165.673 Y130.527 E1.36649
G1 X165.283 Y131.213 E1.39274
G1 X164.825 Y131.857 E1.41902
G1 X164.304 Y132.451 E1.4453
G1 X163.726 Y132.989 E1.47157
G1 X163.448 Y133.2 E1.48317
G1 X172.628 Y133.2 E1.7885
G1 X173.417 Y133.24 E1.81478
G1 X174.197 Y133.359 E1.84102
G1 X174.962 Y133.557 E1.8673
G1 X175.702 Y133.831 E1.89355
G1 X176.411 Y134.179 E1.91982
G1 X177.082 Y134.597 E1.94611
G1 X177.706 Y135.08 E1.97236
G1 X178.279 Y135.623 E1.99861
G1 X178.794 Y136.222 E2.02489
G1 X179.245 Y136.87 E2.05115
G1 X179.629 Y137.561 E2.07744
G1 X179.941 Y138.286 E2.10369
G1 X180.178 Y139.039 E2.12995
G1 X180.337 Y139.813 E2.15623
G1 X180.424 Y140.746 E2.18739
G1 X180.432 Y141.124 E2.19997
G1 X180.431 Y150.948 E2.52672
G1 X180.416 Y151.441 E2.54312
G1 X180.331 Y152.226 E2.56938
G1 X180.168 Y152.999 E2.59566
G1 X179.927 Y153.751 E2.62192
G1 X179.611 Y154.475 E2.6482
G1 X179.224 Y155.163 E2.67445
G1 X178.77 Y155.808 E2.70069
G1 X178.252 Y156.405 E2.72698
G1 X177.677 Y156.946 E2.75323
G1 X177.05 Y157.426 E2.7795
G1 X176.377 Y157.84 E2.80578
G1 X175.666 Y158.184 E2.83205
G1 X174.924 Y158.454 E2.85831
G1 X174.159 Y158.648 E2.88456
G1 X173.458 Y158.752 E2.90813
G1 X173.458 Y159 E2.91638
G1 X173.418 Y159.789 E2.94265
G1 X173.299 Y160.569 E2.9689
G1 X173.101 Y161.334 E2.99518
G1 X172.827 Y162.074 E3.02143
G1 X172.479 Y162.783 E3.04769
G1 X172.061 Y163.454 E3.07399
G1 X171.578 Y164.078 E3.10023
G1 X171.035 Y164.651 E3.12649
G1 X170.436 Y165.166 E3.15276
G1 X169.788 Y165.617 E3.17902
G1 X169.097 Y166.001 E3.20532
G1 X168.372 Y166.313 E3.23157
G1 X167.619 Y166.55 E3.25782
G1 X166.845 Y166.709 E3.2841
G1 X166.06 Y166.79 E3.31035
G1 X165.658 Y166.8 E3.32373
G1 X160.116 Y166.8 E3.50805
G1 X159.533 Y166.77 E3.52747
G1 X159.141 Y166.8 E3.54055
G1 X156.457 Y166.8 E3.62982
G1 X155.982 Y166.776 E3.64564
G1 X155.878 Y166.787 E3.64911
G1 X155.435 Y166.8 E3.66385
G1 X149.91 Y166.8 E3.84762
G1 X149.121 Y166.76 E3.87389
G1 X148.341 Y166.641 E3.90014
G1 X147.576 Y166.443 E3.92642
G1 X146.836 Y166.169 E3.95266
G1 X146.127 Y165.821 E3.97893
G1 X145.456 Y165.403 E4.00523
G1 X144.832 Y164.92 E4.03147
G1 X144.259 Y164.377 E4.05773
G1 X143.744 Y163.778 E4.084
G1 X143.499 Y163.426 E4.09827
G1 X143.096 Y163.735 E4.11516
G1 X142.446 Y164.183 E4.14141
G1 X141.969 Y164.455 E4.15968
G1 X140.366 Y165.295 E4.21987
G1 X139.649 Y165.626 E4.24614
G1 X138.902 Y165.882 E4.2724
G1 X138.133 Y166.062 E4.29867
G1 X137.177 Y166.174 E4.33068
G1 X133.4 Y166.383 E4.4565
G1 X132.61 Y166.387 E4.48277
G1 X131.824 Y166.311 E4.50904
G1 X131.05 Y166.155 E4.5353
G1 X130.638 Y166.038 E4.54954
G1 X129 Y165.525 E4.60663
G1 X128.259 Y165.252 E4.6329
G1 X127.626 Y164.946 E4.65628
G1 X126.609 Y164.397 E4.69472
G1 X125.934 Y163.987 E4.72099
G1 X125.312 Y163.518 E4.7469
G1 X124.514 Y162.851 E4.78149
G1 X123.837 Y162.212 E4.81245
G1 X122.745 Y161.052 E4.86544
G1 X122.233 Y160.451 E4.8917
G1 X121.959 Y160.07 E4.90731
G1 X121.581 Y159.51 E4.92978
G1 X121.173 Y158.834 E4.95604
G1 X120.956 Y158.398 E4.97224
G1 X120.468 Y157.334 E5.01118
G1 X120.176 Y156.6 E5.03745
G1 X120.02 Y156.086 E5.05532
G1 X119.801 Y155.262 E5.08367
G1 X119.637 Y154.489 E5.10996
G1 X119.552 Y153.704 E5.13622
G1 X119.539 Y153.26 E5.15099
G1 X119.538 Y149.147 E5.28779
G1 X119.54 Y148.313 E5.31553
G1 X119.582 Y147.525 E5.34178
G1 X119.713 Y146.699 E5.36959
G1 X119.838 Y146.115 E5.38946
G1 X120.042 Y145.353 E5.41569
G1 X120.21 Y144.883 E5.43229
G1 X120.524 Y144.088 E5.46072
G1 X120.998 Y143.098 E5.49723
G1 X121.496 Y142.222 E5.53074
G1 X121.921 Y141.556 E5.55702
G1 X122.322 Y141.039 E5.57878
G1 X123.058 Y140.169 E5.61669
G1 X123.603 Y139.588 E5.64318
G1 X124.621 Y138.608 E5.69018
G1 X125.217 Y138.09 E5.71644
G1 X125.552 Y137.841 E5.73033
G1 X126.071 Y137.477 E5.75141
G1 X127.05 Y136.892 E5.78934
G1 X128.02 Y136.405 E5.82544
G1 X128.552 Y136.163 E5.84488
G1 X131.761 Y134.843 E5.96029
G1 X133.441 Y134.158 E6.02063
G1 X133.759 Y134.036 E6.03196
G1 X133.731 Y133.671 E6.04414
G1 X133.752 Y132.881 E6.07042
G1 X133.852 Y132.098 E6.09668
G1 X133.857 Y132.076 E6.09743
G1 X133.852 Y131.738 E6.10867
G1 X133.919 Y130.951 E6.13494
G1 X134.065 Y130.175 E6.1612
G1 X134.289 Y129.418 E6.18746
G1 X134.589 Y128.687 E6.21374
G1 X134.961 Y127.99 E6.24002
G1 X135.401 Y127.335 E6.26626
G1 X135.518 Y127.194 E6.27236
G1 X135.622 Y126.912 E6.28235
G1 X135.783 Y126.509 E6.29679
G1 X135.9 Y126.239 E6.30658
G1 X136.25 Y125.531 E6.33284
G1 X136.67 Y124.862 E6.35912
G1 X137.185 Y124.206 E6.38686
G1 X138.784 Y122.377 E6.46766
G0 F6000 X139.085 Y122.64
G1 F1200 X139.621 Y122.088 E6.49325
G1 X140.211 Y121.595 E6.51882
G1 X140.526 Y121.384 E6.53143
G1 X140.942 Y120.854 E6.55384
G1 X141.591 Y120.197 E6.58456
G1 X141.888 Y119.932 E6.5978
G1 X141.976 Y119.861 E6.60156
G1 X142.509 Y119.315 E6.62693
G1 X143.164 Y118.657 E6.65781
G1 X143.735 Y118.141 E6.68341
G1 X144.355 Y117.687 E6.70897
G1 X145.02 Y117.3 E6.73456
G1 X145.721 Y116.983 E6.76015
G1 X146.451 Y116.742 E6.78572
G1 X147.203 Y116.577 E6.81132
G1 X147.967 Y116.491 E6.8369
G1 X148.409 Y116.478 E6.8516
G1 X158.582 Y116.478 E7.18996
G1 X159.35 Y116.518 E7.21554
G1 X160.11 Y116.637 E7.24112
G1 X160.853 Y116.835 E7.2667
G1 X161.572 Y117.109 E7.29229
G1 X162.258 Y117.456 E7.31786
G1 X162.905 Y117.872 E7.34344
G1 X163.505 Y118.353 E7.36902
G1 X164.052 Y118.894 E7.39461
G1 X164.54 Y119.489 E7.4202
G1 X164.963 Y120.131 E7.44577
G1 X165.318 Y120.814 E7.47138
G1 X165.599 Y121.529 E7.49693
G1 X165.805 Y122.271 E7.52254
G1 X165.933 Y123.029 E7.54811
G1 X165.976 Y123.584 E7.56662
G1 X166.101 Y126.724 E7.67114
G1 X166.092 Y127.493 E7.69672
G1 X166.003 Y128.257 E7.7223
G1 X165.835 Y129.007 E7.74787
G1 X165.59 Y129.736 E7.77345
G1 X165.27 Y130.436 E7.79905
G1 X164.88 Y131.099 E7.82463
G1 X164.423 Y131.718 E7.85022
G1 X163.904 Y132.286 E7.87581
G1 X163.33 Y132.797 E7.90137
G1 X162.705 Y133.245 E7.92695
G1 X162.668 Y133.266 E7.92836
G1 X162.68 Y133.541 E7.93752
G1 X162.676 Y133.6 E7.93948
G1 X172.628 Y133.6 E8.27049
G1 X173.396 Y133.64 E8.29607
G1 X174.156 Y133.759 E8.32165
G1 X174.899 Y133.957 E8.34723
G1 X175.618 Y134.231 E8.37282
G1 X176.304 Y134.578 E8.39839
G1 X176.951 Y134.994 E8.42397
G1 X177.551 Y135.475 E8.44955
G1 X178.098 Y136.016 E8.47514
G1 X178.586 Y136.611 E8.50073
G1 X179.009 Y137.253 E8.5263
G1 X179.364 Y137.936 E8.55191
G1 X179.645 Y138.651 E8.57746
G1 X179.851 Y139.393 E8.60307
G1 X179.979 Y140.151 E8.62864
G1 X180.024 Y140.759 E8.64892
G1 X180.032 Y141.124 E8.66106
G1 X180.031 Y150.948 E8.98781
G1 X180.016 Y151.418 E9.00345
G1 X179.933 Y152.183 E9.02904
G1 X179.771 Y152.935 E9.05462
G1 X179.531 Y153.666 E9.08022
G1 X179.217 Y154.368 E9.10579
G1 X178.832 Y155.034 E9.13138
G1 X178.38 Y155.656 E9.15695
G1 X177.866 Y156.228 E9.18253
G1 X177.295 Y156.743 E9.2081
G1 X176.673 Y157.196 E9.2337
G1 X176.008 Y157.583 E9.25929
G1 X175.307 Y157.898 E9.28485
G1 X174.576 Y158.139 E9.31045
G1 X173.825 Y158.303 E9.33602
G1 X173.058 Y158.387 E9.36168
G1 X173.058 Y159 E9.38207
G1 X173.018 Y159.768 E9.40765
G1 X172.899 Y160.528 E9.43323
G1 X172.701 Y161.271 E9.45881
G1 X172.427 Y161.99 E9.4844
G1 X172.08 Y162.676 E9.50997
G1 X171.664 Y163.323 E9.53555
G1 X171.183 Y163.923 E9.56113
G1 X170.642 Y164.47 E9.58672
G1 X170.047 Y164.958 E9.61231
G1 X169.405 Y165.381 E9.63788
G1 X168.722 Y165.736 E9.66349
G1 X168.007 Y166.017 E9.68904
G1 X167.265 Y166.223 E9.71465
G1 X166.507 Y166.351 E9.74022
G1 X165.658 Y166.4 E9.7685
G1 X160.116 Y166.4 E9.95283
G1 X159.608 Y166.374 E9.96975
G1 X159.141 Y166.4 E9.9853
G1 X156.457 Y166.4 E10.07457
G1 X155.911 Y166.372 E10.09276
G1 X155.435 Y166.4 E10.10862
G1 X149.91 Y166.4 E10.29238
G1 X149.142 Y166.36 E10.31796
G1 X148.382 Y166.241 E10.34354
G1 X147.639 Y166.043 E10.36912
G1 X146.92 Y165.769 E10.39471
G1 X146.234 Y165.422 E10.42028
G1 X145.587 Y165.006 E10.44586
G1 X144.987 Y164.525 E10.47144
G1 X144.44 Y163.984 E10.49703
G1 X143.952 Y163.389 E10.52262
G1 X143.595 Y162.848 E10.54418
G1 X142.853 Y163.417 E10.57528
G1 X142.219 Y163.853 E10.60087
G1 X141.784 Y164.101 E10.61753
G1 X140.181 Y164.941 E10.67772
G1 X139.482 Y165.262 E10.7033
G1 X138.753 Y165.509 E10.7289
G1 X138.003 Y165.678 E10.75448
G1 X137.155 Y165.775 E10.78286
G1 X133.378 Y165.984 E10.90868
G1 X132.609 Y165.986 E10.93426
G1 X131.843 Y165.909 E10.95986
G1 X130.757 Y165.657 E10.99694
G1 X129.119 Y165.144 E11.05403
G1 X128.398 Y164.876 E11.07962
G1 X127.816 Y164.594 E11.10113
G1 X126.799 Y164.045 E11.13956
G1 X126.142 Y163.645 E11.16515
G1 X125.568 Y163.211 E11.18908
G1 X124.77 Y162.544 E11.22367
G1 X124.128 Y161.938 E11.25304
G1 X123.036 Y160.778 E11.30603
G1 X122.538 Y160.192 E11.3316
G1 X122.291 Y159.846 E11.34574
G1 X121.913 Y159.286 E11.36821
G1 X121.516 Y158.627 E11.3938
G1 X121.32 Y158.231 E11.4085
G1 X120.832 Y157.167 E11.44743
G1 X120.548 Y156.452 E11.47302
G1 X120.406 Y155.983 E11.48932
G1 X120.187 Y155.159 E11.51768
G1 X120.029 Y154.406 E11.54327
G1 X119.939 Y153.26 E11.5815
G1 X119.938 Y149.148 E11.71827
G1 X119.94 Y148.314 E11.74601
G1 X119.982 Y147.546 E11.77159
G1 X120.104 Y146.783 E11.79729
G1 X120.229 Y146.199 E11.81715
G1 X120.429 Y145.456 E11.84274
G1 X120.582 Y145.03 E11.8578
G1 X120.896 Y144.235 E11.88623
G1 X121.346 Y143.296 E11.92086
G1 X121.844 Y142.42 E11.95437
G1 X122.258 Y141.772 E11.97995
G1 X122.627 Y141.298 E11.99993
G1 X123.363 Y140.428 E12.03783
G1 X123.881 Y139.876 E12.06301
G1 X124.899 Y138.896 E12.11001
G1 X125.782 Y138.169 E12.14805
G1 X126.301 Y137.805 E12.16913
G1 X127.23 Y137.25 E12.20513
G1 X128.2 Y136.763 E12.24123
G1 X128.705 Y136.533 E12.25968
G1 X131.912 Y135.213 E12.37503
G1 X133.438 Y134.59 E12.42985
G1 X134.036 Y134.359 E12.45117
G1 X134.173 Y134.289 E12.45629
G1 X134.129 Y133.521 E12.48188
G1 X134.165 Y132.753 E12.50745
G1 X134.258 Y132.137 E12.52817
G1 X134.254 Y131.692 E12.54297
G1 X134.326 Y130.926 E12.56856
G1 X134.478 Y130.172 E12.59414
G1 X134.707 Y129.438 E12.61972
G1 X135.012 Y128.731 E12.64533
G1 X135.387 Y128.06 E12.67089
G1 X135.831 Y127.432 E12.69647
G1 X135.875 Y127.382 E12.69869
G1 X135.997 Y127.05 E12.71045
G1 X136.15 Y126.668 E12.72414
G1 X136.267 Y126.398 E12.73393
G1 X136.609 Y125.709 E12.75951
G1 X137.021 Y125.059 E12.78511
G1 X137.486 Y124.469 E12.81009
G1 X139.085 Y122.64 E12.89089
G0 F6000 X139.386 Y122.904
G1 F1200 X139.908 Y122.368 E12.91578
G1 X140.484 Y121.89 E12.94067
G1 X140.824 Y121.664 E12.95425
G1 X141.092 Y121.297 E12.96937
G1 X141.858 Y120.496 E13.00623
G1 X142.155 Y120.231 E13.01947
G1 X142.25 Y120.155 E13.02352
G1 X142.793 Y119.598 E13.04939
G1 X143.448 Y118.94 E13.08027
G1 X144.003 Y118.438 E13.10516
G1 X144.609 Y117.999 E13.13005
G1 X145.258 Y117.627 E13.15493
G1 X145.943 Y117.327 E13.1798
G1 X146.656 Y117.101 E13.20468
G1 X147.389 Y116.953 E13.22955
G1 X148.409 Y116.878 E13.26357
G1 X158.582 Y116.878 E13.60192
G1 X159.329 Y116.918 E13.6268
G1 X160.067 Y117.037 E13.65166
G1 X160.789 Y117.235 E13.67656
G1 X161.485 Y117.508 E13.70143
G1 X162.148 Y117.855 E13.72632
G1 X162.771 Y118.27 E13.75122
G1 X163.345 Y118.749 E13.77608
G1 X163.866 Y119.286 E13.80097
G1 X164.325 Y119.876 E13.82583
G1 X164.72 Y120.512 E13.85073
G1 X165.044 Y121.186 E13.87561
G1 X165.294 Y121.891 E13.90048
G1 X165.468 Y122.619 E13.92538
G1 X165.576 Y123.6 E13.95821
G1 X165.701 Y126.74 E14.06272
G1 X165.691 Y127.488 E14.08761
G1 X165.601 Y128.23 E14.11247
G1 X165.433 Y128.959 E14.13735
G1 X165.187 Y129.666 E14.16225
G1 X164.867 Y130.342 E14.18712
G1 X164.478 Y130.98 E14.21197
G1 X164.022 Y131.574 E14.23688
G1 X163.505 Y132.115 E14.26177
G1 X162.934 Y132.598 E14.28664
G1 X162.314 Y133.017 E14.31153
G1 X162.26 Y133.046 E14.31357
G1 X162.278 Y133.641 E14.33337
G1 X162.251 Y134 E14.34534
G1 X172.628 Y134 E14.69049
G1 X173.375 Y134.04 E14.71537
G1 X174.113 Y134.159 E14.74023
G1 X174.835 Y134.357 E14.76513
G1 X175.531 Y134.63 E14.79
G1 X176.194 Y134.977 E14.81488
G1 X176.817 Y135.392 E14.83978
G1 X177.391 Y135.871 E14.86465
G1 X177.912 Y136.408 E14.88953
G1 X178.371 Y136.998 E14.9144
G1 X178.766 Y137.634 E14.9393
G1 X179.09 Y138.308 E14.96417
G1 X179.34 Y139.013 E14.98905
G1 X179.514 Y139.741 E15.01394
G1 X179.624 Y140.772 E15.04843
G1 X179.632 Y141.124 E15.06014
G1 X179.631 Y150.948 E15.38689
G1 X179.617 Y151.396 E15.4018
G1 X179.535 Y152.139 E15.42666
G1 X179.374 Y152.87 E15.45155
G1 X179.136 Y153.579 E15.47643
G1 X178.823 Y154.259 E15.50133
G1 X178.44 Y154.901 E15.52619
G1 X177.991 Y155.499 E15.55106
G1 X177.48 Y156.046 E15.57596
G1 X176.914 Y156.535 E15.60084
G1 X176.299 Y156.96 E15.6257
G1 X175.642 Y157.318 E15.65059
G1 X174.95 Y157.604 E15.67549
G1 X174.232 Y157.814 E15.70037
G1 X173.496 Y157.946 E15.72524
G1 X172.658 Y157.998 E15.75317
G1 X172.658 Y159 E15.7865
G1 X172.618 Y159.747 E15.81138
G1 X172.499 Y160.485 E15.83624
G1 X172.301 Y161.207 E15.86114
G1 X172.028 Y161.903 E15.88601
G1 X171.681 Y162.566 E15.91089
G1 X171.266 Y163.189 E15.93579
G1 X170.787 Y163.763 E15.96066
G1 X170.25 Y164.284 E15.98554
G1 X169.66 Y164.743 E16.01041
G1 X169.024 Y165.138 E16.03531
G1 X168.35 Y165.462 E16.06018
G1 X167.645 Y165.712 E16.08506
G1 X166.917 Y165.886 E16.10995
G1 X166.175 Y165.981 E16.13483
G1 X165.658 Y166 E16.15204
G1 X160.116 Y166 E16.33637
G1 X159.681 Y165.977 E16.35086
G1 X159.639 Y165.982 E16.35226
G1 X159.141 Y166 E16.36884
G1 X156.457 Y166 E16.45811
G1 X156.005 Y165.976 E16.47316
G1 X155.435 Y166 E16.49214
G1 X149.91 Y166 E16.6759
G1 X149.163 Y165.96 E16.70078
G1 X148.425 Y165.841 E16.72565
G1 X147.703 Y165.643 E16.75055
G1 X147.007 Y165.37 E16.77541
G1 X146.344 Y165.023 E16.8003
G1 X145.721 Y164.608 E16.8252
G1 X145.147 Y164.129 E16.85006
G1 X144.626 Y163.592 E16.87495
G1 X144.167 Y163.002 E16.89981
G1 X143.772 Y162.366 E16.92471
G1 X143.702 Y162.254 E16.92911
G1 X143.443 Y162.461 E16.94013
G1 X142.61 Y163.1 E16.97505
G1 X141.993 Y163.523 E16.99993
G1 X141.598 Y163.746 E17.01502
G1 X139.995 Y164.586 E17.07521
