;FLAVOR:Marlin
;TIME:9275
;Filament used: 5.50992m
;Layer height: 0.2
;MINX:127.45
;MINY:126.45
;MINZ:0.2
;MAXX:172.55
;MAXY:173.55
;MAXZ:34
;Generated with Cura_SteamEngine 4.12.1
M140 S95
M105
M190 S95
M82 ;absolute extrusion mode
M201 X500.00 Y500.00 Z100.00 E5000.00 ;Setup machine max acceleration
M203 X500.00 Y500.00 Z10.00 E50.00 ;Setup machine max feedrate
M204 P500.00 R1000.00 T500.00 ;Setup Print/Retract/Travel acceleration
M205 X8.00 Y8.00 Z0.40 E5.00 ;Setup Jerk
M220 S100 ;Reset Feedrate
M221 S100 ;Reset Flowrate
M140 S95 ; set bed temp
M190 S95 ; wait for bed temp
G28; home all 
G29;
G92 E0 ;Reset Extruder
G1 Z2.0 F3000 ;Move Z Axis up
G1 X10.1 Y20 Z0.28 F5000.0 ;Move to start position
M104 S230 ; wait for extruder printing temp
M109 S230 ; wait for extruder printing temp
G1 X10.1 Y200.0 Z0.28 F1500.0 E15 ;Draw the first line
G1 X10.4 Y200.0 Z0.28 F5000.0 ;Move to side a little
G1 X10.4 Y20 Z0.28 F1500.0 E30 ;Draw the second line
G92 E0 ;Reset Extruder
G1 Z2.0 F3000 ;Move Z Axis up
G92 E0
G92 E0
G1 F2700 E-3
;LAYER_COUNT:170
;LAYER:0
M107
G0 F6000 X129.873 Y128.599 Z0.2
;TYPE:SKIRT
G1 F2700 E0
G1 F1200 X130.472 Y128.084 E0.02627
G1 X131.12 Y127.633 E0.05253
G1 X131.811 Y127.249 E0.07883
G1 X132.536 Y126.937 E0.10508
G1 X133.289 Y126.7 E0.13133
G1 X134.063 Y126.541 E0.15761
G1 X134.848 Y126.46 E0.18386
G1 X135.25 Y126.45 E0.19724
G1 X164.75 Y126.45 E1.17841
G1 X165.539 Y126.49 E1.20469
G1 X166.319 Y126.609 E1.23093
G1 X167.084 Y126.807 E1.25721
G1 X167.824 Y127.081 E1.28346
G1 X168.533 Y127.429 E1.30973
G1 X169.204 Y127.847 E1.33602
G1 X169.828 Y128.33 E1.36227
G1 X170.401 Y128.873 E1.38852
G1 X170.916 Y129.472 E1.4148
G1 X171.367 Y130.12 E1.44105
G1 X171.751 Y130.811 E1.46735
G1 X172.063 Y131.536 E1.4936
G1 X172.3 Y132.289 E1.51986
G1 X172.459 Y133.063 E1.54614
G1 X172.54 Y133.848 E1.57238
G1 X172.55 Y134.25 E1.58576
G1 X172.55 Y163.921 E2.57262
G1 X172.51 Y164.71 E2.5989
G1 X172.391 Y165.49 E2.62514
G1 X172.193 Y166.255 E2.65142
G1 X171.919 Y166.995 E2.67767
G1 X171.571 Y167.704 E2.70394
G1 X171.153 Y168.375 E2.73023
G1 X170.67 Y168.999 E2.75648
G1 X170.265 Y169.436 E2.77629
G1 X168.436 Y171.265 E2.86232
G1 X167.85 Y171.795 E2.8886
G1 X167.214 Y172.262 E2.91485
G1 X166.534 Y172.663 E2.9411
G1 X165.816 Y172.993 E2.96738
G1 X165.069 Y173.248 E2.99364
G1 X164.3 Y173.427 E3.0199
G1 X163.516 Y173.527 E3.04619
G1 X162.919 Y173.55 E3.06606
G1 X159.522 Y173.549 E3.17904
G1 X158.733 Y173.509 E3.20532
G1 X157.952 Y173.389 E3.2316
G1 X157.188 Y173.191 E3.25785
G1 X156.448 Y172.917 E3.28409
G1 X155.739 Y172.569 E3.31036
G1 X155.068 Y172.151 E3.33666
G1 X154.444 Y171.668 E3.3629
G1 X154.009 Y171.264 E3.38265
G1 X153.51 Y170.765 E3.40612
G1 X152.98 Y170.179 E3.4324
G1 X152.513 Y169.543 E3.45864
G1 X152.112 Y168.863 E3.4849
G1 X151.782 Y168.145 E3.51118
G1 X151.579 Y167.55 E3.53209
G1 X148.425 Y167.55 E3.63699
G1 X148.416 Y167.586 E3.63823
G1 X148.142 Y168.327 E3.6645
G1 X147.794 Y169.036 E3.69077
G1 X147.377 Y169.706 E3.71702
G1 X146.893 Y170.33 E3.74329
G1 X146.489 Y170.766 E3.76306
G1 X145.99 Y171.265 E3.78653
G1 X145.404 Y171.795 E3.81281
G1 X144.768 Y172.262 E3.83905
G1 X144.088 Y172.663 E3.86531
G1 X143.37 Y172.993 E3.89159
G1 X142.623 Y173.248 E3.91784
G1 X141.854 Y173.427 E3.9441
G1 X141.07 Y173.527 E3.97039
G1 X140.475 Y173.55 E3.9902
G1 X137.079 Y173.55 E4.10315
G1 X136.29 Y173.51 E4.12942
G1 X135.51 Y173.391 E4.15567
G1 X134.745 Y173.193 E4.18195
G1 X134.005 Y172.919 E4.20819
G1 X133.296 Y172.571 E4.23446
G1 X132.625 Y172.153 E4.26076
G1 X132.001 Y171.67 E4.287
G1 X131.564 Y171.265 E4.30682
G1 X129.735 Y169.436 E4.39285
G1 X129.205 Y168.85 E4.41913
G1 X128.738 Y168.214 E4.44537
G1 X128.337 Y167.534 E4.47163
G1 X128.007 Y166.816 E4.49791
G1 X127.752 Y166.069 E4.52416
G1 X127.573 Y165.3 E4.55043
G1 X127.473 Y164.516 E4.57671
G1 X127.45 Y163.921 E4.59652
G1 X127.45 Y134.25 E5.58338
G1 X127.49 Y133.461 E5.60965
G1 X127.609 Y132.681 E5.6359
G1 X127.807 Y131.916 E5.66218
G1 X128.081 Y131.176 E5.68843
G1 X128.429 Y130.467 E5.71469
G1 X128.847 Y129.796 E5.74099
G1 X129.33 Y129.172 E5.76723
G1 X129.873 Y128.599 E5.79349
G0 F6000 X130.266 Y128.78
G1 F1200 X130.861 Y128.292 E5.81908
G1 X131.503 Y127.869 E5.84466
G1 X132.186 Y127.514 E5.87026
G1 X132.901 Y127.233 E5.89581
G1 X133.643 Y127.027 E5.92142
G1 X134.401 Y126.899 E5.94699
G1 X135.25 Y126.85 E5.97527
G1 X164.75 Y126.85 E6.95645
G1 X165.518 Y126.89 E6.98203
G1 X166.278 Y127.009 E7.00761
G1 X167.021 Y127.207 E7.03319
G1 X167.74 Y127.481 E7.05878
G1 X168.426 Y127.828 E7.08435
G1 X169.073 Y128.244 E7.10993
G1 X169.673 Y128.725 E7.13551
G1 X170.22 Y129.266 E7.1611
G1 X170.708 Y129.861 E7.18669
G1 X171.131 Y130.503 E7.21226
G1 X171.486 Y131.186 E7.23787
G1 X171.767 Y131.901 E7.26342
G1 X171.973 Y132.643 E7.28903
G1 X172.101 Y133.401 E7.3146
G1 X172.15 Y134.25 E7.34288
G1 X172.15 Y163.921 E8.32974
G1 X172.11 Y164.689 E8.35532
G1 X171.991 Y165.449 E8.38091
G1 X171.793 Y166.192 E8.40648
G1 X171.519 Y166.911 E8.43207
G1 X171.172 Y167.597 E8.45764
G1 X170.756 Y168.244 E8.48323
G1 X170.275 Y168.844 E8.5088
G1 X169.983 Y169.154 E8.52297
G1 X168.154 Y170.983 E8.609
G1 X167.582 Y171.497 E8.63458
G1 X166.96 Y171.95 E8.66017
G1 X166.295 Y172.336 E8.68574
G1 X165.593 Y172.651 E8.71134
G1 X164.862 Y172.891 E8.73693
G1 X164.111 Y173.054 E8.76248
G1 X163.346 Y173.138 E8.78808
G1 X162.919 Y173.15 E8.80229
G1 X159.522 Y173.149 E8.91527
G1 X158.754 Y173.109 E8.94085
G1 X157.994 Y172.989 E8.96644
G1 X157.251 Y172.791 E8.99202
G1 X156.532 Y172.517 E9.01761
G1 X155.846 Y172.17 E9.04318
G1 X155.199 Y171.754 E9.06876
G1 X154.599 Y171.272 E9.09436
G1 X154.291 Y170.982 E9.10843
G1 X153.792 Y170.483 E9.1319
G1 X153.278 Y169.911 E9.15748
G1 X152.825 Y169.289 E9.18307
G1 X152.439 Y168.624 E9.20865
G1 X152.124 Y167.922 E9.23424
G1 X151.884 Y167.191 E9.25983
G1 X151.875 Y167.15 E9.26122
G1 X148.116 Y167.15 E9.38625
G1 X148.016 Y167.524 E9.39913
G1 X147.742 Y168.242 E9.42469
G1 X147.395 Y168.929 E9.45029
G1 X146.979 Y169.575 E9.47584
G1 X146.498 Y170.175 E9.50142
G1 X146.207 Y170.484 E9.51554
G1 X145.708 Y170.983 E9.53901
G1 X145.136 Y171.497 E9.56458
G1 X144.514 Y171.95 E9.59018
G1 X143.849 Y172.336 E9.61575
G1 X143.147 Y172.651 E9.64134
G1 X142.416 Y172.891 E9.66693
G1 X141.665 Y173.054 E9.69249
G1 X140.9 Y173.138 E9.71809
G1 X140.475 Y173.15 E9.73223
G1 X137.079 Y173.15 E9.84518
G1 X136.311 Y173.11 E9.87076
G1 X135.551 Y172.991 E9.89635
G1 X134.808 Y172.793 E9.92192
G1 X134.089 Y172.519 E9.94751
G1 X133.403 Y172.172 E9.97308
G1 X132.756 Y171.756 E9.99867
G1 X132.156 Y171.275 E10.02424
G1 X131.846 Y170.983 E10.03841
G1 X130.017 Y169.154 E10.12444
G1 X129.503 Y168.582 E10.15002
G1 X129.05 Y167.96 E10.17561
G1 X128.664 Y167.295 E10.20118
G1 X128.349 Y166.593 E10.22677
G1 X128.109 Y165.862 E10.25236
G1 X127.946 Y165.111 E10.27792
G1 X127.862 Y164.346 E10.30352
G1 X127.85 Y163.921 E10.31766
G1 X127.85 Y134.25 E11.30452
G1 X127.89 Y133.482 E11.3301
G1 X128.009 Y132.722 E11.35569
G1 X128.207 Y131.979 E11.38126
G1 X128.481 Y131.26 E11.40685
G1 X128.828 Y130.574 E11.43242
G1 X129.244 Y129.927 E11.45801
G1 X129.725 Y129.327 E11.48358
G1 X130.266 Y128.78 E11.50917
G0 F6000 X130.658 Y128.966
G1 F1200 X131.248 Y128.507 E11.53403
G1 X131.884 Y128.112 E11.55894
G1 X132.558 Y127.788 E11.58381
G1 X133.263 Y127.538 E11.60869
G1 X133.991 Y127.364 E11.63358
G1 X134.733 Y127.269 E11.65846
G1 X135.25 Y127.25 E11.67567
G1 X164.75 Y127.25 E12.65684
G1 X165.497 Y127.29 E12.68173
G1 X166.235 Y127.409 E12.70659
G1 X166.957 Y127.607 E12.73149
G1 X167.653 Y127.88 E12.75636
G1 X168.316 Y128.227 E12.78124
G1 X168.939 Y128.642 E12.80614
G1 X169.513 Y129.121 E12.83101
G1 X170.034 Y129.658 E12.85589
G1 X170.493 Y130.248 E12.88076
G1 X170.888 Y130.884 E12.90566
G1 X171.212 Y131.558 E12.93053
G1 X171.462 Y132.263 E12.95541
G1 X171.636 Y132.991 E12.9803
G1 X171.731 Y133.733 E13.00518
G1 X171.75 Y134.25 E13.02239
G1 X171.75 Y163.921 E14.00925
G1 X171.71 Y164.668 E14.03413
G1 X171.591 Y165.406 E14.059
G1 X171.393 Y166.128 E14.0839
G1 X171.12 Y166.824 E14.10876
G1 X170.773 Y167.487 E14.13365
G1 X170.358 Y168.11 E14.15855
G1 X169.7 Y168.871 E14.19201
G1 X167.871 Y170.7 E14.27804
G1 X167.314 Y171.2 E14.30294
G1 X166.708 Y171.637 E14.32779
G1 X166.058 Y172.008 E14.35268
G1 X165.372 Y172.307 E14.37757
G1 X164.658 Y172.531 E14.40246
G1 X163.925 Y172.678 E14.42732
G1 X162.919 Y172.75 E14.46087
G1 X159.522 Y172.749 E14.57385
G1 X158.775 Y172.709 E14.59873
G1 X158.037 Y172.589 E14.6236
G1 X157.315 Y172.391 E14.6485
G1 X156.619 Y172.118 E14.67337
G1 X155.956 Y171.771 E14.69826
G1 X155.334 Y171.356 E14.72313
G1 X154.574 Y170.699 E14.75654
G1 X154.075 Y170.2 E14.78001
G1 X153.575 Y169.643 E14.80491
G1 X153.138 Y169.037 E14.82976
G1 X152.767 Y168.387 E14.85465
G1 X152.468 Y167.701 E14.87954
G1 X152.244 Y166.987 E14.90443
G1 X152.196 Y166.75 E14.91247
G1 X147.811 Y166.75 E15.05832
G1 X147.617 Y167.459 E15.08276
G1 X147.343 Y168.155 E15.10764
G1 X146.997 Y168.818 E15.13252
G1 X146.582 Y169.441 E15.15741
G1 X145.924 Y170.201 E15.19085
G1 X145.425 Y170.7 E15.21432
G1 X144.868 Y171.2 E15.23922
G1 X144.262 Y171.637 E15.26407
G1 X143.612 Y172.008 E15.28896
G1 X142.926 Y172.307 E15.31385
G1 X142.212 Y172.531 E15.33874
G1 X141.479 Y172.678 E15.3636
G1 X140.475 Y172.75 E15.39708
G1 X137.079 Y172.75 E15.51003
G1 X136.332 Y172.71 E15.53491
G1 X135.594 Y172.591 E15.55978
G1 X134.872 Y172.393 E15.58468
G1 X134.176 Y172.12 E15.60954
G1 X133.513 Y171.773 E15.63443
G1 X132.89 Y171.358 E15.65933
G1 X132.129 Y170.7 E15.69279
G1 X130.3 Y168.871 E15.77882
G1 X129.8 Y168.314 E15.80372
G1 X129.363 Y167.708 E15.82857
G1 X128.992 Y167.058 E15.85346
G1 X128.693 Y166.372 E15.87835
G1 X128.469 Y165.658 E15.90324
G1 X128.322 Y164.925 E15.9281
G1 X128.25 Y163.921 E15.96158
G1 X128.25 Y134.25 E16.94844
G1 X128.29 Y133.503 E16.97332
G1 X128.409 Y132.765 E16.99819
G1 X128.607 Y132.043 E17.02309
G1 X128.88 Y131.347 E17.04795
G1 X129.227 Y130.684 E17.07284
G1 X129.642 Y130.061 E17.09774
G1 X130.121 Y129.487 E17.1226
G1 X130.658 Y128.966 E17.14749
G0 F6000 X130.515 Y129.652
G1 F1200 X131.049 Y129.159 E17.17166
G1 X131.634 Y128.729 E17.19581
G1 X132.263 Y128.365 E17.21998
G1 X132.928 Y128.072 E17.24415
G1 X133.621 Y127.854 E17.26831
G1 X134.333 Y127.714 E17.29245
G1 X135.25 Y127.65 E17.32302
G1 X164.75 Y127.65 E18.3042
G1 X165.475 Y127.69 E18.32835
G1 X166.192 Y127.809 E18.35252
G1 X166.891 Y128.007 E18.37668
G1 X167.564 Y128.28 E18.40084
G1 X168.203 Y128.625 E18.42499
G1 X168.8 Y129.039 E18.44916
G1 X169.348 Y129.515 E18.4733
G1 X169.841 Y130.049 E18.49747
G1 X170.271 Y130.634 E18.52162
G1 X170.635 Y131.263 E18.54579
G1 X170.928 Y131.928 E18.56996
G1 X171.146 Y132.621 E18.59412
G1 X171.286 Y133.333 E18.61826
G1 X171.35 Y134.25 E18.64883
G1 X171.35 Y163.921 E19.63569
G1 X171.31 Y164.646 E19.65984
G1 X171.191 Y165.363 E19.68402
G1 X170.993 Y166.062 E19.70818
G1 X170.72 Y166.735 E19.73234
G1 X170.375 Y167.374 E19.75649
G1 X169.961 Y167.971 E19.78065
G1 X169.417 Y168.588 E19.80801
G1 X167.588 Y170.417 E19.89404
G1 X167.047 Y170.901 E19.91819
G1 X166.456 Y171.324 E19.94236
G1 X165.822 Y171.678 E19.96651
G1 X165.153 Y171.961 E19.99067
G1 X164.457 Y172.169 E20.01483
G1 X163.742 Y172.299 E20.039
G1 X162.919 Y172.35 E20.06643
G1 X159.522 Y172.349 E20.17941
G1 X158.797 Y172.309 E20.20356
G1 X158.08 Y172.189 E20.22774
G1 X157.381 Y171.992 E20.2519
G1 X156.708 Y171.718 E20.27606
G1 X156.07 Y171.373 E20.30019
G1 X155.472 Y170.959 E20.32438
G1 X154.857 Y170.416 E20.35167
G1 X154.358 Y169.917 E20.37514
G1 X153.874 Y169.376 E20.39928
G1 X153.451 Y168.785 E20.42345
G1 X153.097 Y168.151 E20.44761
G1 X152.814 Y167.482 E20.47177
G1 X152.606 Y166.786 E20.49593
G1 X152.527 Y166.35 E20.51066
G1 X147.472 Y166.35 E20.67879
G1 X147.414 Y166.694 E20.6904
G1 X147.217 Y167.393 E20.71455
G1 X146.944 Y168.066 E20.73871
G1 X146.598 Y168.705 E20.76288
G1 X146.185 Y169.302 E20.78702
G1 X145.641 Y169.918 E20.81435
G1 X145.142 Y170.417 E20.83783
G1 X144.601 Y170.901 E20.86197
G1 X144.01 Y171.324 E20.88614
G1 X143.376 Y171.678 E20.91029
G1 X142.707 Y171.961 E20.93445
G1 X142.011 Y172.169 E20.95861
G1 X141.296 Y172.299 E20.98278
G1 X140.475 Y172.35 E21.01014
G1 X137.079 Y172.35 E21.1231
G1 X136.354 Y172.31 E21.14725
G1 X135.637 Y172.191 E21.17142
G1 X134.938 Y171.993 E21.19558
G1 X134.265 Y171.72 E21.21974
G1 X133.626 Y171.375 E21.24389
G1 X133.029 Y170.961 E21.26806
G1 X132.412 Y170.417 E21.29541
G1 X130.583 Y168.588 E21.38144
G1 X130.099 Y168.047 E21.40559
G1 X129.676 Y167.456 E21.42976
G1 X129.322 Y166.822 E21.45391
G1 X129.039 Y166.153 E21.47807
G1 X128.831 Y165.457 E21.50223
G1 X128.701 Y164.742 E21.5264
G1 X128.65 Y163.921 E21.55376
G1 X128.65 Y134.25 E22.54062
G1 X128.69 Y133.525 E22.56478
G1 X128.809 Y132.808 E22.58895
G1 X129.007 Y132.109 E22.61311
G1 X129.28 Y131.436 E22.63727
G1 X129.625 Y130.797 E22.66142
G1 X130.039 Y130.2 E22.68558
G1 X130.515 Y129.652 E22.70973
G0 F6000 X130.909 Y129.823
G1 F1200 X131.439 Y129.359 E22.73316
G1 X132.018 Y128.959 E22.75656
G1 X132.639 Y128.627 E22.77998
G1 X133.293 Y128.367 E22.80339
G1 X133.973 Y128.183 E22.82682
G1 X134.669 Y128.077 E22.85024
G1 X135.25 Y128.05 E22.86958
G1 X164.75 Y128.05 E23.85076
G1 X165.453 Y128.09 E23.87418
G1 X166.147 Y128.209 E23.8976
G1 X166.822 Y128.407 E23.92099
G1 X167.471 Y128.679 E23.9444
G1 X168.085 Y129.024 E23.96782
G1 X168.656 Y129.435 E23.99122
G1 X169.177 Y129.909 E24.01465
G1 X169.641 Y130.439 E24.03808
G1 X170.041 Y131.018 E24.06148
G1 X170.373 Y131.639 E24.0849
G1 X170.633 Y132.293 E24.10831
G1 X170.817 Y132.973 E24.13174
G1 X170.923 Y133.669 E24.15516
G1 X170.95 Y134.25 E24.1745
G1 X170.95 Y163.921 E25.16137
G1 X170.91 Y164.624 E25.18478
G1 X170.791 Y165.318 E25.2082
G1 X170.593 Y165.993 E25.2316
G1 X170.321 Y166.642 E25.25501
G1 X169.976 Y167.256 E25.27843
G1 X169.565 Y167.827 E25.30183
G1 X169.134 Y168.305 E25.32324
G1 X167.305 Y170.134 E25.40927
G1 X166.78 Y170.603 E25.43268
G1 X166.205 Y171.009 E25.45609
G1 X165.587 Y171.347 E25.47952
G1 X164.936 Y171.614 E25.50292
G1 X164.258 Y171.804 E25.52634
G1 X163.563 Y171.917 E25.54976
G1 X162.919 Y171.95 E25.57121
G1 X159.522 Y171.949 E25.68419
G1 X158.819 Y171.909 E25.70761
G1 X158.126 Y171.789 E25.73101
G1 X157.45 Y171.592 E25.75443
G1 X156.801 Y171.319 E25.77784
G1 X156.187 Y170.974 E25.80127
G1 X155.616 Y170.562 E25.82469
G1 X155.14 Y170.133 E25.846
G1 X154.641 Y169.634 E25.86947
G1 X154.172 Y169.109 E25.89289
G1 X153.766 Y168.534 E25.9163
G1 X153.428 Y167.916 E25.93973
G1 X153.161 Y167.265 E25.96313
G1 X152.971 Y166.587 E25.98655
G1 X152.867 Y165.95 E26.00802
G1 X147.134 Y165.95 E26.1987
G1 X147.014 Y166.649 E26.22228
G1 X146.817 Y167.324 E26.24567
G1 X146.544 Y167.974 E26.26912
G1 X146.2 Y168.587 E26.2925
G1 X145.788 Y169.158 E26.31592
G1 X145.358 Y169.635 E26.33728
G1 X144.859 Y170.134 E26.36075
G1 X144.334 Y170.603 E26.38416
G1 X143.759 Y171.009 E26.40758
G1 X143.141 Y171.347 E26.431
G1 X142.49 Y171.614 E26.45441
G1 X141.812 Y171.804 E26.47783
G1 X141.117 Y171.917 E26.50125
G1 X140.475 Y171.95 E26.52263
G1 X137.079 Y171.95 E26.63558
G1 X136.376 Y171.91 E26.659
G1 X135.682 Y171.791 E26.68242
G1 X135.007 Y171.593 E26.70581
G1 X134.358 Y171.321 E26.72922
G1 X133.744 Y170.976 E26.75264
G1 X133.173 Y170.565 E26.77604
G1 X132.695 Y170.134 E26.79745
G1 X130.866 Y168.305 E26.88348
G1 X130.397 Y167.78 E26.90689
G1 X129.991 Y167.205 E26.93031
G1 X129.653 Y166.587 E26.95373
G1 X129.386 Y165.936 E26.97714
G1 X129.196 Y165.258 E27.00056
G1 X129.083 Y164.563 E27.02398
G1 X129.05 Y163.921 E27.04536
G1 X129.05 Y134.25 E28.03222
G1 X129.09 Y133.547 E28.05564
G1 X129.209 Y132.853 E28.07906
G1 X129.407 Y132.178 E28.10245
G1 X129.679 Y131.529 E28.12586
G1 X130.024 Y130.915 E28.14928
G1 X130.435 Y130.344 E28.17268
G1 X130.909 Y129.823 E28.19611
G0 F6000 X131.303 Y130.001
G1 F1200 X131.828 Y129.567 E28.21877
G1 X132.4 Y129.198 E28.24141
G1 X133.012 Y128.899 E28.26406
G1 X133.654 Y128.674 E28.28669
G1 X134.319 Y128.525 E28.30935
G1 X135.25 Y128.45 E28.34042
G1 X164.75 Y128.45 E29.32159
G1 X165.43 Y128.49 E29.34425
G1 X166.1 Y128.609 E29.36688
G1 X166.752 Y128.806 E29.38954
