;FLAVOR:Marlin
;TIME:4470
;Filament used: 2.6464m
;Layer height: 0.2
;MINX:109.787
;MINY:117.277
;MINZ:0.2
;MAXX:190.213
;MAXY:182.722
;MAXZ:3
;Generated with Cura_SteamEngine 4.12.1
M140 S95
M105
M190 S95
M82 ;absolute extrusion mode
M201 X500.00 Y500.00 Z100.00 E5000.00 ;Setup machine max acceleration
M203 X500.00 Y500.00 Z10.00 E50.00 ;Setup machine max feedrate
M204 P500.00 R1000.00 T500.00 ;Setup Print/Retract/Travel acceleration
M205 X8.00 Y8.00 Z0.40 E5.00 ;Setup Jerk
M220 S100 ;Reset Feedrate
M221 S100 ;Reset Flowrate
M140 S95 ; set bed temp
M190 S95 ; wait for bed temp
G28; home all 
G29;
G92 E0 ;Reset Extruder
G1 Z2.0 F3000 ;Move Z Axis up
G1 X10.1 Y20 Z0.28 F5000.0 ;Move to start position
M104 S230 ; wait for extruder printing temp
M109 S230 ; wait for extruder printing temp
G1 X10.1 Y200.0 Z0.28 F1500.0 E15 ;Draw the first line
G1 X10.4 Y200.0 Z0.28 F5000.0 ;Move to side a little
G1 X10.4 Y20 Z0.28 F1500.0 E30 ;Draw the second line
G92 E0 ;Reset Extruder
G1 Z2.0 F3000 ;Move Z Axis up
G92 E0
G92 E0
G1 F2700 E-3
;LAYER_COUNT:15
;LAYER:0
M107
G0 F6000 X124.971 Y123.554 Z0.2
;TYPE:SKIRT
G1 F2700 E0
G1 F1200 X128.974 Y119.557 E0.18815
G1 X129.56 Y119.028 E0.21441
G1 X130.197 Y118.561 E0.24068
G1 X130.878 Y118.161 E0.26694
G1 X131.595 Y117.832 E0.29318
G1 X132.343 Y117.577 E0.31947
G1 X133.112 Y117.399 E0.34572
G1 X133.895 Y117.299 E0.37197
G1 X134.491 Y117.277 E0.39181
G1 X178.422 Y117.308 E1.85296
G1 X179.21 Y117.349 E1.87921
G1 X179.991 Y117.469 E1.90549
G1 X180.755 Y117.667 E1.93174
G1 X181.495 Y117.942 E1.95799
G1 X182.204 Y118.29 E1.98426
G1 X182.874 Y118.708 E2.01053
G1 X183.499 Y119.191 E2.0368
G1 X183.994 Y119.656 E2.05939
G1 X187.931 Y123.598 E2.24469
G1 X188.46 Y124.184 E2.27095
G1 X188.927 Y124.82 E2.29719
G1 X189.327 Y125.501 E2.32346
G1 X189.657 Y126.219 E2.34974
G1 X189.912 Y126.966 E2.376
G1 X190.091 Y127.735 E2.40226
G1 X190.19 Y128.519 E2.42854
G1 X190.213 Y129.117 E2.44844
G1 X190.189 Y161.619 E3.52947
G1 X190.148 Y162.407 E3.55571
G1 X190.028 Y163.188 E3.58199
G1 X189.83 Y163.952 E3.60824
G1 X189.555 Y164.693 E3.63453
G1 X189.207 Y165.401 E3.66077
G1 X188.789 Y166.071 E3.68703
G1 X188.306 Y166.696 E3.71331
G1 X187.775 Y167.255 E3.73895
G1 X173.835 Y180.564 E4.37998
G1 X173.237 Y181.079 E4.40622
G1 X172.59 Y181.532 E4.43249
G1 X171.901 Y181.917 E4.45875
G1 X171.176 Y182.23 E4.48501
G1 X170.423 Y182.468 E4.51128
G1 X169.65 Y182.629 E4.53754
G1 X168.864 Y182.711 E4.56382
G1 X168.444 Y182.722 E4.5778
G1 X160.444 Y182.717 E4.84388
G1 X159.655 Y182.677 E4.87015
G1 X158.875 Y182.557 E4.8964
G1 X158.111 Y182.358 E4.92266
G1 X157.37 Y182.084 E4.94894
G1 X156.661 Y181.736 E4.97521
G1 X155.991 Y181.318 E5.00147
G1 X155.856 Y181.213 E5.00716
G1 X150.026 Y181.21 E5.20107
G1 X149.727 Y181.428 E5.21337
G1 X149.045 Y181.828 E5.23967
G1 X148.327 Y182.156 E5.26593
G1 X147.579 Y182.41 E5.2922
G1 X146.809 Y182.586 E5.31847
G1 X146.026 Y182.685 E5.34472
G1 X145.461 Y182.706 E5.36352
G1 X144.815 Y182.707 E5.38501
G1 X117.581 Y182.686 E6.29082
G1 X116.792 Y182.645 E6.3171
G1 X116.012 Y182.525 E6.34334
G1 X115.248 Y182.327 E6.36959
G1 X114.507 Y182.052 E6.39588
G1 X113.798 Y181.704 E6.42215
G1 X113.128 Y181.286 E6.44842
G1 X112.504 Y180.802 E6.47468
G1 X111.932 Y180.258 E6.50094
G1 X111.418 Y179.659 E6.52719
G1 X110.967 Y179.011 E6.55345
G1 X110.584 Y178.32 E6.57972
G1 X110.272 Y177.594 E6.60601
G1 X110.036 Y176.841 E6.63225
G1 X109.877 Y176.067 E6.65853
G1 X109.797 Y175.282 E6.68478
G1 X109.787 Y174.881 E6.69812
G1 X109.793 Y165.681 E7.00411
G1 X109.833 Y164.892 E7.03039
G1 X109.954 Y164.112 E7.05664
G1 X110.152 Y163.347 E7.08292
G1 X110.426 Y162.607 E7.10917
G1 X110.774 Y161.898 E7.13544
G1 X111.192 Y161.228 E7.1617
G1 X111.676 Y160.604 E7.18797
G1 X112.22 Y160.032 E7.21423
G1 X112.819 Y159.517 E7.2405
G1 X113.468 Y159.066 E7.26679
G1 X114.158 Y158.683 E7.29303
G1 X114.884 Y158.372 E7.3193
G1 X115.637 Y158.135 E7.34556
G1 X116.411 Y157.976 E7.37184
G1 X117.196 Y157.896 E7.39808
G1 X117.598 Y157.886 E7.41146
G1 X122.075 Y157.889 E7.56036
G1 X122.494 Y157.848 E7.57437
G1 X122.611 Y157.755 E7.57934
G1 X122.621 Y157.722 E7.58048
G1 X122.661 Y157.312 E7.59419
G1 X122.682 Y129.068 E8.53359
G1 X122.723 Y128.28 E8.55983
G1 X122.843 Y127.499 E8.58611
G1 X123.041 Y126.735 E8.61236
G1 X123.316 Y125.994 E8.63865
G1 X123.664 Y125.286 E8.66489
G1 X124.082 Y124.616 E8.69115
G1 X124.565 Y123.991 E8.71743
G1 X124.971 Y123.554 E8.73727
G0 F6000 X125.253 Y123.837
G1 F1200 X129.256 Y119.84 E8.92541
G1 X129.828 Y119.326 E8.95099
G1 X130.45 Y118.874 E8.97656
G1 X131.116 Y118.488 E9.00217
G1 X131.818 Y118.174 E9.02774
G1 X132.549 Y117.935 E9.05332
G1 X133.301 Y117.772 E9.07892
G1 X134.065 Y117.689 E9.10448
G1 X134.49 Y117.677 E9.11862
G1 X178.421 Y117.708 E10.57977
G1 X179.189 Y117.749 E10.60535
G1 X179.949 Y117.869 E10.63094
G1 X180.692 Y118.067 E10.65651
G1 X181.411 Y118.341 E10.68211
G1 X182.097 Y118.688 E10.70768
G1 X182.743 Y119.105 E10.73325
G1 X183.343 Y119.587 E10.75885
G1 X183.708 Y119.936 E10.77564
G1 X187.648 Y123.88 E10.96106
G1 X188.162 Y124.452 E10.98664
G1 X188.615 Y125.074 E11.01223
G1 X189 Y125.74 E11.03782
G1 X189.315 Y126.442 E11.06341
G1 X189.555 Y127.172 E11.08897
G1 X189.717 Y127.924 E11.11456
G1 X189.801 Y128.689 E11.14015
G1 X189.813 Y129.116 E11.15436
G1 X189.789 Y161.618 E12.23538
G1 X189.748 Y162.387 E12.26099
G1 X189.628 Y163.146 E12.28655
G1 X189.43 Y163.889 E12.31213
G1 X189.156 Y164.608 E12.33772
G1 X188.808 Y165.294 E12.3633
G1 X188.392 Y165.941 E12.38889
G1 X187.91 Y166.54 E12.41446
G1 X187.499 Y166.965 E12.43412
G1 X173.559 Y180.274 E13.07515
G1 X172.976 Y180.776 E13.10074
G1 X172.344 Y181.214 E13.12631
G1 X171.67 Y181.584 E13.15189
G1 X170.961 Y181.883 E13.17748
G1 X170.225 Y182.106 E13.20306
G1 X169.469 Y182.251 E13.22866
G1 X168.444 Y182.322 E13.26283
G1 X160.444 Y182.317 E13.52891
G1 X159.676 Y182.277 E13.55449
G1 X158.917 Y182.157 E13.58005
G1 X158.173 Y181.958 E13.60567
G1 X157.455 Y181.684 E13.63123
G1 X156.768 Y181.337 E13.65683
G1 X156.122 Y180.92 E13.6824
G1 X155.989 Y180.813 E13.68808
G1 X149.896 Y180.81 E13.89073
G1 X149.474 Y181.116 E13.90807
G1 X148.807 Y181.5 E13.93367
G1 X148.105 Y181.813 E13.95923
G1 X147.373 Y182.051 E13.98483
G1 X146.621 Y182.213 E14.01042
G1 X145.857 Y182.295 E14.03597
G1 X145.461 Y182.306 E14.04915
G1 X144.815 Y182.307 E14.07064
G1 X117.581 Y182.286 E14.97644
G1 X116.813 Y182.245 E15.00202
G1 X116.053 Y182.125 E15.02761
G1 X115.31 Y181.927 E15.05319
G1 X114.592 Y181.653 E15.07875
G1 X113.906 Y181.305 E15.10433
G1 X113.259 Y180.888 E15.12994
G1 X112.659 Y180.407 E15.15551
G1 X112.113 Y179.866 E15.18108
G1 X111.626 Y179.27 E15.20668
G1 X111.203 Y178.628 E15.23225
G1 X110.849 Y177.945 E15.25783
G1 X110.568 Y177.229 E15.28342
G1 X110.362 Y176.488 E15.309
G1 X110.235 Y175.729 E15.33459
G1 X110.187 Y174.881 E15.36284
G1 X110.193 Y165.681 E15.66884
G1 X110.233 Y164.913 E15.69441
G1 X110.353 Y164.153 E15.72001
G1 X110.552 Y163.41 E15.74559
G1 X110.826 Y162.692 E15.77115
G1 X111.173 Y162.005 E15.79675
G1 X111.59 Y161.359 E15.82232
G1 X112.072 Y160.759 E15.84792
G1 X112.613 Y160.213 E15.87348
G1 X113.208 Y159.725 E15.89908
G1 X113.85 Y159.302 E15.92465
G1 X114.533 Y158.948 E15.95024
G1 X115.249 Y158.667 E15.97582
G1 X115.99 Y158.462 E16.00139
G1 X116.749 Y158.334 E16.02699
G1 X117.598 Y158.286 E16.05527
G1 X122.094 Y158.289 E16.20481
G1 X122.572 Y158.242 E16.22079
G1 X122.774 Y158.159 E16.22805
G1 X122.931 Y158.003 E16.23541
G1 X123.015 Y157.803 E16.24263
G1 X123.061 Y157.33 E16.25843
G1 X123.082 Y129.069 E17.1984
G1 X123.123 Y128.3 E17.22401
G1 X123.243 Y127.541 E17.24957
G1 X123.441 Y126.798 E17.27514
G1 X123.715 Y126.079 E17.30074
G1 X124.063 Y125.393 E17.32632
G1 X124.479 Y124.746 E17.3519
G1 X124.961 Y124.147 E17.37748
G1 X125.253 Y123.837 E17.39164
G0 F6000 X125.536 Y124.121
G1 F1200 X129.539 Y120.124 E17.57979
G1 X130.096 Y119.624 E17.60468
G1 X130.703 Y119.187 E17.62956
G1 X131.353 Y118.817 E17.65444
G1 X132.039 Y118.518 E17.67933
G1 X132.753 Y118.295 E17.70421
G1 X133.486 Y118.149 E17.72906
G1 X134.49 Y118.077 E17.76254
G1 X178.421 Y118.108 E19.22369
G1 X179.168 Y118.149 E19.24858
G1 X179.906 Y118.268 E19.27344
G1 X180.628 Y118.467 E19.29835
G1 X181.324 Y118.741 E19.32323
G1 X181.987 Y119.087 E19.3481
G1 X182.609 Y119.503 E19.37299
G1 X183.422 Y120.215 E19.40893
G1 X187.365 Y124.163 E19.59452
G1 X187.864 Y124.72 E19.61939
G1 X188.302 Y125.327 E19.64429
G1 X188.672 Y125.977 E19.66916
G1 X188.971 Y126.663 E19.69405
G1 X189.195 Y127.376 E19.71891
G1 X189.341 Y128.11 E19.7438
G1 X189.413 Y129.116 E19.77735
G1 X189.389 Y161.618 E20.85837
G1 X189.348 Y162.365 E20.88325
G1 X189.228 Y163.104 E20.90815
G1 X189.03 Y163.825 E20.93302
G1 X188.756 Y164.521 E20.9579
G1 X188.41 Y165.184 E20.98277
G1 X187.994 Y165.806 E21.00766
G1 X187.515 Y166.38 E21.03253
G1 X187.223 Y166.676 E21.04635
G1 X173.283 Y179.985 E21.68738
G1 X172.715 Y180.472 E21.71227
G1 X172.098 Y180.895 E21.73715
G1 X171.44 Y181.251 E21.76203
G1 X170.748 Y181.534 E21.7869
G1 X170.029 Y181.741 E21.81178
G1 X169.292 Y181.871 E21.83667
G1 X168.445 Y181.922 E21.8649
G1 X160.445 Y181.917 E22.13098
G1 X159.698 Y181.877 E22.15586
G1 X158.959 Y181.757 E22.18076
G1 X158.238 Y181.559 E22.20563
G1 X157.542 Y181.285 E22.23051
G1 X156.879 Y180.938 E22.25539
G1 X156.257 Y180.523 E22.28026
G1 X156.13 Y180.413 E22.28585
G1 X149.768 Y180.41 E22.49745
G1 X149.222 Y180.802 E22.51981
G1 X148.571 Y181.171 E22.5447
G1 X147.884 Y181.469 E22.5696
G1 X147.17 Y181.691 E22.59447
G1 X146.436 Y181.836 E22.61936
G1 X145.46 Y181.906 E22.6519
G1 X144.816 Y181.907 E22.67332
G1 X117.582 Y181.886 E23.57913
G1 X116.835 Y181.845 E23.60401
G1 X116.096 Y181.725 E23.62891
G1 X115.375 Y181.527 E23.65378
G1 X114.679 Y181.253 E23.67866
G1 X114.016 Y180.907 E23.70353
G1 X113.394 Y180.491 E23.72842
G1 X112.82 Y180.012 E23.75329
G1 X112.3 Y179.474 E23.77817
G1 X111.841 Y178.883 E23.80306
G1 X111.447 Y178.247 E23.82795
G1 X111.123 Y177.573 E23.85282
G1 X110.873 Y176.868 E23.8777
G1 X110.7 Y176.14 E23.90259
G1 X110.606 Y175.398 E23.92746
G1 X110.587 Y174.881 E23.94467
G1 X110.593 Y165.681 E24.25066
G1 X110.633 Y164.934 E24.27554
G1 X110.753 Y164.196 E24.30041
G1 X110.951 Y163.475 E24.32528
G1 X111.225 Y162.779 E24.35016
G1 X111.572 Y162.116 E24.37505
G1 X111.987 Y161.494 E24.39992
G1 X112.467 Y160.919 E24.42483
G1 X113.005 Y160.399 E24.44972
G1 X113.595 Y159.94 E24.47458
G1 X114.231 Y159.546 E24.49946
G1 X114.905 Y159.222 E24.52434
G1 X115.611 Y158.973 E24.54924
G1 X116.338 Y158.799 E24.5741
G1 X117.08 Y158.705 E24.59897
G1 X117.597 Y158.686 E24.61618
G1 X122.112 Y158.689 E24.76635
G1 X122.651 Y158.636 E24.78436
G1 X122.998 Y158.493 E24.79685
G1 X123.267 Y158.225 E24.80948
G1 X123.409 Y157.883 E24.82179
G1 X123.461 Y157.349 E24.83964
G1 X123.482 Y129.069 E25.78024
G1 X123.523 Y128.322 E25.80512
G1 X123.643 Y127.584 E25.82999
G1 X123.841 Y126.862 E25.85489
G1 X124.115 Y126.166 E25.87977
G1 X124.461 Y125.503 E25.90464
G1 X124.877 Y124.881 E25.92953
G1 X125.536 Y124.121 E25.96298
G0 F6000 X125.819 Y124.404
G1 F1200 X129.822 Y120.407 E26.15113
G1 X130.363 Y119.922 E26.1753
G1 X130.954 Y119.501 E26.19943
G1 X131.589 Y119.146 E26.22363
G1 X132.258 Y118.864 E26.24778
G1 X132.954 Y118.657 E26.27193
G1 X133.669 Y118.528 E26.29609
G1 X134.49 Y118.477 E26.32345
G1 X178.421 Y118.508 E27.7846
G1 X179.146 Y118.548 E27.80875
G1 X179.862 Y118.668 E27.8329
G1 X180.561 Y118.866 E27.85706
G1 X181.234 Y119.14 E27.88123
G1 X181.873 Y119.486 E27.9054
G1 X182.47 Y119.9 E27.92956
G1 X183.136 Y120.495 E27.95927
G1 X187.082 Y124.446 E28.14499
G1 X187.566 Y124.987 E28.16914
G1 X187.988 Y125.578 E28.19329
G1 X188.342 Y126.212 E28.21744
G1 X188.625 Y126.882 E28.24163
G1 X188.832 Y127.578 E28.26578
G1 X188.962 Y128.292 E28.28992
G1 X189.013 Y129.116 E28.31738
G1 X188.989 Y161.618 E29.3984
G1 X188.948 Y162.343 E29.42255
G1 X188.829 Y163.059 E29.44669
G1 X188.631 Y163.758 E29.47086
G1 X188.357 Y164.431 E29.49503
G1 X188.011 Y165.07 E29.51919
G1 X187.597 Y165.667 E29.54336
G1 X186.947 Y166.387 E29.57562
G1 X173.007 Y179.696 E30.21665
G1 X172.454 Y180.168 E30.24083
G1 X171.854 Y180.576 E30.26496
G1 X171.212 Y180.916 E30.28912
G1 X170.536 Y181.183 E30.3133
G1 X169.836 Y181.375 E30.33744
G1 X169.118 Y181.488 E30.36161
G1 X168.445 Y181.522 E30.38403
G1 X160.445 Y181.517 E30.65011
G1 X159.72 Y181.477 E30.67426
G1 X159.003 Y181.357 E30.69844
G1 X158.304 Y181.159 E30.7226
G1 X157.631 Y180.885 E30.74677
G1 X156.993 Y180.54 E30.77089
G1 X156.396 Y180.126 E30.79506
G1 X156.269 Y180.013 E30.80071
G1 X149.627 Y180.01 E31.02162
G1 X149.563 Y180.067 E31.02448
G1 X148.97 Y180.488 E31.04866
G1 X148.336 Y180.841 E31.0728
G1 X147.666 Y181.122 E31.09696
G1 X146.97 Y181.328 E31.12111
G1 X146.255 Y181.457 E31.14527
G1 X145.46 Y181.506 E31.17176
G1 X144.816 Y181.507 E31.19318
G1 X117.582 Y181.486 E32.09899
G1 X116.857 Y181.445 E32.12314
G1 X116.14 Y181.325 E32.14732
G1 X115.441 Y181.128 E32.17147
G1 X114.769 Y180.854 E32.19561
G1 X114.13 Y180.508 E32.21978
G1 X113.533 Y180.094 E32.24394
G1 X112.985 Y179.617 E32.26811
G1 X112.493 Y179.083 E32.29226
G1 X112.063 Y178.498 E32.31641
G1 X111.699 Y177.869 E32.34058
G1 X111.407 Y177.204 E32.36473
G1 X111.19 Y176.511 E32.38889
G1 X111.05 Y175.798 E32.41305
G1 X110.987 Y174.882 E32.44359
G1 X110.993 Y165.682 E32.74959
G1 X111.033 Y164.956 E32.77377
G1 X111.153 Y164.24 E32.79792
G1 X111.351 Y163.541 E32.82208
G1 X111.625 Y162.868 E32.84625
G1 X111.97 Y162.229 E32.8704
G1 X112.384 Y161.633 E32.89454
G1 X112.861 Y161.085 E32.9187
G1 X113.396 Y160.593 E32.94288
G1 X113.981 Y160.162 E32.96704
G1 X114.61 Y159.799 E32.9912
G1 X115.275 Y159.507 E33.01535
G1 X115.968 Y159.289 E33.03952
G1 X116.68 Y159.149 E33.06365
G1 X117.597 Y159.086 E33.09422
G1 X122.131 Y159.089 E33.24502
G1 X122.731 Y159.03 E33.26508
G1 X122.985 Y158.953 E33.2739
G1 X123.224 Y158.825 E33.28292
G1 X123.428 Y158.659 E33.29167
G1 X123.599 Y158.45 E33.30065
G1 X123.727 Y158.211 E33.30967
G1 X123.803 Y157.963 E33.3183
G1 X123.861 Y157.368 E33.33818
G1 X123.882 Y129.069 E34.27941
G1 X123.923 Y128.344 E34.30356
G1 X124.042 Y127.628 E34.3277
G1 X124.24 Y126.929 E34.35186
G1 X124.514 Y126.256 E34.37603
G1 X124.86 Y125.617 E34.4002
G1 X125.274 Y125.02 E34.42437
G1 X125.819 Y124.404 E34.45172
G0 F6000 X126.101 Y124.687
G1 F1200 X130.104 Y120.69 E34.63987
G1 X130.63 Y120.221 E34.66331
G1 X131.205 Y119.816 E34.6867
G1 X131.823 Y119.478 E34.71013
G1 X132.475 Y119.212 E34.73355
G1 X133.152 Y119.022 E34.75694
G1 X133.848 Y118.91 E34.78038
G1 X134.489 Y118.877 E34.80173
G1 X178.42 Y118.908 E36.26288
G1 X179.123 Y118.948 E36.2863
G1 X179.817 Y119.068 E36.30973
G1 X180.493 Y119.266 E36.33316
G1 X181.141 Y119.539 E36.35654
G1 X181.755 Y119.884 E36.37997
G1 X182.326 Y120.296 E36.40339
G1 X182.85 Y120.775 E36.427
G1 X186.799 Y124.729 E36.61287
G1 X187.267 Y125.254 E36.63626
G1 X187.673 Y125.829 E36.65967
G1 X188.011 Y126.447 E36.6831
G1 X188.277 Y127.099 E36.70652
G1 X188.468 Y127.776 E36.72992
G1 X188.58 Y128.471 E36.75333
G1 X188.613 Y129.116 E36.77481
G1 X188.589 Y161.618 E37.85583
G1 X188.549 Y162.32 E37.87922
G1 X188.429 Y163.014 E37.90264
G1 X188.231 Y163.69 E37.92607
G1 X187.958 Y164.339 E37.94949
G1 X187.613 Y164.952 E37.97288
G1 X187.201 Y165.523 E37.9963
G1 X186.67 Y166.097 E38.02231
G1 X172.73 Y179.406 E38.66334
G1 X172.194 Y179.863 E38.68677
G1 X171.61 Y180.256 E38.71018
G1 X170.985 Y180.58 E38.73359
G1 X170.327 Y180.831 E38.75702
G1 X169.646 Y181.005 E38.78039
G1 X168.948 Y181.102 E38.80383
G1 X168.445 Y181.122 E38.82058
G1 X160.445 Y181.117 E39.08666
G1 X159.742 Y181.077 E39.11008
G1 X159.049 Y180.957 E39.13347
G1 X158.373 Y180.759 E39.1569
G1 X157.724 Y180.486 E39.18032
G1 X157.11 Y180.141 E39.20374
G1 X156.54 Y179.729 E39.22713
G1 X156.412 Y179.613 E39.23288
G1 X149.474 Y179.61 E39.46364
G1 X149.296 Y179.768 E39.47155
G1 X148.72 Y180.173 E39.49497
G1 X148.102 Y180.51 E39.51838
G1 X147.45 Y180.774 E39.54178
G1 X146.772 Y180.963 E39.56519
G1 X146.076 Y181.074 E39.58863
G1 X145.459 Y181.106 E39.60918
G1 X144.816 Y181.107 E39.63057
G1 X117.582 Y181.086 E40.53637
G1 X116.879 Y181.045 E40.5598
