;FLAVOR:Marlin
;TIME:1540
;Filament used: 0.736856m
;Layer height: 0.2
;MINX:133.731
;MINY:132.515
;MINZ:0.2
;MAXX:166.501
;MAXY:167.166
;MAXZ:22.8
;Generated with Cura_SteamEngine 4.12.1
M140 S80
M105
M190 S80
M82 ;absolute extrusion mode
M201 X500.00 Y500.00 Z100.00 E5000.00 ;Setup machine max acceleration
M203 X500.00 Y500.00 Z10.00 E50.00 ;Setup machine max feedrate
M204 P500.00 R1000.00 T500.00 ;Setup Print/Retract/Travel acceleration
M205 X8.00 Y8.00 Z0.40 E5.00 ;Setup Jerk
M220 S100 ;Reset Feedrate
M221 S100 ;Reset Flowrate
M140 S80.0 ; set bed temp
M190 S80.0 ; wait for bed temp
G28; home all 
G29;
G92 E0 ;Reset Extruder
G1 Z2.0 F3000 ;Move Z Axis up
G1 X10.1 Y20 Z0.28 F5000.0 ;Move to start position
M104 S230 ; wait for extruder printing temp
M109 S230 ; wait for extruder printing temp
G1 X10.1 Y200.0 Z0.28 F1500.0 E15 ;Draw the first line
G1 X10.4 Y200.0 Z0.28 F5000.0 ;Move to side a little
G1 X10.4 Y20 Z0.28 F1500.0 E30 ;Draw the second line
G92 E0 ;Reset Extruder
G1 Z2.0 F3000 ;Move Z Axis up
G92 E0
G92 E0
G1 F2700 E-5
;LAYER_COUNT:114
;LAYER:0
M107
G0 F6000 X144.77 Y135.811 Z0.2
;TYPE:SKIRT
G1 F2700 E0
G1 F1200 X145.313 Y135.238 E0.02626
G1 X145.912 Y134.723 E0.05253
G1 X146.56 Y134.272 E0.07879
G1 X147.251 Y133.888 E0.10508
G1 X147.976 Y133.576 E0.13133
G1 X148.488 Y133.406 E0.14928
G1 X150.439 Y132.832 E0.21692
G1 X151.207 Y132.648 E0.24318
G1 X151.99 Y132.542 E0.26946
G1 X152.641 Y132.515 E0.29114
G1 X155.698 Y132.515 E0.39281
G1 X156.487 Y132.555 E0.41909
G1 X157.267 Y132.674 E0.44533
G1 X157.9 Y132.832 E0.46703
G1 X159.851 Y133.406 E0.53467
G1 X160.596 Y133.667 E0.56093
G1 X161.311 Y134.002 E0.58719
G1 X161.989 Y134.408 E0.61347
G1 X162.622 Y134.88 E0.63973
G1 X163.204 Y135.413 E0.66598
G1 X163.729 Y136.003 E0.69225
G1 X164.192 Y136.643 E0.71852
G1 X164.588 Y137.326 E0.74478
G1 X164.912 Y138.046 E0.77104
G1 X165.163 Y138.795 E0.79732
G1 X165.336 Y139.565 E0.82356
G1 X165.427 Y140.322 E0.84892
G1 X165.583 Y140.603 E0.85961
G1 X165.895 Y141.328 E0.88587
G1 X166.132 Y142.081 E0.91212
G1 X166.291 Y142.855 E0.9384
G1 X166.376 Y143.732 E0.96771
G1 X166.501 Y146.872 E1.07223
G1 X166.492 Y147.661 E1.09847
G1 X166.404 Y148.446 E1.12474
G1 X166.237 Y149.218 E1.15102
G1 X165.992 Y149.969 E1.17729
G1 X165.673 Y150.691 E1.20354
G1 X165.283 Y151.377 E1.22979
G1 X164.825 Y152.021 E1.25607
G1 X164.304 Y152.615 E1.28235
G1 X163.726 Y153.153 E1.30862
G1 X163.097 Y153.63 E1.33487
G1 X163.073 Y153.644 E1.3358
G1 X163.041 Y154.374 E1.3601
G1 X162.927 Y155.156 E1.38638
G1 X162.735 Y155.922 E1.41265
G1 X162.529 Y156.49 E1.43274
G1 X162.397 Y157.137 E1.45471
G1 X162.161 Y157.89 E1.48095
G1 X161.85 Y158.616 E1.50722
G1 X161.468 Y159.307 E1.53348
G1 X161.017 Y159.956 E1.55977
G1 X160.844 Y160.158 E1.56861
G1 X160.632 Y160.575 E1.58417
G1 X160.204 Y161.238 E1.61042
G1 X159.712 Y161.856 E1.63669
G1 X159.159 Y162.42 E1.66297
G1 X158.31 Y163.094 E1.69902
G1 X158.053 Y163.445 E1.71349
G1 X157.525 Y164.032 E1.73975
G1 X156.94 Y164.563 E1.76603
G1 X156.304 Y165.032 E1.79231
G1 X155.647 Y165.423 E1.81774
G1 X154.61 Y165.972 E1.85676
G1 X153.894 Y166.305 E1.88303
G1 X153.148 Y166.565 E1.9093
G1 X152.628 Y166.697 E1.92715
G1 X152.491 Y166.727 E1.93181
G1 X151.991 Y166.811 E1.94867
G1 X151.643 Y166.914 E1.96075
G1 X150.867 Y167.061 E1.98701
G1 X150.615 Y167.078 E1.99542
G1 X150.576 Y167.084 E1.99673
G1 X149.79 Y167.159 E2.02299
G1 X149.393 Y167.166 E2.0362
G1 X148.578 Y167.16 E2.0633
G1 X147.358 Y167.165 E2.10388
G1 X146.569 Y167.128 E2.13015
G1 X146.24 Y167.094 E2.14115
G1 X145.46 Y166.975 E2.1674
G1 X144.915 Y166.834 E2.18612
G1 X144.155 Y166.694 E2.21182
G1 X144.033 Y166.665 E2.21599
G1 X143.275 Y166.443 E2.24226
G1 X142.261 Y166.008 E2.27896
G1 X141.602 Y165.668 E2.30363
G1 X140.919 Y165.271 E2.3299
G1 X140.28 Y164.807 E2.35617
G1 X139.691 Y164.28 E2.38245
G1 X139.159 Y163.697 E2.4087
G1 X138.943 Y163.407 E2.42073
G1 X138.315 Y162.966 E2.44625
G1 X137.692 Y162.48 E2.47253
G1 X137.122 Y161.934 E2.49879
G1 X136.609 Y161.333 E2.52507
G1 X136.16 Y160.683 E2.55134
G1 X135.78 Y159.991 E2.5776
G1 X135.723 Y159.858 E2.58241
G1 X135.464 Y159.508 E2.5969
G1 X135.06 Y158.829 E2.62317
G1 X134.727 Y158.113 E2.64944
G1 X134.468 Y157.367 E2.6757
G1 X134.286 Y156.599 E2.70195
G1 X134.27 Y156.482 E2.70588
G1 X134.161 Y156.212 E2.71557
G1 X133.939 Y155.454 E2.74184
G1 X133.795 Y154.678 E2.76809
G1 X133.731 Y153.891 E2.79435
G1 X133.746 Y153.101 E2.82063
G1 X133.841 Y152.317 E2.8469
G1 X133.858 Y152.242 E2.84945
G1 X133.853 Y151.883 E2.8614
G1 X133.922 Y151.096 E2.88767
G1 X134.071 Y150.32 E2.91395
G1 X134.297 Y149.564 E2.9402
G1 X134.598 Y148.834 E2.96646
G1 X134.972 Y148.138 E2.99274
G1 X135.414 Y147.484 E3.01899
G1 X135.516 Y147.361 E3.02431
G1 X135.621 Y147.077 E3.03438
G1 X135.787 Y146.662 E3.04925
G1 X135.904 Y146.393 E3.059
G1 X136.255 Y145.686 E3.08526
G1 X136.676 Y145.018 E3.11152
G1 X137.185 Y144.37 E3.13892
G1 X138.784 Y142.541 E3.21973
G1 X139.333 Y141.974 E3.24598
G1 X139.937 Y141.465 E3.27225
G1 X140.232 Y141.266 E3.28408
G1 X140.278 Y141.198 E3.28681
G1 X140.784 Y140.592 E3.31307
G1 X141.366 Y140.024 E3.34012
G1 X141.67 Y139.757 E3.35358
G1 X141.703 Y139.731 E3.35497
G1 X142.26 Y139.156 E3.3816
G1 X142.879 Y138.535 E3.41076
G1 X143.444 Y138.023 E3.43612
G1 X143.521 Y137.815 E3.4435
G1 X143.869 Y137.106 E3.46977
G1 X144.287 Y136.435 E3.49606
G1 X144.77 Y135.811 E3.52231
G0 F6000 X145.165 Y135.966
G1 F1200 X145.706 Y135.419 E3.5479
G1 X146.301 Y134.931 E3.57349
G1 X146.943 Y134.508 E3.59906
G1 X147.626 Y134.153 E3.62466
G1 X148.601 Y133.79 E3.65927
G1 X150.552 Y133.216 E3.72691
G1 X151.301 Y133.037 E3.75252
G1 X152.063 Y132.938 E3.77808
G1 X152.641 Y132.915 E3.79732
G1 X155.698 Y132.915 E3.899
G1 X156.466 Y132.955 E3.92457
G1 X157.226 Y133.074 E3.95016
G1 X157.787 Y133.216 E3.96941
G1 X159.738 Y133.79 E4.03705
G1 X160.463 Y134.045 E4.06261
G1 X161.158 Y134.374 E4.08818
G1 X161.816 Y134.774 E4.1138
G1 X162.428 Y135.239 E4.13936
G1 X162.989 Y135.766 E4.16496
G1 X163.492 Y136.348 E4.19055
G1 X163.931 Y136.979 E4.21611
G1 X164.303 Y137.652 E4.24169
G1 X164.603 Y138.36 E4.26726
G1 X164.828 Y139.096 E4.29286
G1 X164.976 Y139.85 E4.31842
G1 X165.014 Y140.393 E4.33652
G1 X165.318 Y140.978 E4.35845
G1 X165.599 Y141.693 E4.384
G1 X165.805 Y142.435 E4.40961
G1 X165.933 Y143.193 E4.43518
G1 X165.976 Y143.748 E4.4537
G1 X166.101 Y146.888 E4.55822
G1 X166.092 Y147.657 E4.58379
G1 X166.003 Y148.421 E4.60938
G1 X165.835 Y149.171 E4.63494
G1 X165.59 Y149.9 E4.66052
G1 X165.27 Y150.6 E4.68612
G1 X164.88 Y151.263 E4.7117
G1 X164.423 Y151.882 E4.73729
G1 X163.904 Y152.45 E4.76288
G1 X163.33 Y152.961 E4.78845
G1 X162.705 Y153.409 E4.81402
G1 X162.664 Y153.432 E4.81559
G1 X162.676 Y153.688 E4.82411
G1 X162.631 Y154.456 E4.8497
G1 X162.506 Y155.215 E4.87528
G1 X162.304 Y155.957 E4.90086
G1 X162.146 Y156.362 E4.91532
G1 X162.137 Y156.441 E4.91796
G1 X161.968 Y157.191 E4.94353
G1 X161.721 Y157.92 E4.96913
G1 X161.401 Y158.619 E4.9947
G1 X161.009 Y159.281 E5.02029
G1 X160.551 Y159.899 E5.04588
G1 X160.504 Y159.95 E5.04818
G1 X160.214 Y160.496 E5.06874
G1 X159.785 Y161.134 E5.09432
G1 X159.291 Y161.724 E5.11991
G1 X158.739 Y162.26 E5.1455
G1 X158.024 Y162.812 E5.17554
G1 X157.653 Y163.301 E5.19596
G1 X157.127 Y163.862 E5.22154
G1 X156.546 Y164.366 E5.24712
G1 X155.915 Y164.806 E5.2727
G1 X155.459 Y165.069 E5.29021
G1 X154.422 Y165.618 E5.32924
G1 X153.725 Y165.942 E5.3548
G1 X152.997 Y166.192 E5.38041
G1 X152.543 Y166.307 E5.39598
G1 X152.406 Y166.337 E5.40065
G1 X151.9 Y166.42 E5.4177
G1 X151.49 Y166.539 E5.4319
G1 X150.733 Y166.675 E5.45748
G1 X150.416 Y166.695 E5.46805
G1 X149.396 Y166.766 E5.50205
G1 X148.579 Y166.76 E5.52923
G1 X147.356 Y166.765 E5.56991
G1 X146.588 Y166.728 E5.59548
G1 X146.261 Y166.694 E5.60641
G1 X145.501 Y166.575 E5.632
G1 X144.989 Y166.439 E5.64962
G1 X144.937 Y166.434 E5.65136
G1 X144.248 Y166.304 E5.67468
G1 X144.126 Y166.275 E5.67885
G1 X143.388 Y166.059 E5.70442
G1 X142.444 Y165.652 E5.73861
G1 X141.785 Y165.312 E5.76328
G1 X141.121 Y164.925 E5.78884
G1 X140.5 Y164.47 E5.81445
G1 X139.93 Y163.954 E5.84002
G1 X139.417 Y163.381 E5.8656
G1 X139.225 Y163.116 E5.87648
G1 X138.544 Y162.638 E5.90416
G1 X137.939 Y162.164 E5.92972
G1 X137.385 Y161.63 E5.95531
G1 X136.89 Y161.041 E5.9809
G1 X136.459 Y160.405 E6.00645
G1 X136.096 Y159.726 E6.03206
G1 X136.063 Y159.645 E6.03497
G1 X135.764 Y159.236 E6.05182
G1 X135.377 Y158.572 E6.07738
G1 X135.061 Y157.87 E6.10299
G1 X134.82 Y157.14 E6.12856
G1 X134.655 Y156.389 E6.15413
G1 X134.652 Y156.358 E6.15517
G1 X134.512 Y156.005 E6.1678
G1 X134.306 Y155.264 E6.19338
G1 X134.177 Y154.506 E6.21895
G1 X134.128 Y153.739 E6.24451
G1 X134.158 Y152.97 E6.27011
G1 X134.259 Y152.272 E6.29357
G1 X134.256 Y151.838 E6.308
G1 X134.33 Y151.072 E6.3336
G1 X134.484 Y150.318 E6.3592
G1 X134.715 Y149.585 E6.38476
G1 X135.021 Y148.879 E6.41035
G1 X135.398 Y148.209 E6.43592
G1 X135.843 Y147.582 E6.46149
G1 X135.874 Y147.547 E6.46305
G1 X135.996 Y147.215 E6.47481
G1 X136.154 Y146.822 E6.4889
G1 X136.271 Y146.553 E6.49866
G1 X136.614 Y145.864 E6.52426
G1 X137.027 Y145.215 E6.54984
G1 X137.486 Y144.633 E6.57449
G1 X139.085 Y142.804 E6.6553
G1 X139.621 Y142.252 E6.68089
G1 X140.211 Y141.759 E6.70646
G1 X140.524 Y141.549 E6.719
G1 X140.912 Y141.049 E6.74005
G1 X141.63 Y140.325 E6.77396
G1 X141.934 Y140.058 E6.78742
G1 X141.97 Y140.03 E6.78893
G1 X142.543 Y139.439 E6.81631
G1 X143.162 Y138.818 E6.84548
G1 X143.733 Y138.302 E6.87107
G1 X143.781 Y138.267 E6.87305
G1 X143.921 Y137.899 E6.88614
G1 X144.268 Y137.213 E6.91171
G1 X144.684 Y136.566 E6.9373
G1 X145.165 Y135.966 E6.96287
G0 F6000 X145.561 Y136.126
G1 F1200 X146.098 Y135.605 E6.98776
G1 X146.688 Y135.146 E7.01262
G1 X147.324 Y134.751 E7.03752
G1 X147.998 Y134.427 E7.0624
G1 X148.714 Y134.174 E7.08765
G1 X150.665 Y133.6 E7.15529
G1 X151.393 Y133.427 E7.18018
G1 X152.135 Y133.333 E7.20506
G1 X152.641 Y133.315 E7.2219
G1 X155.698 Y133.315 E7.32357
G1 X156.445 Y133.355 E7.34846
G1 X157.183 Y133.474 E7.37332
G1 X157.674 Y133.6 E7.39018
G1 X159.625 Y134.174 E7.45782
G1 X160.33 Y134.423 E7.48269
G1 X161.005 Y134.746 E7.50758
G1 X161.641 Y135.139 E7.53244
G1 X162.232 Y135.598 E7.55733
G1 X162.77 Y136.117 E7.58219
G1 X163.25 Y136.691 E7.60708
G1 X163.666 Y137.313 E7.63197
G1 X164.014 Y137.975 E7.65684
G1 X164.288 Y138.671 E7.68172
G1 X164.487 Y139.392 E7.7066
G1 X164.608 Y140.13 E7.73147
G1 X164.63 Y140.53 E7.7448
G1 X164.72 Y140.676 E7.7505
G1 X165.044 Y141.35 E7.77537
G1 X165.294 Y142.055 E7.80025
G1 X165.468 Y142.783 E7.82515
G1 X165.576 Y143.764 E7.85797
G1 X165.701 Y146.904 E7.96249
G1 X165.691 Y147.652 E7.98738
G1 X165.601 Y148.394 E8.01223
G1 X165.433 Y149.123 E8.03712
G1 X165.187 Y149.83 E8.06201
G1 X164.867 Y150.506 E8.08689
G1 X164.478 Y151.144 E8.11174
G1 X164.022 Y151.738 E8.13665
G1 X163.505 Y152.279 E8.16154
G1 X162.934 Y152.762 E8.18641
G1 X162.314 Y153.181 E8.2113
G1 X162.256 Y153.212 E8.21349
G1 X162.274 Y153.788 E8.23266
G1 X162.219 Y154.534 E8.25754
G1 X162.083 Y155.27 E8.28243
G1 X161.871 Y155.987 E8.3073
G1 X161.75 Y156.276 E8.31772
G1 X161.717 Y156.515 E8.32574
G1 X161.536 Y157.24 E8.3506
G1 X161.279 Y157.943 E8.37549
G1 X160.948 Y158.614 E8.40038
G1 X160.548 Y159.246 E8.42526
G1 X160.183 Y159.704 E8.44473
G1 X160.16 Y159.759 E8.44672
G1 X159.796 Y160.412 E8.47158
G1 X159.365 Y161.024 E8.49648
G1 X158.871 Y161.585 E8.52134
G1 X158.319 Y162.091 E8.54625
G1 X157.803 Y162.478 E8.5677
G1 X157.717 Y162.564 E8.57174
G1 X157.254 Y163.152 E8.59664
G1 X156.73 Y163.686 E8.62152
G1 X156.153 Y164.162 E8.6464
G1 X155.272 Y164.716 E8.68101
G1 X154.235 Y165.265 E8.72004
G1 X153.556 Y165.579 E8.74492
G1 X152.848 Y165.819 E8.76978
G1 X152.457 Y165.916 E8.78318
G1 X152.32 Y165.946 E8.78785
G1 X151.815 Y166.029 E8.80487
G1 X151.339 Y166.163 E8.82132
G1 X150.602 Y166.288 E8.84618
G1 X150.118 Y166.316 E8.86231
G1 X149.398 Y166.366 E8.88631
G1 X148.579 Y166.36 E8.91355
G1 X147.354 Y166.365 E8.95429
G1 X146.735 Y166.318 E8.97494
G1 X146.282 Y166.294 E8.99003
G1 X145.544 Y166.175 E9.01489
G1 X145.063 Y166.043 E9.03148
G1 X144.972 Y166.035 E9.03452
G1 X144.34 Y165.915 E9.05592
G1 X144.218 Y165.886 E9.06009
G1 X143.501 Y165.675 E9.08495
G1 X142.627 Y165.297 E9.11662
G1 X141.968 Y164.957 E9.14128
G1 X141.323 Y164.579 E9.16615
G1 X140.721 Y164.134 E9.19105
G1 X140.171 Y163.628 E9.2159
G1 X139.677 Y163.065 E9.24082
G1 X139.509 Y162.827 E9.2505
G1 X138.774 Y162.311 E9.28037
G1 X138.186 Y161.849 E9.30525
G1 X137.65 Y161.327 E9.33013
G1 X137.172 Y160.751 E9.35503
G1 X136.759 Y160.127 E9.37991
G1 X136.415 Y159.463 E9.40479
G1 X136.406 Y159.439 E9.40564
G1 X136.065 Y158.966 E9.42503
G1 X135.695 Y158.315 E9.44994
G1 X135.397 Y157.629 E9.47481
G1 X135.174 Y156.915 E9.49969
G1 X135.045 Y156.265 E9.52173
G1 X134.866 Y155.8 E9.53831
G1 X134.674 Y155.077 E9.56319
G1 X134.561 Y154.337 E9.58808
G1 X134.527 Y153.59 E9.61296
G1 X134.573 Y152.843 E9.63785
G1 X134.658 Y152.346 E9.65462
G1 X134.658 Y151.794 E9.67298
G1 X134.738 Y151.05 E9.69787
G1 X134.897 Y150.319 E9.72275
G1 X135.133 Y149.61 E9.7476
G1 X135.444 Y148.929 E9.7725
G1 X135.825 Y148.285 E9.79739
G1 X136.226 Y147.748 E9.81968
G1 X136.372 Y147.353 E9.83369
G1 X136.521 Y146.981 E9.84701
G1 X136.638 Y146.712 E9.85677
G1 X136.972 Y146.043 E9.88164
G1 X137.377 Y145.413 E9.90655
G1 X137.787 Y144.897 E9.92847
G1 X139.386 Y143.068 E10.00927
G1 X139.908 Y142.532 E10.03416
G1 X140.484 Y142.054 E10.05905
G1 X140.818 Y141.832 E10.07239
G1 X141.063 Y141.492 E10.08633
G1 X141.563 Y140.935 E10.11123
G1 X141.894 Y140.626 E10.12629
G1 X142.198 Y140.359 E10.13975
G1 X142.236 Y140.329 E10.14136
G1 X142.826 Y139.721 E10.16953
G1 X143.445 Y139.1 E10.1987
G1 X144.001 Y138.599 E10.22359
G1 X144.111 Y138.52 E10.22809
G1 X144.32 Y137.986 E10.24717
G1 X144.667 Y137.323 E10.27206
G1 X145.082 Y136.7 E10.29695
G1 X145.561 Y136.126 E10.32182
G0 F6000 X145.479 Y136.839
G1 F1200 X145.955 Y136.291 E10.34596
G1 X146.489 Y135.798 E10.37013
G1 X147.074 Y135.368 E10.39428
G1 X147.703 Y135.004 E10.41845
G1 X148.368 Y134.711 E10.44262
G1 X148.827 Y134.557 E10.45873
G1 X150.778 Y133.983 E10.52637
G1 X151.485 Y133.817 E10.55052
G1 X152.206 Y133.729 E10.57468
G1 X152.641 Y133.715 E10.58915
G1 X155.698 Y133.715 E10.69083
G1 X156.423 Y133.755 E10.71498
G1 X157.14 Y133.874 E10.73915
G1 X157.561 Y133.983 E10.75362
G1 X159.512 Y134.557 E10.82126
G1 X160.196 Y134.8 E10.8454
G1 X160.85 Y135.117 E10.86958
G1 X161.465 Y135.504 E10.89374
G1 X162.033 Y135.956 E10.91789
G1 X162.549 Y136.467 E10.94204
G1 X163.005 Y137.033 E10.96622
G1 X163.397 Y137.645 E10.99039
G1 X163.718 Y138.296 E11.01453
G1 X163.966 Y138.979 E11.0387
G1 X164.138 Y139.684 E11.06283
G1 X164.231 Y140.405 E11.08701
G1 X164.241 Y140.664 E11.09563
G1 X164.467 Y141.055 E11.11065
G1 X164.76 Y141.72 E11.13482
G1 X164.978 Y142.413 E11.15899
G1 X165.118 Y143.125 E11.18312
G1 X165.177 Y143.779 E11.20496
G1 X165.302 Y146.919 E11.30948
G1 X165.291 Y147.646 E11.33366
G1 X165.2 Y148.366 E11.3578
G1 X165.03 Y149.073 E11.38199
G1 X164.784 Y149.756 E11.40613
G1 X164.465 Y150.408 E11.43027
G1 X164.075 Y151.022 E11.45447
G1 X163.621 Y151.588 E11.4786
G1 X163.107 Y152.101 E11.50275
G1 X162.54 Y152.555 E11.52691
G1 X161.926 Y152.944 E11.55109
G1 X161.836 Y152.988 E11.55442
G1 X161.858 Y153.159 E11.56015
G1 X161.871 Y153.885 E11.58431
G1 X161.804 Y154.608 E11.60846
G1 X161.658 Y155.32 E11.63263
G1 X161.435 Y156.011 E11.65678
G1 X161.359 Y156.179 E11.66291
G1 X161.295 Y156.583 E11.67652
G1 X161.102 Y157.284 E11.7007
G1 X160.834 Y157.959 E11.72486
G1 X160.493 Y158.6 E11.749
G1 X160.084 Y159.2 E11.77316
G1 X159.835 Y159.491 E11.78589
G1 X159.744 Y159.696 E11.79335
G1 X159.377 Y160.324 E11.81755
G1 X158.945 Y160.907 E11.84168
G1 X158.45 Y161.439 E11.86585
G1 X157.9 Y161.914 E11.89002
G1 X157.578 Y162.147 E11.90324
G1 X157.446 Y162.237 E11.90855
G1 X157.316 Y162.436 E11.91646
G1 X156.855 Y162.997 E11.94061
G1 X156.334 Y163.504 E11.96479
G1 X155.761 Y163.95 E11.98894
G1 X155.085 Y164.362 E12.01527
G1 X154.048 Y164.911 E12.0543
G1 X153.388 Y165.215 E12.07847
G1 X152.372 Y165.525 E12.1138
G1 X152.235 Y165.555 E12.11846
