;FLAVOR:Marlin
;TIME:4428
;Filament used: 2.28487m
;Layer height: 0.2
;MINX:125.885
;MINY:130.473
;MINZ:0.2
;MAXX:174.758
;MAXY:174.027
;MAXZ:21.6
;Generated with Cura_SteamEngine 4.12.1
M140 S95
M105
M190 S95
M82 ;absolute extrusion mode
M201 X500.00 Y500.00 Z100.00 E5000.00 ;Setup machine max acceleration
M203 X500.00 Y500.00 Z10.00 E50.00 ;Setup machine max feedrate
M204 P500.00 R1000.00 T500.00 ;Setup Print/Retract/Travel acceleration
M205 X8.00 Y8.00 Z0.40 E5.00 ;Setup Jerk
M220 S100 ;Reset Feedrate
M221 S100 ;Reset Flowrate
M140 S95 ; set bed temp
M190 S95 ; wait for bed temp
G28; home all 
G29;
G92 E0 ;Reset Extruder
G1 Z2.0 F3000 ;Move Z Axis up
G1 X10.1 Y20 Z0.28 F5000.0 ;Move to start position
M104 S230 ; wait for extruder printing temp
M109 S230 ; wait for extruder printing temp
G1 X10.1 Y200.0 Z0.28 F1500.0 E15 ;Draw the first line
G1 X10.4 Y200.0 Z0.28 F5000.0 ;Move to side a little
G1 X10.4 Y20 Z0.28 F1500.0 E30 ;Draw the second line
G92 E0 ;Reset Extruder
G1 Z2.0 F3000 ;Move Z Axis up
G92 E0
G92 E0
G1 F2700 E-3
;LAYER_COUNT:108
;LAYER:0
M107
G0 F6000 X132.3 Y133.437 Z0.2
;TYPE:SKIRT
G1 F2700 E0
G1 F1200 X133.026 Y132.839 E0.03128
G1 X134.224 Y131.967 E0.08057
G1 X134.885 Y131.535 E0.10683
G1 X135.586 Y131.172 E0.13309
G1 X136.321 Y130.882 E0.15937
G1 X137.081 Y130.668 E0.18563
G1 X137.859 Y130.532 E0.2119
G1 X138.814 Y130.473 E0.24372
G1 X140.292 Y130.473 E0.29288
G1 X141.081 Y130.513 E0.31915
G1 X141.861 Y130.632 E0.3454
G1 X142.626 Y130.83 E0.37168
G1 X143.366 Y131.104 E0.39793
G1 X144.075 Y131.452 E0.42419
G1 X144.882 Y131.967 E0.45604
G1 X146.08 Y132.839 E0.50532
G1 X146.694 Y133.335 E0.53157
G1 X147.255 Y133.891 E0.55784
G1 X147.757 Y134.501 E0.58412
G1 X148.194 Y135.158 E0.61036
G1 X148.563 Y135.857 E0.63665
G1 X148.796 Y136.45 E0.65784
G1 X152.16 Y136.45 E0.76973
G1 X152.234 Y136.28 E0.7759
G1 X152.586 Y135.573 E0.80216
G1 X153.008 Y134.905 E0.82844
G1 X153.495 Y134.284 E0.85469
G1 X154.043 Y133.715 E0.88097
G1 X154.645 Y133.204 E0.90723
G1 X155.296 Y132.757 E0.9335
G1 X155.989 Y132.378 E0.95977
G1 X156.716 Y132.071 E0.98601
G1 X157.471 Y131.839 E1.01228
G1 X158.245 Y131.684 E1.03854
G1 X159.032 Y131.609 E1.06483
G1 X159.821 Y131.613 E1.09108
G1 X160.606 Y131.698 E1.11734
G1 X161.379 Y131.861 E1.14361
G1 X162.131 Y132.102 E1.16988
G1 X162.855 Y132.417 E1.19614
G1 X163.464 Y132.755 E1.2193
G1 X163.619 Y132.85 E1.22535
G1 X166.945 Y132.85 E1.33597
G1 X167.734 Y132.89 E1.36225
G1 X168.514 Y133.009 E1.38849
G1 X169.279 Y133.207 E1.41478
G1 X170.019 Y133.481 E1.44102
G1 X170.728 Y133.829 E1.46729
G1 X171.399 Y134.247 E1.49358
G1 X172.023 Y134.73 E1.51983
G1 X172.596 Y135.273 E1.54609
G1 X173.111 Y135.872 E1.57236
G1 X173.562 Y136.52 E1.59862
G1 X173.946 Y137.211 E1.62491
G1 X174.258 Y137.936 E1.65116
G1 X174.495 Y138.689 E1.67742
G1 X174.688 Y139.711 E1.71201
G1 X174.7 Y139.81 E1.71533
G1 X174.757 Y140.748 E1.74658
G1 X174.758 Y151.337 E2.09878
G1 X174.718 Y152.126 E2.12505
G1 X174.668 Y152.52 E2.13826
G1 X174.628 Y152.781 E2.14704
G1 X174.469 Y153.554 E2.17329
G1 X174.351 Y153.962 E2.18742
G1 X174.303 Y154.113 E2.19269
G1 X174.026 Y154.852 E2.21894
G1 X173.945 Y155.015 E2.22499
G1 X174.153 Y155.477 E2.24184
G1 X174.238 Y155.708 E2.25003
G1 X174.473 Y156.462 E2.2763
G1 X174.548 Y156.868 E2.29003
G1 X174.664 Y157.489 E2.31104
G1 X174.693 Y157.657 E2.31671
G1 X174.757 Y158.652 E2.34987
G1 X174.758 Y160.245 E2.40286
G1 X174.719 Y161.034 E2.42913
G1 X174.599 Y161.814 E2.45538
G1 X174.402 Y162.579 E2.48165
G1 X174.128 Y163.32 E2.50793
G1 X173.781 Y164.029 E2.53418
G1 X173.364 Y164.7 E2.56046
G1 X172.882 Y165.325 E2.58671
G1 X172.338 Y165.898 E2.61299
G1 X171.739 Y166.413 E2.63927
G1 X171.092 Y166.864 E2.6655
G1 X170.402 Y167.249 E2.69178
G1 X169.677 Y167.561 E2.71803
G1 X168.923 Y167.798 E2.74432
G1 X168.15 Y167.958 E2.77057
G1 X167.365 Y168.039 E2.79682
G1 X166.958 Y168.05 E2.81036
G1 X151.477 Y168.05 E3.32526
G1 X151.304 Y168.505 E3.34145
G1 X150.948 Y169.211 E3.36775
G1 X150.524 Y169.876 E3.39398
G1 X150.034 Y170.496 E3.42026
G1 X149.484 Y171.063 E3.44654
G1 X148.758 Y171.661 E3.47782
G1 X147.56 Y172.533 E3.5271
G1 X146.899 Y172.965 E3.55337
G1 X146.198 Y173.328 E3.57962
G1 X145.463 Y173.618 E3.6059
G1 X144.703 Y173.832 E3.63217
G1 X143.925 Y173.968 E3.65843
G1 X142.97 Y174.027 E3.69026
G1 X141.492 Y174.027 E3.73942
G1 X140.703 Y173.987 E3.76569
G1 X139.923 Y173.868 E3.79194
G1 X139.158 Y173.67 E3.81822
G1 X138.418 Y173.396 E3.84446
G1 X137.709 Y173.048 E3.87073
G1 X136.902 Y172.533 E3.90257
G1 X135.704 Y171.661 E3.95186
G1 X135.09 Y171.165 E3.97811
G1 X134.529 Y170.609 E4.00438
G1 X134.027 Y169.999 E4.03066
G1 X133.59 Y169.342 E4.0569
G1 X133.221 Y168.643 E4.08319
G1 X132.883 Y167.784 E4.11389
G1 X132.533 Y167.693 E4.12592
G1 X131.793 Y167.419 E4.15217
G1 X131.084 Y167.071 E4.17843
G1 X130.413 Y166.653 E4.20473
G1 X129.789 Y166.17 E4.23097
G1 X129.216 Y165.627 E4.25723
G1 X128.701 Y165.028 E4.2835
G1 X128.25 Y164.38 E4.30976
G1 X127.866 Y163.689 E4.33606
G1 X127.554 Y162.964 E4.36231
G1 X127.317 Y162.211 E4.38856
G1 X127.158 Y161.437 E4.41484
G1 X127.077 Y160.652 E4.44109
G1 X127.067 Y160.25 E4.45447
G1 X127.067 Y153.692 E4.67259
G1 X126.863 Y153.285 E4.68773
G1 X126.512 Y152.463 E4.71746
G1 X126.239 Y151.722 E4.74372
G1 X126.042 Y150.957 E4.77
G1 X125.924 Y150.176 E4.79627
G1 X125.885 Y149.388 E4.82251
G1 X125.926 Y148.599 E4.84879
G1 X126.047 Y147.819 E4.87504
G1 X126.246 Y147.055 E4.9013
G1 X126.521 Y146.314 E4.92759
G1 X126.87 Y145.606 E4.95384
G1 X127.066 Y145.292 E4.96615
G1 X127.066 Y144.25 E5.00081
G1 X127.106 Y143.462 E5.02705
G1 X127.225 Y142.681 E5.05333
G1 X127.423 Y141.917 E5.07958
G1 X127.697 Y141.176 E5.10585
G1 X128.045 Y140.467 E5.13212
G1 X128.462 Y139.797 E5.15837
G1 X128.945 Y139.172 E5.18464
G1 X129.489 Y138.599 E5.21092
G1 X129.66 Y138.452 E5.21842
G1 X129.742 Y138.137 E5.22925
G1 X130.199 Y136.732 E5.27839
G1 X130.48 Y135.995 E5.30462
G1 X130.836 Y135.289 E5.33092
G1 X131.26 Y134.624 E5.35715
G1 X131.75 Y134.004 E5.38343
G1 X132.3 Y133.437 E5.40971
G0 F6000 X132.646 Y133.662
G1 F1200 X133.261 Y133.162 E5.43607
G1 X134.459 Y132.29 E5.48535
G1 X135.104 Y131.87 E5.51095
G1 X135.788 Y131.52 E5.53651
G1 X136.506 Y131.242 E5.56212
G1 X137.248 Y131.041 E5.58769
G1 X138.007 Y130.917 E5.61326
G1 X138.814 Y130.873 E5.64015
G1 X140.292 Y130.873 E5.6893
G1 X141.06 Y130.913 E5.71488
G1 X141.82 Y131.032 E5.74047
G1 X142.563 Y131.23 E5.76604
G1 X143.282 Y131.504 E5.79163
G1 X143.968 Y131.851 E5.8172
G1 X144.647 Y132.29 E5.8441
G1 X145.845 Y133.162 E5.89338
G1 X146.442 Y133.646 E5.91894
G1 X146.986 Y134.19 E5.94453
G1 X147.471 Y134.787 E5.97011
G1 X147.891 Y135.432 E5.99571
G1 X148.242 Y136.116 E6.02128
G1 X148.525 Y136.85 E6.04745
G1 X152.421 Y136.85 E6.17703
G1 X152.6 Y136.44 E6.19191
G1 X152.944 Y135.752 E6.21749
G1 X153.358 Y135.103 E6.2431
G1 X153.837 Y134.501 E6.26868
G1 X154.375 Y133.952 E6.29425
G1 X154.968 Y133.462 E6.31984
G1 X155.608 Y133.036 E6.34541
G1 X156.289 Y132.678 E6.371
G1 X157.004 Y132.394 E6.39658
G1 X157.744 Y132.185 E6.42216
G1 X158.502 Y132.054 E6.44774
G1 X159.269 Y132.002 E6.47331
G1 X160.038 Y132.03 E6.49891
G1 X160.8 Y132.138 E6.5245
G1 X161.546 Y132.324 E6.55008
G1 X162.269 Y132.587 E6.57566
G1 X163.255 Y133.095 E6.61256
G1 X163.507 Y133.25 E6.6224
G1 X166.945 Y133.25 E6.73674
G1 X167.713 Y133.29 E6.76232
G1 X168.473 Y133.409 E6.78791
G1 X169.216 Y133.607 E6.81348
G1 X169.935 Y133.881 E6.83907
G1 X170.621 Y134.228 E6.86464
G1 X171.268 Y134.644 E6.89023
G1 X171.868 Y135.125 E6.9158
G1 X172.415 Y135.666 E6.94139
G1 X172.903 Y136.261 E6.96699
G1 X173.326 Y136.903 E6.99256
G1 X173.681 Y137.586 E7.01816
G1 X173.962 Y138.301 E7.04371
G1 X174.168 Y139.043 E7.06933
G1 X174.291 Y139.76 E7.09352
G1 X174.303 Y139.859 E7.09684
G1 X174.357 Y140.748 E7.12646
G1 X174.358 Y151.337 E7.47865
G1 X174.273 Y152.459 E7.51608
G1 X174.233 Y152.72 E7.52486
G1 X173.97 Y153.841 E7.56316
G1 X173.922 Y153.992 E7.56843
G1 X173.651 Y154.712 E7.59401
G1 X173.504 Y155.006 E7.60495
G1 X173.778 Y155.616 E7.62719
G1 X173.863 Y155.847 E7.63537
G1 X174.091 Y156.581 E7.66094
G1 X174.267 Y157.536 E7.69324
G1 X174.303 Y157.768 E7.70105
G1 X174.357 Y158.652 E7.7305
G1 X174.358 Y160.245 E7.78349
G1 X174.319 Y161.013 E7.80906
G1 X174.199 Y161.773 E7.83465
G1 X174.002 Y162.517 E7.86025
G1 X173.729 Y163.236 E7.88583
G1 X173.382 Y163.922 E7.9114
G1 X172.967 Y164.569 E7.93697
G1 X172.486 Y165.17 E7.96257
G1 X171.945 Y165.717 E7.98816
G1 X171.351 Y166.205 E8.01373
G1 X170.709 Y166.629 E8.03932
G1 X170.026 Y166.984 E8.06492
G1 X169.311 Y167.266 E8.09048
G1 X168.57 Y167.472 E8.11606
G1 X167.812 Y167.601 E8.14164
G1 X166.958 Y167.65 E8.17009
G1 X151.203 Y167.65 E8.6941
G1 X150.929 Y168.362 E8.71947
G1 X150.581 Y169.048 E8.74506
G1 X150.163 Y169.693 E8.77062
G1 X149.68 Y170.292 E8.79622
G1 X149.138 Y170.838 E8.8218
G1 X148.523 Y171.338 E8.84817
G1 X147.325 Y172.21 E8.89745
G1 X146.68 Y172.63 E8.92305
G1 X145.996 Y172.98 E8.9486
G1 X145.278 Y173.258 E8.97421
G1 X144.536 Y173.459 E8.99978
G1 X143.777 Y173.583 E9.02536
G1 X142.97 Y173.627 E9.05224
G1 X141.492 Y173.627 E9.1014
G1 X140.724 Y173.587 E9.12698
G1 X139.964 Y173.468 E9.15256
G1 X139.221 Y173.27 E9.17814
G1 X138.502 Y172.996 E9.20373
G1 X137.816 Y172.649 E9.2293
G1 X137.137 Y172.21 E9.25619
G1 X135.939 Y171.338 E9.30548
G1 X135.342 Y170.854 E9.33104
G1 X134.798 Y170.31 E9.35663
G1 X134.313 Y169.713 E9.38221
G1 X133.893 Y169.068 E9.40781
G1 X133.542 Y168.384 E9.43338
G1 X133.257 Y167.644 E9.45975
G1 X133.195 Y167.453 E9.46643
G1 X132.596 Y167.293 E9.48705
G1 X131.877 Y167.019 E9.51265
G1 X131.191 Y166.672 E9.53821
G1 X130.544 Y166.256 E9.5638
G1 X129.944 Y165.775 E9.58938
G1 X129.397 Y165.234 E9.61496
G1 X128.909 Y164.639 E9.64056
G1 X128.486 Y163.997 E9.66613
G1 X128.131 Y163.314 E9.69173
G1 X127.85 Y162.599 E9.71728
G1 X127.644 Y161.857 E9.7429
G1 X127.516 Y161.099 E9.76846
G1 X127.467 Y160.25 E9.79675
G1 X127.467 Y153.582 E10.01853
G1 X127.23 Y153.128 E10.03556
G1 X126.879 Y152.306 E10.06529
G1 X126.615 Y151.584 E10.09086
G1 X126.426 Y150.838 E10.11645
G1 X126.316 Y150.077 E10.14203
G1 X126.286 Y149.308 E10.16762
G1 X126.335 Y148.541 E10.19319
G1 X126.464 Y147.783 E10.21876
G1 X126.671 Y147.042 E10.24435
G1 X126.953 Y146.326 E10.26994
G1 X127.309 Y145.644 E10.29553
G1 X127.466 Y145.407 E10.30499
G1 X127.466 Y144.25 E10.34347
G1 X127.506 Y143.482 E10.36905
G1 X127.625 Y142.723 E10.3946
G1 X127.823 Y141.979 E10.42021
G1 X128.097 Y141.26 E10.4458
G1 X128.444 Y140.574 E10.47137
G1 X128.86 Y139.927 E10.49695
G1 X129.341 Y139.327 E10.52253
G1 X129.882 Y138.78 E10.54812
G1 X130.013 Y138.673 E10.55374
G1 X130.122 Y138.261 E10.56792
G1 X130.579 Y136.856 E10.61706
G1 X130.855 Y136.138 E10.64264
G1 X131.203 Y135.452 E10.66823
G1 X131.621 Y134.807 E10.69379
G1 X132.104 Y134.208 E10.71938
G1 X132.646 Y133.662 E10.74497
G0 F6000 X132.991 Y133.89
G1 F1200 X133.497 Y133.485 E10.76653
G1 X134.695 Y132.613 E10.81581
G1 X135.322 Y132.206 E10.84067
G1 X135.989 Y131.868 E10.86555
G1 X136.689 Y131.603 E10.89044
G1 X137.413 Y131.415 E10.91532
G1 X138.153 Y131.304 E10.94021
G1 X138.814 Y131.273 E10.96222
G1 X140.292 Y131.273 E11.01137
G1 X141.039 Y131.313 E11.03625
G1 X141.777 Y131.432 E11.06112
G1 X142.499 Y131.63 E11.08602
G1 X143.195 Y131.903 E11.11088
G1 X143.858 Y132.25 E11.13577
G1 X144.411 Y132.613 E11.15778
G1 X145.609 Y133.485 E11.20706
G1 X146.19 Y133.957 E11.23196
G1 X146.717 Y134.489 E11.25686
G1 X147.184 Y135.073 E11.28173
G1 X147.586 Y135.704 E11.30662
G1 X147.918 Y136.374 E11.33149
G1 X148.147 Y136.98 E11.35303
G1 X148.235 Y137.25 E11.36248
G1 X152.691 Y137.25 E11.51069
G1 X152.767 Y137.058 E11.51755
G1 X152.967 Y136.6 E11.53418
G1 X153.303 Y135.931 E11.55908
G1 X153.708 Y135.302 E11.58396
G1 X154.177 Y134.72 E11.60882
G1 X154.707 Y134.191 E11.63372
G1 X155.289 Y133.722 E11.65859
G1 X155.919 Y133.318 E11.68348
G1 X156.588 Y132.983 E11.70836
G1 X157.288 Y132.721 E11.73322
G1 X158.013 Y132.536 E11.75811
G1 X158.754 Y132.429 E11.78301
G1 X159.501 Y132.402 E11.80787
G1 X160.247 Y132.455 E11.83275
G1 X160.984 Y132.587 E11.85765
G1 X161.702 Y132.797 E11.88253
G1 X162.393 Y133.082 E11.90739
G1 X163.046 Y133.436 E11.9321
G1 X163.394 Y133.65 E11.94568
G1 X166.945 Y133.65 E12.06379
G1 X167.692 Y133.69 E12.08867
G1 X168.43 Y133.809 E12.11353
G1 X169.152 Y134.007 E12.13843
G1 X169.848 Y134.28 E12.1633
G1 X170.511 Y134.627 E12.18819
G1 X171.134 Y135.042 E12.21309
G1 X171.708 Y135.521 E12.23795
G1 X172.229 Y136.058 E12.26284
G1 X172.688 Y136.648 E12.2877
G1 X173.083 Y137.284 E12.3126
G1 X173.407 Y137.958 E12.33747
G1 X173.657 Y138.663 E12.36235
G1 X173.831 Y139.391 E12.38725
G1 X173.894 Y139.808 E12.40128
G1 X173.906 Y139.907 E12.40459
G1 X173.957 Y140.748 E12.43262
G1 X173.958 Y151.337 E12.78481
G1 X173.877 Y152.398 E12.8202
G1 X173.837 Y152.659 E12.82898
G1 X173.589 Y153.72 E12.86522
G1 X173.541 Y153.871 E12.87049
G1 X173.277 Y154.57 E12.89534
G1 X173.063 Y154.996 E12.9112
G1 X173.402 Y155.754 E12.93882
G1 X173.487 Y155.985 E12.947
G1 X173.708 Y156.7 E12.9719
G1 X173.87 Y157.582 E13.00172
G1 X173.913 Y157.877 E13.01164
G1 X173.957 Y158.653 E13.03749
G1 X173.958 Y160.246 E13.09047
G1 X173.918 Y160.993 E13.11535
G1 X173.8 Y161.731 E13.14021
G1 X173.602 Y162.453 E13.16511
G1 X173.329 Y163.149 E13.18998
G1 X172.984 Y163.813 E13.21486
G1 X172.569 Y164.435 E13.23973
G1 X172.09 Y165.01 E13.26463
G1 X171.553 Y165.531 E13.28951
G1 X170.963 Y165.991 E13.31439
G1 X170.328 Y166.386 E13.33927
G1 X169.654 Y166.71 E13.36414
G1 X168.949 Y166.961 E13.38903
G1 X168.222 Y167.135 E13.41389
G1 X167.48 Y167.231 E13.43878
G1 X166.958 Y167.25 E13.45615
G1 X150.913 Y167.25 E13.98981
G1 X150.825 Y167.52 E13.99925
G1 X150.556 Y168.218 E14.02413
G1 X150.214 Y168.884 E14.04904
G1 X149.803 Y169.509 E14.07392
G1 X149.327 Y170.086 E14.09879
G1 X148.793 Y170.61 E14.12368
G1 X148.287 Y171.015 E14.14523
G1 X147.089 Y171.887 E14.19452
G1 X146.462 Y172.294 E14.21938
G1 X145.795 Y172.632 E14.24425
G1 X145.095 Y172.897 E14.26914
G1 X144.371 Y173.085 E14.29402
G1 X143.631 Y173.196 E14.31891
G1 X142.97 Y173.227 E14.34092
G1 X141.492 Y173.227 E14.39008
G1 X140.745 Y173.187 E14.41496
G1 X140.007 Y173.068 E14.43982
G1 X139.285 Y172.87 E14.46472
G1 X138.589 Y172.597 E14.48959
G1 X137.926 Y172.25 E14.51448
G1 X137.373 Y171.887 E14.53648
G1 X136.175 Y171.015 E14.58576
G1 X135.594 Y170.543 E14.61066
G1 X135.067 Y170.011 E14.63557
G1 X134.6 Y169.427 E14.66044
G1 X134.198 Y168.796 E14.68532
G1 X133.866 Y168.126 E14.71019
G1 X133.637 Y167.52 E14.73174
G1 X133.504 Y167.111 E14.74604
G1 X133.382 Y167.091 E14.75016
G1 X132.66 Y166.893 E14.77506
G1 X131.964 Y166.62 E14.79992
G1 X131.301 Y166.273 E14.82481
G1 X130.678 Y165.858 E14.84971
G1 X130.104 Y165.379 E14.87457
G1 X129.583 Y164.842 E14.89946
G1 X129.124 Y164.252 E14.92432
G1 X128.729 Y163.616 E14.94922
G1 X128.405 Y162.942 E14.9741
G1 X128.155 Y162.237 E14.99898
G1 X127.981 Y161.509 E15.02387
G1 X127.886 Y160.767 E15.04875
G1 X127.867 Y160.25 E15.06596
G1 X127.867 Y153.521 E15.28977
G1 X127.827 Y153.454 E15.29236
G1 X127.598 Y152.971 E15.31014
G1 X127.247 Y152.149 E15.33987
G1 X126.991 Y151.446 E15.36475
G1 X126.811 Y150.72 E15.38963
G1 X126.709 Y149.979 E15.41451
G1 X126.687 Y149.231 E15.4394
G1 X126.745 Y148.486 E15.46425
G1 X126.882 Y147.75 E15.48915
G1 X127.097 Y147.034 E15.51402
G1 X127.387 Y146.344 E15.53891
G1 X127.749 Y145.689 E15.5638
G1 X127.866 Y145.522 E15.57058
G1 X127.866 Y144.25 E15.61289
G1 X127.906 Y143.503 E15.63777
G1 X128.025 Y142.765 E15.66263
G1 X128.223 Y142.043 E15.68753
G1 X128.496 Y141.347 E15.7124
G1 X128.842 Y140.684 E15.73727
G1 X129.257 Y140.062 E15.76214
G1 X129.736 Y139.487 E15.78704
G1 X130.274 Y138.967 E15.81192
G1 X130.362 Y138.899 E15.81562
G1 X130.502 Y138.385 E15.83334
G1 X130.959 Y136.98 E15.88248
G1 X131.228 Y136.282 E15.90736
G1 X131.57 Y135.616 E15.93226
G1 X131.981 Y134.991 E15.95714
G1 X132.457 Y134.414 E15.98202
G1 X132.991 Y133.89 E16.0069
G0 F6000 X133.335 Y134.122
G1 F1200 X133.732 Y133.809 E16.02372
G1 X134.93 Y132.937 E16.073
G1 X135.54 Y132.542 E16.09717
G1 X136.189 Y132.217 E16.12131
