;FLAVOR:Marlin
;TIME:2762
;Filament used: 1.44076m
;Layer height: 0.2
;MINX:123.81
;MINY:132.548
;MINZ:0.2
;MAXX:177.794
;MAXY:167.098
;MAXZ:13
;Generated with Cura_SteamEngine 4.12.1
M140 S95
M105
M190 S95
M82 ;absolute extrusion mode
M201 X500.00 Y500.00 Z100.00 E5000.00 ;Setup machine max acceleration
M203 X500.00 Y500.00 Z10.00 E50.00 ;Setup machine max feedrate
M204 P500.00 R1000.00 T500.00 ;Setup Print/Retract/Travel acceleration
M205 X8.00 Y8.00 Z0.40 E5.00 ;Setup Jerk
M220 S100 ;Reset Feedrate
M221 S100 ;Reset Flowrate
M140 S95 ; set bed temp
M190 S95 ; wait for bed temp
G28; home all 
G29;
G92 E0 ;Reset Extruder
G1 Z2.0 F3000 ;Move Z Axis up
G1 X10.1 Y20 Z0.28 F5000.0 ;Move to start position
M104 S230 ; wait for extruder printing temp
M109 S230 ; wait for extruder printing temp
G1 X10.1 Y200.0 Z0.28 F1500.0 E15 ;Draw the first line
G1 X10.4 Y200.0 Z0.28 F5000.0 ;Move to side a little
G1 X10.4 Y20 Z0.28 F1500.0 E30 ;Draw the second line
G92 E0 ;Reset Extruder
G1 Z2.0 F3000 ;Move Z Axis up
G92 E0
G92 E0
G1 F2700 E-3
;LAYER_COUNT:65
;LAYER:0
M107
G0 F6000 X128.115 Y139.27 Z0.2
;TYPE:SKIRT
G1 F2700 E0
G1 F1200 X128.717 Y138.758 E0.02628
G1 X129.367 Y138.309 E0.05256
G1 X130.059 Y137.929 E0.07882
G1 X130.786 Y137.621 E0.10508
G1 X131.54 Y137.387 E0.13134
G1 X132.314 Y137.231 E0.1576
G1 X133.1 Y137.155 E0.18386
G1 X133.89 Y137.158 E0.21014
G1 X134.14 Y137.184 E0.2185
G1 X134.695 Y137.07 E0.23734
G1 X135.481 Y136.989 E0.26362
G1 X135.881 Y136.979 E0.27693
G1 X156.963 Y136.979 E0.97812
G1 X157.327 Y136.409 E1.00062
G1 X157.817 Y135.79 E1.02687
G1 X158.367 Y135.223 E1.05315
G1 X159.089 Y134.628 E1.08426
G1 X159.894 Y134.042 E1.11738
G1 X160.556 Y133.61 E1.14367
G1 X161.257 Y133.247 E1.16993
G1 X161.992 Y132.957 E1.19621
G1 X162.752 Y132.743 E1.22247
G1 X163.529 Y132.607 E1.24871
G1 X164.485 Y132.548 E1.28056
G1 X165.479 Y132.548 E1.31362
G1 X166.268 Y132.588 E1.3399
G1 X167.048 Y132.707 E1.36614
G1 X167.813 Y132.905 E1.39243
G1 X168.553 Y133.179 E1.41867
G1 X169.262 Y133.527 E1.44494
G1 X170.07 Y134.042 E1.47681
G1 X170.875 Y134.628 E1.50993
G1 X171.489 Y135.124 E1.53618
G1 X172.049 Y135.68 E1.56243
G1 X172.551 Y136.29 E1.5887
G1 X172.988 Y136.948 E1.61497
G1 X173.357 Y137.646 E1.64123
G1 X173.409 Y137.777 E1.64592
G1 X173.777 Y137.958 E1.65956
G1 X174.448 Y138.376 E1.68585
G1 X175.072 Y138.859 E1.7121
G1 X175.645 Y139.402 E1.73836
G1 X176.16 Y140.001 E1.76463
G1 X176.611 Y140.649 E1.79089
G1 X176.995 Y141.34 E1.81718
G1 X177.307 Y142.065 E1.84343
G1 X177.544 Y142.818 E1.86969
G1 X177.703 Y143.592 E1.89597
G1 X177.784 Y144.377 E1.92222
G1 X177.794 Y144.779 E1.93559
G1 X177.794 Y148.416 E2.05656
G1 X177.754 Y149.205 E2.08284
G1 X177.635 Y149.985 E2.10908
G1 X177.437 Y150.75 E2.13536
G1 X177.163 Y151.49 E2.16161
G1 X176.815 Y152.199 E2.18788
G1 X176.397 Y152.87 E2.21417
G1 X175.914 Y153.494 E2.24042
G1 X175.371 Y154.067 E2.26667
G1 X174.772 Y154.582 E2.29295
G1 X174.124 Y155.033 E2.3192
G1 X173.433 Y155.417 E2.3455
G1 X173.287 Y155.48 E2.35079
G1 X172.829 Y157.068 E2.40576
G1 X172.652 Y157.609 E2.42469
G1 X172.17 Y158.915 E2.47099
G1 X171.859 Y159.641 E2.49726
G1 X171.356 Y160.519 E2.53091
G1 X170.532 Y161.764 E2.58057
G1 X170.064 Y162.4 E2.60683
G1 X169.472 Y163.045 E2.63595
G1 X168.26 Y164.226 E2.69224
G1 X167.667 Y164.748 E2.71851
G1 X167.024 Y165.207 E2.74479
G1 X166.253 Y165.642 E2.77423
G1 X165.208 Y166.155 E2.81295
G1 X164.483 Y166.466 E2.83919
G1 X163.729 Y166.703 E2.86548
G1 X162.956 Y166.862 E2.89173
G1 X162.201 Y166.941 E2.91698
G1 X160.482 Y167.036 E2.97424
G1 X159.693 Y167.04 E3.00048
G1 X159.185 Y166.99 E3.01746
G1 X158.765 Y167.056 E3.0316
G1 X157.977 Y167.098 E3.05784
G1 X157.188 Y167.06 E3.08412
G1 X156.592 Y166.978 E3.10413
G1 X155.152 Y166.721 E3.15278
G1 X153.812 Y166.453 E3.19823
G1 X153.047 Y166.259 E3.22448
G1 X152.494 Y166.065 E3.24397
G1 X151.357 Y165.619 E3.28459
G1 X150.637 Y165.294 E3.31087
G1 X149.954 Y164.898 E3.33713
G1 X149.61 Y164.661 E3.35102
G1 X148.725 Y164.016 E3.38744
G1 X148.269 Y163.72 E3.40552
G1 X147.629 Y163.257 E3.4318
G1 X147.039 Y162.732 E3.45806
G1 X146.506 Y162.15 E3.48431
G1 X146.033 Y161.517 E3.5106
G1 X145.636 Y160.855 E3.53627
G1 X145.179 Y160.001 E3.56848
G1 X144.702 Y159.312 E3.59636
G1 X135.542 Y158.391 E3.90256
G1 X135.441 Y158.375 E3.90596
G1 X135.244 Y158.439 E3.91285
G1 X134.161 Y158.647 E3.94953
G1 X133.253 Y158.756 E3.97994
G1 X132.465 Y158.811 E4.00622
G1 X131.676 Y158.785 E4.03247
G1 X130.893 Y158.68 E4.05875
G1 X130.125 Y158.496 E4.08501
G1 X129.38 Y158.235 E4.11127
G1 X128.664 Y157.901 E4.13755
G1 X127.986 Y157.495 E4.16383
G1 X127.353 Y157.024 E4.19007
G1 X126.771 Y156.49 E4.21635
G1 X126.013 Y155.597 E4.2553
G1 X125.298 Y154.613 E4.29576
G1 X124.867 Y153.952 E4.322
G1 X124.504 Y153.25 E4.34829
G1 X124.215 Y152.515 E4.37456
G1 X124.002 Y151.755 E4.40081
G1 X123.866 Y150.977 E4.42708
G1 X123.81 Y150.189 E4.45335
G1 X123.833 Y149.4 E4.47961
G1 X123.937 Y148.617 E4.50588
G1 X124.119 Y147.849 E4.53213
G1 X124.377 Y147.102 E4.55842
G1 X124.71 Y146.386 E4.58468
G1 X125.298 Y145.443 E4.62164
G1 X125.479 Y145.194 E4.63188
G1 X125.496 Y144.722 E4.64759
G1 X125.605 Y143.94 E4.67385
G1 X125.792 Y143.173 E4.70011
G1 X126.112 Y142.296 E4.73116
G1 X126.311 Y141.838 E4.74777
G1 X126.662 Y141.13 E4.77405
G1 X127.083 Y140.462 E4.80031
G1 X127.569 Y139.84 E4.82657
G1 X128.115 Y139.27 E4.85282
G0 F6000 X128.448 Y139.506
G1 F1200 X129.04 Y139.015 E4.8784
G1 X129.68 Y138.588 E4.90399
G1 X130.36 Y138.229 E4.92956
G1 X131.074 Y137.943 E4.95515
G1 X131.814 Y137.733 E4.98073
G1 X132.571 Y137.6 E5.00629
G1 X133.339 Y137.547 E5.0319
G1 X134.107 Y137.574 E5.05746
G1 X134.275 Y137.555 E5.06308
G1 X135.033 Y137.428 E5.08864
G1 X135.881 Y137.379 E5.1169
G1 X157.197 Y137.379 E5.82587
G1 X157.269 Y137.238 E5.83113
G1 X157.688 Y136.592 E5.85674
G1 X158.171 Y135.994 E5.88231
G1 X158.713 Y135.448 E5.9079
G1 X159.325 Y134.951 E5.93412
G1 X160.13 Y134.365 E5.96724
G1 X160.774 Y133.946 E5.99279
G1 X161.459 Y133.595 E6.01839
G1 X162.176 Y133.317 E6.04397
G1 X162.919 Y133.116 E6.06957
G1 X163.678 Y132.992 E6.09515
G1 X164.485 Y132.948 E6.12203
G1 X165.479 Y132.948 E6.15509
G1 X166.247 Y132.988 E6.18067
G1 X167.007 Y133.107 E6.20626
G1 X167.75 Y133.305 E6.23183
G1 X168.469 Y133.579 E6.25742
G1 X169.155 Y133.926 E6.28299
G1 X169.834 Y134.365 E6.30988
G1 X170.639 Y134.951 E6.343
G1 X171.237 Y135.436 E6.36861
G1 X171.781 Y135.979 E6.39417
G1 X172.265 Y136.577 E6.41976
G1 X172.685 Y137.221 E6.44533
G1 X173.036 Y137.906 E6.47093
G1 X173.099 Y138.068 E6.47672
G1 X173.67 Y138.357 E6.498
G1 X174.317 Y138.773 E6.52358
G1 X174.917 Y139.254 E6.54916
G1 X175.464 Y139.795 E6.57475
G1 X175.952 Y140.39 E6.60034
G1 X176.375 Y141.032 E6.62592
G1 X176.73 Y141.715 E6.65152
G1 X177.011 Y142.43 E6.67707
G1 X177.217 Y143.172 E6.70268
G1 X177.345 Y143.93 E6.72825
G1 X177.394 Y144.779 E6.75654
G1 X177.394 Y148.416 E6.8775
G1 X177.354 Y149.184 E6.90308
G1 X177.235 Y149.944 E6.92867
G1 X177.037 Y150.687 E6.95424
G1 X176.763 Y151.406 E6.97983
G1 X176.416 Y152.092 E7.0054
G1 X176 Y152.739 E7.03099
G1 X175.519 Y153.339 E7.05656
G1 X174.978 Y153.886 E7.08215
G1 X174.383 Y154.374 E7.10775
G1 X173.741 Y154.797 E7.13332
G1 X173.058 Y155.152 E7.15892
G1 X172.953 Y155.193 E7.16267
G1 X172.445 Y156.957 E7.22372
G1 X172.276 Y157.47 E7.24169
G1 X171.794 Y158.776 E7.28799
G1 X171.491 Y159.483 E7.31357
G1 X171.023 Y160.298 E7.34483
G1 X170.199 Y161.543 E7.39449
G1 X169.742 Y162.162 E7.42008
G1 X169.192 Y162.759 E7.44708
G1 X167.98 Y163.94 E7.50336
G1 X167.402 Y164.447 E7.52893
G1 X166.775 Y164.892 E7.55451
G1 X166.077 Y165.283 E7.58112
G1 X165.032 Y165.796 E7.61984
G1 X164.325 Y166.098 E7.64541
G1 X163.59 Y166.326 E7.671
G1 X162.836 Y166.476 E7.69657
G1 X162.179 Y166.542 E7.71853
G1 X160.46 Y166.637 E7.77579
G1 X159.691 Y166.639 E7.80137
G1 X159.179 Y166.587 E7.81849
G1 X158.664 Y166.664 E7.83581
G1 X157.896 Y166.698 E7.86138
G1 X157.128 Y166.652 E7.88697
G1 X156.661 Y166.584 E7.90266
G1 X155.388 Y166.358 E7.94566
G1 X153.891 Y166.06 E7.99643
G1 X153.145 Y165.87 E8.02204
G1 X152.64 Y165.693 E8.03983
G1 X151.503 Y165.247 E8.08046
G1 X150.802 Y164.929 E8.10606
G1 X149.846 Y164.338 E8.14344
G1 X148.944 Y163.681 E8.18056
G1 X148.487 Y163.384 E8.19868
G1 X147.864 Y162.932 E8.22428
G1 X147.292 Y162.419 E8.24984
G1 X146.776 Y161.848 E8.27544
G1 X146.322 Y161.227 E8.30102
G1 X145.989 Y160.666 E8.32272
G1 X145.522 Y159.793 E8.35565
G1 X144.944 Y158.958 E8.38943
G1 X144.929 Y158.933 E8.3904
G1 X135.582 Y157.993 E8.70285
G1 X135.406 Y157.966 E8.70877
G1 X135.102 Y158.062 E8.71937
G1 X134.113 Y158.25 E8.75286
G1 X133.205 Y158.359 E8.78327
G1 X132.438 Y158.411 E8.80884
G1 X131.669 Y158.383 E8.83444
G1 X130.907 Y158.275 E8.86003
G1 X130.161 Y158.089 E8.8856
G1 X129.438 Y157.827 E8.91118
G1 X128.746 Y157.49 E8.93678
G1 X128.093 Y157.084 E8.96236
G1 X127.486 Y156.612 E8.98793
G1 X126.931 Y156.08 E9.0135
G1 X126.337 Y155.362 E9.0445
G1 X125.622 Y154.378 E9.08495
G1 X125.202 Y153.733 E9.11055
G1 X124.852 Y153.048 E9.13614
G1 X124.575 Y152.331 E9.1617
G1 X124.374 Y151.588 E9.1873
G1 X124.251 Y150.829 E9.21288
G1 X124.208 Y150.061 E9.23846
G1 X124.245 Y149.293 E9.26403
G1 X124.361 Y148.532 E9.28964
G1 X124.555 Y147.788 E9.31521
G1 X124.826 Y147.068 E9.3408
G1 X125.17 Y146.38 E9.36638
G1 X125.622 Y145.678 E9.39415
G1 X125.867 Y145.34 E9.40803
G1 X125.91 Y144.598 E9.43276
G1 X126.033 Y143.838 E9.45836
G1 X126.235 Y143.096 E9.48394
G1 X126.479 Y142.455 E9.50675
G1 X126.678 Y141.997 E9.52336
G1 X127.021 Y141.308 E9.54896
G1 X127.433 Y140.659 E9.57453
G1 X127.911 Y140.056 E9.60012
G1 X128.448 Y139.506 E9.62569
G0 F6000 X128.78 Y139.745
G1 F1200 X129.362 Y139.275 E9.65057
G1 X129.99 Y138.869 E9.67544
G1 X130.659 Y138.533 E9.70034
G1 X131.359 Y138.27 E9.72521
G1 X132.084 Y138.084 E9.75011
G1 X132.824 Y137.975 E9.77498
G1 X133.571 Y137.947 E9.79985
G1 X134.214 Y137.991 E9.82128
G1 X134.623 Y137.893 E9.83527
G1 X135.365 Y137.798 E9.86015
G1 X135.881 Y137.779 E9.87733
G1 X157.442 Y137.779 E10.59445
G1 X157.636 Y137.402 E10.60855
G1 X158.048 Y136.777 E10.63345
G1 X158.524 Y136.2 E10.65833
G1 X159.058 Y135.677 E10.68319
G1 X159.56 Y135.275 E10.70458
G1 X160.365 Y134.689 E10.73769
G1 X160.993 Y134.281 E10.7626
G1 X161.66 Y133.943 E10.78747
G1 X162.36 Y133.678 E10.81237
G1 X163.084 Y133.49 E10.83725
G1 X163.823 Y133.379 E10.8621
G1 X164.485 Y133.348 E10.88414
G1 X165.479 Y133.348 E10.9172
G1 X166.226 Y133.388 E10.94208
G1 X166.964 Y133.507 E10.96695
G1 X167.686 Y133.705 E10.99185
G1 X168.382 Y133.978 E11.01671
G1 X169.045 Y134.325 E11.0416
G1 X169.599 Y134.689 E11.06365
G1 X170.404 Y135.275 E11.09677
G1 X170.984 Y135.747 E11.12164
G1 X171.511 Y136.278 E11.14652
G1 X171.978 Y136.862 E11.17139
G1 X172.38 Y137.493 E11.19628
G1 X172.712 Y138.163 E11.22115
G1 X172.789 Y138.367 E11.2284
G1 X172.897 Y138.409 E11.23225
G1 X173.56 Y138.756 E11.25714
G1 X174.183 Y139.171 E11.28204
G1 X174.757 Y139.65 E11.30691
G1 X175.278 Y140.187 E11.33179
G1 X175.737 Y140.777 E11.35665
G1 X176.132 Y141.413 E11.38155
G1 X176.456 Y142.087 E11.40643
G1 X176.706 Y142.792 E11.43131
G1 X176.88 Y143.52 E11.4562
G1 X176.975 Y144.262 E11.48108
G1 X176.994 Y144.779 E11.49829
G1 X176.994 Y148.416 E11.61926
G1 X176.954 Y149.163 E11.64414
G1 X176.835 Y149.901 E11.669
G1 X176.637 Y150.623 E11.6939
G1 X176.364 Y151.319 E11.71877
G1 X176.017 Y151.982 E11.74366
G1 X175.602 Y152.605 E11.76855
G1 X175.123 Y153.179 E11.79342
G1 X174.586 Y153.7 E11.8183
G1 X173.996 Y154.159 E11.84317
G1 X173.36 Y154.554 E11.86807
G1 X172.686 Y154.878 E11.89294
G1 X172.616 Y154.903 E11.89541
G1 X172.577 Y155.052 E11.90054
G1 X172.06 Y156.846 E11.96263
G1 X171.901 Y157.332 E11.97964
G1 X171.419 Y158.638 E12.02594
G1 X171.123 Y159.325 E12.05082
G1 X170.689 Y160.077 E12.0797
G1 X169.865 Y161.322 E12.12936
G1 X169.42 Y161.923 E12.15423
G1 X168.913 Y162.472 E12.17909
G1 X167.701 Y163.653 E12.23537
G1 X167.138 Y164.146 E12.26026
G1 X166.526 Y164.576 E12.28514
G1 X165.901 Y164.924 E12.30893
G1 X164.856 Y165.437 E12.34765
G1 X164.168 Y165.73 E12.37252
G1 X163.452 Y165.948 E12.39741
G1 X162.717 Y166.089 E12.42231
G1 X162.157 Y166.142 E12.44101
G1 X160.438 Y166.237 E12.49828
G1 X159.69 Y166.239 E12.52316
G1 X159.179 Y166.185 E12.54025
G1 X158.564 Y166.271 E12.5609
G1 X157.817 Y166.297 E12.58576
G1 X156.731 Y166.19 E12.62206
G1 X155.309 Y165.936 E12.6701
G1 X153.969 Y165.668 E12.71555
G1 X153.245 Y165.482 E12.74041
G1 X152.786 Y165.321 E12.75659
G1 X151.649 Y164.875 E12.79721
G1 X150.968 Y164.565 E12.8221
G1 X150.081 Y164.015 E12.85681
G1 X149.163 Y163.346 E12.89459
G1 X148.704 Y163.048 E12.9128
G1 X148.099 Y162.608 E12.93768
G1 X147.545 Y162.106 E12.96254
G1 X147.047 Y161.548 E12.98742
G1 X146.612 Y160.94 E13.01228
G1 X146.342 Y160.478 E13.03008
G1 X145.862 Y159.581 E13.06392
G1 X145.273 Y158.73 E13.09834
G1 X145.165 Y158.555 E13.10518
G1 X135.622 Y157.595 E13.42418
G1 X135.374 Y157.557 E13.43253
G1 X134.962 Y157.686 E13.44689
G1 X134.065 Y157.853 E13.47723
G1 X133.157 Y157.962 E13.50765
G1 X132.411 Y158.011 E13.53252
G1 X131.663 Y157.981 E13.55742
G1 X130.924 Y157.871 E13.58227
G1 X130.2 Y157.682 E13.60715
G1 X129.5 Y157.417 E13.63205
G1 X128.833 Y157.08 E13.6569
G1 X128.205 Y156.673 E13.68179
G1 X127.624 Y156.201 E13.70669
G1 X127.098 Y155.67 E13.73155
G1 X126.66 Y155.127 E13.75475
G1 X125.945 Y154.143 E13.79521
G1 X125.538 Y153.515 E13.8201
G1 X125.201 Y152.847 E13.84498
G1 X124.937 Y152.148 E13.86984
G1 X124.749 Y151.424 E13.89471
G1 X124.639 Y150.684 E13.9196
G1 X124.609 Y149.936 E13.9445
G1 X124.658 Y149.19 E13.96936
G1 X124.788 Y148.453 E13.99425
G1 X124.995 Y147.734 E14.01914
G1 X125.277 Y147.041 E14.04402
G1 X125.632 Y146.383 E14.06889
G1 X125.945 Y145.913 E14.08767
G1 X126.275 Y145.459 E14.10634
G1 X126.268 Y145.224 E14.11416
G1 X126.327 Y144.478 E14.13905
G1 X126.466 Y143.743 E14.16393
G1 X126.682 Y143.027 E14.1888
G1 X126.846 Y142.614 E14.20358
G1 X127.045 Y142.156 E14.22019
G1 X127.379 Y141.487 E14.24506
G1 X127.783 Y140.858 E14.26993
G1 X128.252 Y140.275 E14.29481
G1 X128.78 Y139.745 E14.31969
G0 F6000 X129.111 Y139.986
G1 F1200 X129.682 Y139.538 E14.34383
G1 X130.299 Y139.155 E14.36799
G1 X130.955 Y138.842 E14.39216
G1 X131.641 Y138.603 E14.41632
G1 X132.349 Y138.441 E14.44048
G1 X133.071 Y138.358 E14.46465
G1 X133.797 Y138.354 E14.4888
G1 X134.206 Y138.398 E14.50248
G1 X134.253 Y138.383 E14.50412
G1 X134.965 Y138.243 E14.52826
G1 X135.881 Y138.179 E14.5588
G1 X157.685 Y138.179 E15.284
G1 X158.003 Y137.567 E15.30694
G1 X158.408 Y136.964 E15.3311
G1 X158.876 Y136.409 E15.35525
G1 X159.402 Y135.908 E15.37941
G1 X159.796 Y135.598 E15.39608
G1 X160.601 Y135.012 E15.4292
G1 X161.211 Y134.618 E15.45335
G1 X161.86 Y134.292 E15.47751
G1 X162.541 Y134.041 E15.50165
G1 X163.246 Y133.865 E15.52582
G1 X163.966 Y133.768 E15.54998
G1 X164.485 Y133.748 E15.56725
G1 X165.479 Y133.748 E15.60031
G1 X166.204 Y133.788 E15.62446
G1 X166.921 Y133.907 E15.64864
G1 X167.62 Y134.105 E15.6728
G1 X168.293 Y134.378 E15.69696
G1 X168.932 Y134.723 E15.72111
G1 X169.363 Y135.012 E15.73837
G1 X170.168 Y135.598 E15.77149
G1 X170.731 Y136.057 E15.79565
G1 X171.24 Y136.575 E15.8198
G1 X171.689 Y137.146 E15.84396
G1 X172.073 Y137.763 E15.86813
G1 X172.386 Y138.419 E15.89231
G1 X172.481 Y138.676 E15.90142
G1 X172.808 Y138.809 E15.91316
G1 X173.447 Y139.154 E15.93732
G1 X174.044 Y139.568 E15.96148
G1 X174.592 Y140.044 E15.98562
G1 X175.085 Y140.578 E16.00979
G1 X175.515 Y141.163 E16.03394
G1 X175.879 Y141.792 E16.05811
G1 X176.172 Y142.457 E16.08228
G1 X176.39 Y143.15 E16.10645
G1 X176.53 Y143.862 E16.13058
G1 X176.594 Y144.779 E16.16115
G1 X176.594 Y148.416 E16.28212
G1 X176.554 Y149.141 E16.30627
G1 X176.435 Y149.858 E16.33045
G1 X176.237 Y150.557 E16.35461
G1 X175.964 Y151.23 E16.37876
G1 X175.619 Y151.869 E16.40292
G1 X175.205 Y152.466 E16.42708
G1 X174.729 Y153.014 E16.45122
G1 X174.195 Y153.507 E16.4754
G1 X173.61 Y153.937 E16.49954
G1 X172.981 Y154.301 E16.52372
G1 X172.316 Y154.594 E16.54788
G1 X172.28 Y154.605 E16.54914
G1 X172.193 Y154.942 E16.56071
G1 X171.676 Y156.736 E16.62281
G1 X171.526 Y157.193 E16.63881
