;FLAVOR:Marlin
;TIME:4220
;Filament used: 2.04305m
;Layer height: 0.2
;MINX:131.771
;MINY:122.2
;MINZ:0.2
;MAXX:168.004
;MAXY:175.795
;MAXZ:25.4
;Generated with Cura_SteamEngine 4.12.1
M140 S95
M105
M190 S95
M82 ;absolute extrusion mode
M201 X500.00 Y500.00 Z100.00 E5000.00 ;Setup machine max acceleration
M203 X500.00 Y500.00 Z10.00 E50.00 ;Setup machine max feedrate
M204 P500.00 R1000.00 T500.00 ;Setup Print/Retract/Travel acceleration
M205 X8.00 Y8.00 Z0.40 E5.00 ;Setup Jerk
M220 S100 ;Reset Feedrate
M221 S100 ;Reset Flowrate
M140 S95 ; set bed temp
M190 S95 ; wait for bed temp
G28; home all 
G29;
G92 E0 ;Reset Extruder
G1 Z2.0 F3000 ;Move Z Axis up
G1 X10.1 Y20 Z0.28 F5000.0 ;Move to start position
M104 S230 ; wait for extruder printing temp
M109 S230 ; wait for extruder printing temp
G1 X10.1 Y200.0 Z0.28 F1500.0 E15 ;Draw the first line
G1 X10.4 Y200.0 Z0.28 F5000.0 ;Move to side a little
G1 X10.4 Y20 Z0.28 F1500.0 E30 ;Draw the second line
G92 E0 ;Reset Extruder
G1 Z2.0 F3000 ;Move Z Axis up
G92 E0
G92 E0
G1 F2700 E-3
;LAYER_COUNT:127
;LAYER:0
M107
G0 F6000 X133.651 Y126.403 Z0.2
;TYPE:SKIRT
G1 F2700 E0
G1 F1200 X134.194 Y125.83 E0.02626
G1 X134.793 Y125.315 E0.05253
G1 X135.441 Y124.864 E0.07879
G1 X136.132 Y124.48 E0.10508
G1 X136.857 Y124.168 E0.13133
G1 X137.61 Y123.931 E0.15759
G1 X138.384 Y123.772 E0.18387
G1 X139.169 Y123.691 E0.21012
G1 X139.571 Y123.681 E0.22349
G1 X140.227 Y123.681 E0.24531
G1 X140.655 Y123.383 E0.26266
G1 X141.346 Y122.999 E0.28895
G1 X142.071 Y122.687 E0.3152
G1 X142.824 Y122.45 E0.34146
G1 X143.598 Y122.291 E0.36774
G1 X144.383 Y122.21 E0.39399
G1 X144.785 Y122.2 E0.40736
G1 X147.925 Y122.2 E0.5118
G1 X148.714 Y122.24 E0.53807
G1 X149.494 Y122.359 E0.56432
G1 X150.259 Y122.557 E0.5906
G1 X150.999 Y122.831 E0.61685
G1 X152.029 Y123.367 E0.65546
G1 X157.886 Y126.99 E0.88453
G1 X158.072 Y127.092 E0.89158
G1 X158.722 Y127.54 E0.91784
G1 X159.324 Y128.051 E0.9441
G1 X159.871 Y128.621 E0.97038
G1 X160.184 Y129.02 E0.98725
G1 X160.229 Y129.026 E0.98876
G1 X160.998 Y129.207 E1.01503
G1 X161.745 Y129.464 E1.04131
G1 X162.462 Y129.795 E1.06757
G1 X163.141 Y130.197 E1.09382
G1 X163.777 Y130.666 E1.1201
G1 X164.362 Y131.196 E1.14635
G1 X165.056 Y131.994 E1.18153
G1 X165.336 Y132.364 E1.19696
G1 X165.482 Y132.564 E1.2052
G1 X165.865 Y133.105 E1.22724
G1 X166.288 Y133.772 E1.25351
G1 X166.517 Y134.208 E1.26989
G1 X167.021 Y135.247 E1.3083
G1 X167.329 Y135.974 E1.33456
G1 X167.578 Y136.793 E1.36303
G1 X167.772 Y137.584 E1.39012
G1 X167.922 Y138.36 E1.41641
G1 X167.997 Y139.442 E1.45248
G1 X167.997 Y140.316 E1.48155
G1 X168.004 Y141.107 E1.50786
G1 X167.995 Y142.15 E1.54255
G1 X167.948 Y142.939 E1.56884
G1 X167.822 Y143.718 E1.59509
G1 X167.617 Y144.481 E1.62137
G1 X167.445 Y144.935 E1.63752
G1 X167.421 Y145.072 E1.64214
G1 X167.207 Y145.832 E1.6684
G1 X166.811 Y146.792 E1.70294
G1 X166.481 Y147.462 E1.72778
G1 X165.889 Y148.467 E1.76658
G1 X165.659 Y148.798 E1.77998
G1 X165.43 Y149.096 E1.79248
G1 X165.129 Y149.522 E1.80983
G1 X164.885 Y149.853 E1.82351
G1 X164.38 Y150.461 E1.8498
G1 X163.817 Y151.014 E1.87604
G1 X163.201 Y151.508 E1.90231
G1 X162.537 Y151.936 E1.92858
G1 X161.834 Y152.296 E1.95485
G1 X161.098 Y152.582 E1.98111
G1 X160.875 Y152.644 E1.98881
G1 X158.379 Y164.742 E2.39967
G1 X158.385 Y164.993 E2.40802
G1 X158.385 Y167.995 E2.50787
G1 X158.345 Y168.784 E2.53414
G1 X158.226 Y169.564 E2.56038
G1 X158.028 Y170.329 E2.58667
G1 X157.754 Y171.069 E2.61291
G1 X157.406 Y171.778 E2.63918
G1 X156.988 Y172.449 E2.66548
G1 X156.505 Y173.073 E2.69172
G1 X155.962 Y173.646 E2.71798
G1 X155.363 Y174.161 E2.74425
G1 X154.715 Y174.612 E2.77051
G1 X154.024 Y174.996 E2.7968
G1 X153.299 Y175.308 E2.82305
G1 X152.546 Y175.545 E2.84931
G1 X151.772 Y175.704 E2.87559
G1 X150.987 Y175.785 E2.90184
G1 X150.584 Y175.795 E2.91525
G1 X144.784 Y175.794 E3.10816
G1 X143.995 Y175.754 E3.13443
G1 X143.214 Y175.634 E3.16071
G1 X142.45 Y175.436 E3.18696
G1 X141.709 Y175.162 E3.21324
G1 X141 Y174.814 E3.23951
G1 X140.33 Y174.397 E3.26576
G1 X139.706 Y173.913 E3.29202
G1 X139.133 Y173.37 E3.31828
G1 X138.619 Y172.771 E3.34453
G1 X138.167 Y172.123 E3.37081
G1 X137.784 Y171.432 E3.39709
G1 X137.472 Y170.707 E3.42334
G1 X137.235 Y169.953 E3.44962
G1 X137.076 Y169.18 E3.47587
G1 X136.995 Y168.394 E3.50215
G1 X136.985 Y167.994 E3.51546
G1 X136.985 Y164.992 E3.61531
G1 X137.005 Y164.607 E3.62813
G1 X136.995 Y164.514 E3.63124
G1 X136.985 Y164.114 E3.64455
G1 X136.985 Y145.791 E4.25398
G1 X136.497 Y145.61 E4.27129
G1 X135.788 Y145.262 E4.29756
G1 X135.117 Y144.844 E4.32385
G1 X134.493 Y144.361 E4.3501
G1 X133.92 Y143.818 E4.37635
G1 X133.405 Y143.219 E4.40263
G1 X132.954 Y142.571 E4.42888
G1 X132.57 Y141.88 E4.45518
G1 X132.258 Y141.155 E4.48143
G1 X132.021 Y140.402 E4.50769
G1 X131.862 Y139.628 E4.53397
G1 X131.781 Y138.843 E4.56021
G1 X131.771 Y138.441 E4.57359
G1 X131.771 Y131.481 E4.80508
G1 X131.811 Y130.692 E4.83135
G1 X131.93 Y129.912 E4.8576
G1 X132.128 Y129.147 E4.88388
G1 X132.402 Y128.407 E4.91013
G1 X132.75 Y127.698 E4.93639
G1 X133.168 Y127.027 E4.96269
G1 X133.651 Y126.403 E4.98893
G0 F6000 X134.046 Y126.558
G1 F1200 X134.587 Y126.011 E5.01452
G1 X135.182 Y125.523 E5.04012
G1 X135.824 Y125.1 E5.06569
G1 X136.507 Y124.745 E5.09129
G1 X137.222 Y124.464 E5.11684
G1 X137.964 Y124.258 E5.14245
G1 X138.722 Y124.13 E5.16802
G1 X139.571 Y124.081 E5.19631
G1 X140.348 Y124.081 E5.22215
G1 X140.396 Y124.042 E5.22421
G1 X141.038 Y123.619 E5.24978
G1 X141.721 Y123.264 E5.27538
G1 X142.436 Y122.983 E5.30093
G1 X143.178 Y122.777 E5.32654
G1 X143.936 Y122.649 E5.35211
G1 X144.785 Y122.6 E5.3804
G1 X147.925 Y122.6 E5.48483
G1 X148.693 Y122.64 E5.51041
G1 X149.453 Y122.759 E5.536
G1 X150.196 Y122.957 E5.56157
G1 X150.915 Y123.231 E5.58716
G1 X151.818 Y123.707 E5.62112
G1 X157.685 Y127.337 E5.85058
G1 X157.879 Y127.443 E5.85794
G1 X158.511 Y127.882 E5.88353
G1 X159.094 Y128.384 E5.90912
G1 X159.621 Y128.944 E5.9347
G1 X159.968 Y129.398 E5.9537
G1 X160.256 Y129.439 E5.96338
G1 X161.002 Y129.625 E5.98895
G1 X161.725 Y129.888 E6.01454
G1 X162.417 Y130.225 E6.04014
G1 X163.069 Y130.632 E6.0657
G1 X163.677 Y131.104 E6.0913
G1 X164.231 Y131.637 E6.11687
G1 X164.737 Y132.236 E6.14295
G1 X165.017 Y132.606 E6.15838
G1 X165.156 Y132.795 E6.16619
G1 X165.539 Y133.336 E6.18823
G1 X165.95 Y133.986 E6.21381
G1 X166.157 Y134.382 E6.22867
G1 X166.661 Y135.421 E6.26708
G1 X166.96 Y136.13 E6.29267
G1 X167.19 Y136.888 E6.31902
G1 X167.384 Y137.679 E6.34611
G1 X167.528 Y138.435 E6.37171
G1 X167.597 Y139.442 E6.40528
G1 X167.597 Y140.32 E6.43448
G1 X167.604 Y141.104 E6.46056
G1 X167.595 Y142.147 E6.49525
G1 X167.548 Y142.915 E6.52084
G1 X167.422 Y143.673 E6.5464
G1 X167.218 Y144.415 E6.57199
G1 X167.057 Y144.828 E6.58673
G1 X167.022 Y145.022 E6.59329
G1 X166.809 Y145.761 E6.61887
G1 X166.452 Y146.616 E6.64969
G1 X166.122 Y147.286 E6.67453
G1 X165.561 Y148.239 E6.71131
G1 X165.331 Y148.57 E6.72472
G1 X165.107 Y148.859 E6.73688
G1 X164.802 Y149.292 E6.75449
G1 X164.565 Y149.614 E6.76779
G1 X164.072 Y150.205 E6.79339
G1 X163.522 Y150.741 E6.81893
G1 X162.918 Y151.218 E6.84453
G1 X162.268 Y151.63 E6.87013
G1 X161.579 Y151.971 E6.8957
G1 X160.858 Y152.24 E6.92129
G1 X160.532 Y152.324 E6.93249
G1 X157.97 Y164.74 E7.35415
G1 X157.985 Y164.993 E7.36258
G1 X157.985 Y167.995 E7.46242
G1 X157.945 Y168.763 E7.488
G1 X157.826 Y169.523 E7.51359
G1 X157.628 Y170.266 E7.53916
G1 X157.354 Y170.985 E7.56475
G1 X157.007 Y171.671 E7.59032
G1 X156.591 Y172.318 E7.61591
G1 X156.11 Y172.918 E7.64148
G1 X155.569 Y173.465 E7.66707
G1 X154.974 Y173.953 E7.69267
G1 X154.332 Y174.376 E7.71824
G1 X153.649 Y174.731 E7.74384
G1 X152.934 Y175.012 E7.76939
G1 X152.192 Y175.218 E7.795
G1 X151.434 Y175.346 E7.82057
G1 X150.584 Y175.395 E7.84889
G1 X144.784 Y175.394 E8.0418
G1 X144.016 Y175.354 E8.06738
G1 X143.256 Y175.234 E8.09297
G1 X142.513 Y175.036 E8.11854
G1 X141.794 Y174.763 E8.14412
G1 X141.107 Y174.415 E8.16974
G1 X140.461 Y173.999 E8.19529
G1 X139.861 Y173.518 E8.22087
G1 X139.314 Y172.977 E8.24646
G1 X138.826 Y172.382 E8.27205
G1 X138.403 Y171.74 E8.29762
G1 X138.049 Y171.057 E8.32321
G1 X137.767 Y170.341 E8.3488
G1 X137.561 Y169.6 E8.37438
G1 X137.434 Y168.842 E8.39995
G1 X137.385 Y167.994 E8.4282
G1 X137.385 Y164.992 E8.52805
G1 X137.409 Y164.53 E8.54343
G1 X137.385 Y164.114 E8.55729
G1 X137.385 Y145.507 E9.17616
G1 X137.3 Y145.484 E9.17909
G1 X136.581 Y145.21 E9.20468
G1 X135.895 Y144.863 E9.23025
G1 X135.248 Y144.447 E9.25584
G1 X134.648 Y143.966 E9.28141
G1 X134.101 Y143.425 E9.307
G1 X133.613 Y142.83 E9.3326
G1 X133.19 Y142.188 E9.35817
G1 X132.835 Y141.505 E9.38377
G1 X132.554 Y140.79 E9.40932
G1 X132.348 Y140.048 E9.43493
G1 X132.22 Y139.29 E9.4605
G1 X132.171 Y138.441 E9.48879
G1 X132.171 Y131.481 E9.72028
G1 X132.211 Y130.713 E9.74586
G1 X132.33 Y129.953 E9.77144
G1 X132.528 Y129.21 E9.79702
G1 X132.802 Y128.491 E9.82261
G1 X133.149 Y127.805 E9.84818
G1 X133.565 Y127.158 E9.87376
G1 X134.046 Y126.558 E9.89934
G0 F6000 X134.442 Y126.718
G1 F1200 X134.979 Y126.197 E9.92422
G1 X135.569 Y125.738 E9.94909
G1 X136.205 Y125.343 E9.97399
G1 X136.879 Y125.019 E9.99886
G1 X137.584 Y124.769 E10.02374
G1 X138.312 Y124.595 E10.04863
G1 X139.054 Y124.5 E10.07351
G1 X139.571 Y124.481 E10.09072
G1 X140.495 Y124.481 E10.12145
G1 X140.783 Y124.257 E10.13359
G1 X141.419 Y123.862 E10.15849
G1 X142.093 Y123.538 E10.18336
G1 X142.798 Y123.288 E10.20824
G1 X143.526 Y123.114 E10.23314
G1 X144.268 Y123.019 E10.25802
G1 X144.785 Y123 E10.27523
G1 X147.925 Y123 E10.37966
G1 X148.672 Y123.04 E10.40454
G1 X149.41 Y123.159 E10.42941
G1 X150.132 Y123.357 E10.45431
G1 X150.828 Y123.63 E10.47917
G1 X151.608 Y124.047 E10.50859
G1 X157.493 Y127.688 E10.73876
G1 X157.686 Y127.794 E10.74608
G1 X158.298 Y128.224 E10.77096
G1 X158.861 Y128.716 E10.79583
G1 X159.369 Y129.265 E10.82071
G1 X159.743 Y129.768 E10.84155
G1 X160.28 Y129.852 E10.85963
G1 X161.003 Y130.045 E10.88452
G1 X161.701 Y130.314 E10.9094
G1 X162.366 Y130.656 E10.93427
G1 X162.991 Y131.067 E10.95915
G1 X163.568 Y131.543 E10.98403
G1 X164.092 Y132.077 E11.00891
G1 X164.418 Y132.477 E11.02608
G1 X164.698 Y132.847 E11.04151
G1 X164.829 Y133.026 E11.04889
G1 X165.212 Y133.567 E11.07093
G1 X165.611 Y134.2 E11.09582
G1 X165.797 Y134.557 E11.10921
G1 X166.301 Y135.596 E11.14762
G1 X166.591 Y136.285 E11.17248
G1 X166.802 Y136.984 E11.19677
G1 X166.996 Y137.775 E11.22386
G1 X167.135 Y138.51 E11.24873
G1 X167.197 Y139.442 E11.2798
G1 X167.197 Y140.324 E11.30914
G1 X167.204 Y141.1 E11.33495
G1 X167.195 Y142.143 E11.36964
G1 X167.148 Y142.89 E11.39453
G1 X167.022 Y143.627 E11.4194
G1 X166.819 Y144.347 E11.44428
G1 X166.669 Y144.718 E11.45759
G1 X166.623 Y144.972 E11.46618
G1 X166.41 Y145.689 E11.49106
G1 X166.094 Y146.439 E11.51813
G1 X165.764 Y147.109 E11.54297
G1 X165.232 Y148.01 E11.57777
G1 X165.002 Y148.341 E11.59117
G1 X164.79 Y148.614 E11.60267
G1 X164.475 Y149.061 E11.62086
G1 X164.244 Y149.374 E11.6338
G1 X163.765 Y149.948 E11.65866
G1 X163.227 Y150.468 E11.68355
G1 X162.636 Y150.927 E11.70844
G1 X162 Y151.321 E11.73332
G1 X161.326 Y151.644 E11.75818
G1 X160.621 Y151.894 E11.78306
G1 X160.192 Y151.996 E11.79772
G1 X157.574 Y164.687 E12.22872
G1 X157.585 Y164.993 E12.2389
G1 X157.585 Y167.995 E12.33875
G1 X157.545 Y168.742 E12.36363
G1 X157.426 Y169.48 E12.38849
G1 X157.228 Y170.202 E12.41339
G1 X156.955 Y170.898 E12.43826
G1 X156.608 Y171.561 E12.46315
G1 X156.193 Y172.184 E12.48804
G1 X155.714 Y172.758 E12.51291
G1 X155.177 Y173.279 E12.5378
G1 X154.587 Y173.738 E12.56266
G1 X153.951 Y174.133 E12.58756
G1 X153.277 Y174.457 E12.61243
G1 X152.572 Y174.707 E12.63731
G1 X151.844 Y174.881 E12.66221
G1 X151.102 Y174.976 E12.68709
G1 X150.584 Y174.995 E12.70433
G1 X144.784 Y174.994 E12.89724
G1 X144.037 Y174.954 E12.92212
G1 X143.298 Y174.834 E12.94702
G1 X142.577 Y174.637 E12.97188
G1 X141.881 Y174.363 E12.99676
G1 X141.218 Y174.017 E13.02163
G1 X140.595 Y173.602 E13.04653
G1 X140.021 Y173.123 E13.07139
G1 X139.501 Y172.585 E13.09628
G1 X139.041 Y171.995 E13.12116
G1 X138.647 Y171.359 E13.14605
G1 X138.323 Y170.685 E13.17092
G1 X138.073 Y169.98 E13.1958
G1 X137.899 Y169.252 E13.22069
G1 X137.804 Y168.51 E13.24557
G1 X137.785 Y167.994 E13.26275
G1 X137.785 Y164.992 E13.36259
G1 X137.804 Y164.63 E13.37465
G1 X137.785 Y164.114 E13.39183
G1 X137.785 Y145.199 E14.02094
G1 X137.364 Y145.084 E14.03546
G1 X136.668 Y144.811 E14.06032
G1 X136.005 Y144.464 E14.08521
G1 X135.382 Y144.049 E14.11011
G1 X134.808 Y143.57 E14.13497
G1 X134.287 Y143.033 E14.15986
G1 X133.828 Y142.443 E14.18472
G1 X133.433 Y141.807 E14.20962
G1 X133.109 Y141.133 E14.2345
G1 X132.859 Y140.428 E14.25938
G1 X132.685 Y139.7 E14.28427
G1 X132.59 Y138.958 E14.30915
G1 X132.571 Y138.441 E14.32636
G1 X132.571 Y131.481 E14.55785
G1 X132.611 Y130.734 E14.58273
G1 X132.73 Y129.996 E14.60759
G1 X132.928 Y129.274 E14.63249
G1 X133.201 Y128.578 E14.65736
G1 X133.548 Y127.915 E14.68225
G1 X133.963 Y127.292 E14.70715
G1 X134.442 Y126.718 E14.73201
G0 F6000 X134.36 Y127.431
G1 F1200 X134.836 Y126.883 E14.75615
G1 X135.37 Y126.39 E14.78033
G1 X135.955 Y125.96 E14.80447
G1 X136.584 Y125.596 E14.82865
G1 X137.249 Y125.303 E14.85282
G1 X137.942 Y125.085 E14.87698
G1 X138.654 Y124.945 E14.90111
G1 X139.571 Y124.881 E14.93169
G1 X140.622 Y124.881 E14.96664
G1 X141.169 Y124.479 E14.98922
G1 X141.798 Y124.115 E15.01339
G1 X142.463 Y123.822 E15.03756
G1 X143.156 Y123.604 E15.06172
G1 X143.868 Y123.464 E15.08586
G1 X144.785 Y123.4 E15.11643
G1 X147.925 Y123.4 E15.22087
G1 X148.65 Y123.44 E15.24502
G1 X149.367 Y123.559 E15.26919
G1 X150.066 Y123.757 E15.29336
G1 X150.739 Y124.03 E15.31751
G1 X151.397 Y124.387 E15.34241
G1 X157.3 Y128.039 E15.57328
G1 X157.492 Y128.145 E15.58058
G1 X158.084 Y128.565 E15.60472
G1 X158.628 Y129.047 E15.62889
G1 X159.114 Y129.586 E15.65303
G1 X159.514 Y130.14 E15.67576
G1 X159.584 Y130.144 E15.67809
G1 X160.3 Y130.265 E15.70224
G1 X160.999 Y130.465 E15.72642
G1 X161.671 Y130.741 E15.75059
G1 X162.309 Y131.088 E15.77474
G1 X162.904 Y131.504 E15.79889
G1 X163.451 Y131.982 E15.82305
G1 X164.099 Y132.718 E15.85567
G1 X164.379 Y133.088 E15.8711
G1 X164.503 Y133.257 E15.87807
G1 X164.886 Y133.798 E15.90012
G1 X165.437 Y134.731 E15.93616
G1 X165.941 Y135.77 E15.97456
G1 X166.222 Y136.44 E15.99873
G1 X166.413 Y137.079 E16.02091
G1 X166.607 Y137.87 E16.048
G1 X166.741 Y138.584 E16.07216
G1 X166.797 Y139.442 E16.10076
G1 X166.797 Y140.329 E16.13026
G1 X166.804 Y141.097 E16.15581
G1 X166.795 Y142.14 E16.1905
G1 X166.749 Y142.865 E16.21466
G1 X166.623 Y143.58 E16.23881
G1 X166.419 Y144.278 E16.26299
G1 X166.283 Y144.606 E16.2748
G1 X166.224 Y144.92 E16.28543
G1 X166.012 Y145.614 E16.30957
G1 X165.735 Y146.262 E16.33301
G1 X165.405 Y146.932 E16.35785
G1 X164.904 Y147.782 E16.39066
G1 X164.674 Y148.113 E16.40407
G1 X164.467 Y148.378 E16.41525
G1 X164.148 Y148.831 E16.43368
G1 X163.924 Y149.134 E16.44621
G1 X163.458 Y149.691 E16.47037
G1 X162.933 Y150.193 E16.49453
G1 X162.356 Y150.635 E16.5187
G1 X161.734 Y151.01 E16.54286
G1 X161.075 Y151.315 E16.56701
G1 X160.386 Y151.545 E16.59117
G1 X159.853 Y151.66 E16.60931
G1 X157.164 Y164.693 E17.05192
G1 X157.185 Y164.993 E17.06192
G1 X157.185 Y167.995 E17.16176
G1 X157.145 Y168.72 E17.18592
G1 X157.026 Y169.437 E17.21009
G1 X156.828 Y170.136 E17.23425
G1 X156.555 Y170.809 E17.25841
G1 X156.21 Y171.448 E17.28256
G1 X155.796 Y172.045 E17.30672
G1 X155.32 Y172.593 E17.33087
G1 X154.786 Y173.086 E17.35504
G1 X154.201 Y173.516 E17.37919
G1 X153.572 Y173.88 E17.40336
G1 X152.907 Y174.173 E17.42753
G1 X152.214 Y174.391 E17.45169
G1 X151.502 Y174.531 E17.47583
G1 X150.584 Y174.595 E17.50643
G1 X144.784 Y174.594 E17.69934
G1 X144.059 Y174.554 E17.72349
G1 X143.342 Y174.434 E17.74767
G1 X142.643 Y174.237 E17.77183
G1 X141.97 Y173.964 E17.79598
G1 X141.331 Y173.618 E17.82015
G1 X140.734 Y173.205 E17.84429
G1 X140.186 Y172.728 E17.86846
G1 X139.694 Y172.194 E17.89261
G1 X139.263 Y171.609 E17.91678
G1 X138.899 Y170.98 E17.94095
G1 X138.607 Y170.315 E17.9651
G1 X138.389 Y169.622 E17.98927
G1 X138.249 Y168.91 E18.0134
