;FLAVOR:Marlin
;TIME:2529
;Filament used: 1.28653m
;Layer height: 0.2
;MINX:132.72
;MINY:123.864
;MINZ:0.2
;MAXX:167.514
;MAXY:177.8
;MAXZ:13
;Generated with Cura_SteamEngine 4.12.1
M140 S95
M105
M190 S95
M82 ;absolute extrusion mode
M201 X500.00 Y500.00 Z100.00 E5000.00 ;Setup machine max acceleration
M203 X500.00 Y500.00 Z10.00 E50.00 ;Setup machine max feedrate
M204 P500.00 R1000.00 T500.00 ;Setup Print/Retract/Travel acceleration
M205 X8.00 Y8.00 Z0.40 E5.00 ;Setup Jerk
M220 S100 ;Reset Feedrate
M221 S100 ;Reset Flowrate
M140 S95 ; set bed temp
M190 S95 ; wait for bed temp
G28; home all 
G29;
G92 E0 ;Reset Extruder
G1 Z2.0 F3000 ;Move Z Axis up
G1 X10.1 Y20 Z0.28 F5000.0 ;Move to start position
M104 S230 ; wait for extruder printing temp
M109 S230 ; wait for extruder printing temp
G1 X10.1 Y200.0 Z0.28 F1500.0 E15 ;Draw the first line
G1 X10.4 Y200.0 Z0.28 F5000.0 ;Move to side a little
G1 X10.4 Y20 Z0.28 F1500.0 E30 ;Draw the second line
G92 E0 ;Reset Extruder
G1 Z2.0 F3000 ;Move Z Axis up
G92 E0
G92 E0
G1 F2700 E-3
;LAYER_COUNT:65
;LAYER:0
M107
G0 F6000 X143.818 Y126.468 Z0.2
;TYPE:SKIRT
G1 F2700 E0
G1 F1200 X144.374 Y125.907 E0.02627
G1 X144.983 Y125.404 E0.05254
G1 X145.639 Y124.966 E0.07878
G1 X146.337 Y124.596 E0.10505
G1 X147.069 Y124.299 E0.13133
G1 X147.827 Y124.077 E0.1576
G1 X148.603 Y123.933 E0.18385
G1 X149.636 Y123.864 E0.21828
G1 X150.274 Y123.864 E0.2395
G1 X151.063 Y123.904 E0.26578
G1 X151.843 Y124.023 E0.29202
G1 X152.608 Y124.221 E0.3183
G1 X153.348 Y124.495 E0.34455
G1 X154.057 Y124.843 E0.37082
G1 X154.728 Y125.261 E0.39711
G1 X155.173 Y125.605 E0.41582
G1 X155.482 Y125.67 E0.42632
G1 X156.235 Y125.91 E0.45261
G1 X156.959 Y126.224 E0.47885
G1 X157.807 Y126.712 E0.5114
G1 X158.699 Y127.303 E0.54698
G1 X159.335 Y127.772 E0.57327
G1 X159.919 Y128.302 E0.5995
G1 X160.447 Y128.89 E0.62578
G1 X160.913 Y129.527 E0.65203
G1 X161.312 Y130.209 E0.67831
G1 X161.562 Y130.736 E0.69771
G1 X161.913 Y131.556 E0.72738
G1 X162.186 Y132.296 E0.75361
G1 X162.256 Y132.567 E0.76292
G1 X162.517 Y133.173 E0.78487
G1 X162.754 Y133.927 E0.81116
G1 X162.913 Y134.7 E0.83741
G1 X162.994 Y135.486 E0.86369
G1 X163.004 Y135.886 E0.87699
G1 X163.004 Y157.109 E1.58287
G1 X163.192 Y157.229 E1.59029
G1 X163.997 Y157.815 E1.62341
G1 X164.611 Y158.311 E1.64966
G1 X165.171 Y158.867 E1.67591
G1 X165.673 Y159.477 E1.70219
G1 X166.11 Y160.135 E1.72846
G1 X166.479 Y160.833 E1.75472
G1 X166.822 Y161.704 E1.78585
G1 X167.13 Y162.649 E1.81891
G1 X167.336 Y163.411 E1.84516
G1 X167.465 Y164.19 E1.87143
G1 X167.514 Y164.979 E1.89772
G1 X167.482 Y165.768 E1.92398
G1 X167.372 Y166.549 E1.95022
G1 X167.13 Y167.483 E1.98231
G1 X166.822 Y168.428 E2.01536
G1 X166.54 Y169.166 E2.04164
G1 X166.184 Y169.871 E2.06791
G1 X165.759 Y170.536 E2.09416
G1 X165.269 Y171.155 E2.12042
G1 X164.719 Y171.722 E2.14669
G1 X163.997 Y172.317 E2.17781
G1 X163.192 Y172.903 E2.21092
G1 X162.53 Y173.335 E2.23722
G1 X162.148 Y173.533 E2.25153
G1 X162.025 Y173.783 E2.26079
G1 X161.607 Y174.454 E2.28709
G1 X161.124 Y175.078 E2.31333
G1 X160.581 Y175.651 E2.33959
G1 X159.982 Y176.166 E2.36586
G1 X159.334 Y176.617 E2.39212
G1 X158.643 Y177.001 E2.41842
G1 X157.918 Y177.313 E2.44467
G1 X157.165 Y177.55 E2.47092
G1 X156.391 Y177.709 E2.4972
G1 X155.606 Y177.79 E2.52345
G1 X155.204 Y177.8 E2.53683
G1 X151.567 Y177.8 E2.65779
G1 X150.778 Y177.76 E2.68407
G1 X149.998 Y177.641 E2.71031
G1 X149.233 Y177.443 E2.73659
G1 X148.493 Y177.169 E2.76284
G1 X147.784 Y176.821 E2.78911
G1 X147.113 Y176.403 E2.8154
G1 X146.489 Y175.92 E2.84165
G1 X145.916 Y175.377 E2.8679
G1 X145.401 Y174.778 E2.89418
G1 X144.95 Y174.13 E2.92044
G1 X144.584 Y173.471 E2.94551
G1 X144.183 Y173.336 E2.95958
G1 X143.013 Y173.085 E2.99938
G1 X142.25 Y172.88 E3.02566
G1 X141.498 Y172.593 E3.05243
G1 X140.276 Y172.053 E3.09687
G1 X139.28 Y171.524 E3.13438
G1 X137.825 Y170.61 E3.19153
G1 X137.178 Y170.157 E3.21779
G1 X136.581 Y169.64 E3.24406
G1 X136.078 Y169.111 E3.26834
G1 X135.218 Y168.118 E3.31203
G1 X134.732 Y167.496 E3.33829
G1 X134.311 Y166.828 E3.36455
G1 X133.844 Y165.837 E3.40099
G1 X133.249 Y164.306 E3.45562
G1 X133 Y163.557 E3.48187
G1 X132.829 Y162.786 E3.50814
G1 X132.736 Y162.002 E3.5344
G1 X132.72 Y161.336 E3.55655
G1 X132.744 Y160.045 E3.5995
G1 X132.799 Y159.257 E3.62577
G1 X132.933 Y158.479 E3.65203
G1 X133.272 Y157.367 E3.69069
G1 X133.766 Y156.095 E3.73608
G1 X133.766 Y156.07 E3.73691
G1 X133.834 Y155.408 E3.75905
G1 X134.074 Y153.764 E3.81431
G1 X134.286 Y152.769 E3.84814
G1 X134.668 Y151.418 E3.89484
G1 X134.921 Y150.67 E3.9211
G1 X135.249 Y149.951 E3.94739
G1 X135.647 Y149.269 E3.97365
G1 X136.112 Y148.631 E3.99991
G1 X136.429 Y148.265 E4.01601
G1 X137.529 Y147.067 E4.07011
G1 X138.091 Y146.513 E4.09635
G1 X138.707 Y146.019 E4.12262
G1 X139.132 Y145.732 E4.13967
G1 X140.664 Y144.772 E4.19981
G1 X141.565 Y135.815 E4.49922
G1 X141.559 Y135.794 E4.49995
G1 X141.424 Y135.016 E4.52621
G1 X141.402 Y134.702 E4.53668
G1 X141.368 Y134.593 E4.54048
G1 X141.21 Y133.819 E4.56675
G1 X141.132 Y133.033 E4.59302
G1 X141.132 Y132.244 E4.61926
G1 X141.213 Y131.458 E4.64554
G1 X141.373 Y130.685 E4.6718
G1 X141.61 Y129.931 E4.69809
G1 X141.922 Y129.206 E4.72434
G1 X142.306 Y128.516 E4.7506
G1 X142.609 Y128.067 E4.76862
G1 X143.323 Y127.083 E4.80906
G1 X143.818 Y126.468 E4.83531
G0 F6000 X144.13 Y126.72
G1 F1200 X144.673 Y126.175 E4.8609
G1 X145.27 Y125.69 E4.88648
G1 X145.913 Y125.269 E4.91205
G1 X146.597 Y124.917 E4.93763
G1 X147.314 Y124.638 E4.96322
G1 X148.056 Y124.435 E4.98881
G1 X148.815 Y124.31 E5.01439
G1 X149.636 Y124.264 E5.04174
G1 X150.274 Y124.264 E5.06296
G1 X151.042 Y124.304 E5.08854
G1 X151.802 Y124.423 E5.11413
G1 X152.545 Y124.621 E5.1397
G1 X153.264 Y124.895 E5.16529
G1 X153.95 Y125.242 E5.19086
G1 X154.597 Y125.658 E5.21644
G1 X154.984 Y125.968 E5.23294
G1 X155.65 Y126.133 E5.25576
G1 X156.373 Y126.395 E5.28134
G1 X157.065 Y126.73 E5.30691
G1 X157.586 Y127.045 E5.32716
G1 X158.478 Y127.636 E5.36274
G1 X159.096 Y128.094 E5.38833
G1 X159.664 Y128.613 E5.41392
G1 X160.174 Y129.188 E5.43948
G1 X160.622 Y129.814 E5.46509
G1 X161.003 Y130.482 E5.49066
G1 X161.194 Y130.893 E5.50574
G1 X161.545 Y131.713 E5.5354
G1 X161.81 Y132.435 E5.56098
G1 X161.879 Y132.705 E5.57025
G1 X161.94 Y132.823 E5.57467
G1 X162.222 Y133.539 E5.60027
G1 X162.428 Y134.28 E5.62585
G1 X162.555 Y135.038 E5.65141
G1 X162.604 Y135.886 E5.67966
G1 X162.604 Y157.324 E6.39269
G1 X162.956 Y157.552 E6.40664
G1 X163.761 Y158.138 E6.43976
G1 X164.359 Y158.623 E6.46537
G1 X164.903 Y159.166 E6.49093
G1 X165.387 Y159.764 E6.51652
G1 X165.807 Y160.408 E6.54209
G1 X166.158 Y161.093 E6.56769
G1 X166.442 Y161.828 E6.5939
G1 X166.75 Y162.773 E6.62696
G1 X166.95 Y163.516 E6.65255
G1 X167.072 Y164.275 E6.67812
G1 X167.114 Y165.043 E6.7037
G1 X167.076 Y165.811 E6.72927
G1 X166.959 Y166.571 E6.75485
G1 X166.75 Y167.359 E6.78197
G1 X166.442 Y168.304 E6.81502
G1 X166.166 Y169.022 E6.84061
G1 X165.817 Y169.707 E6.86618
G1 X165.398 Y170.353 E6.89179
G1 X164.915 Y170.951 E6.91735
G1 X164.373 Y171.497 E6.94294
G1 X163.761 Y171.994 E6.96916
G1 X162.956 Y172.58 E7.00228
G1 X162.312 Y172.999 E7.02784
G1 X161.848 Y173.237 E7.04518
G1 X161.626 Y173.676 E7.06154
G1 X161.21 Y174.323 E7.08713
G1 X160.729 Y174.923 E7.1127
G1 X160.188 Y175.47 E7.13829
G1 X159.593 Y175.958 E7.16389
G1 X158.951 Y176.381 E7.18946
G1 X158.268 Y176.736 E7.21506
G1 X157.553 Y177.017 E7.24061
G1 X156.811 Y177.223 E7.26622
G1 X156.053 Y177.351 E7.29179
G1 X155.204 Y177.4 E7.32008
G1 X151.567 Y177.4 E7.44104
G1 X150.799 Y177.36 E7.46662
G1 X150.039 Y177.241 E7.49221
G1 X149.296 Y177.043 E7.51778
G1 X148.577 Y176.769 E7.54337
G1 X147.891 Y176.422 E7.56894
G1 X147.244 Y176.006 E7.59453
G1 X146.644 Y175.525 E7.6201
G1 X146.097 Y174.984 E7.64569
G1 X145.609 Y174.389 E7.67129
G1 X145.186 Y173.747 E7.69686
G1 X144.874 Y173.146 E7.71938
G1 X144.287 Y172.949 E7.73997
G1 X143.097 Y172.694 E7.78045
G1 X142.354 Y172.494 E7.80604
G1 X141.66 Y172.228 E7.83076
G1 X140.438 Y171.688 E7.8752
G1 X139.493 Y171.185 E7.91081
G1 X138.038 Y170.271 E7.96795
G1 X137.409 Y169.829 E7.99352
G1 X136.829 Y169.323 E8.01912
G1 X136.38 Y168.85 E8.04082
G1 X135.52 Y167.857 E8.08451
G1 X135.048 Y167.25 E8.11008
G1 X134.64 Y166.597 E8.13569
G1 X134.217 Y165.693 E8.16889
G1 X133.622 Y164.162 E8.22352
G1 X133.381 Y163.431 E8.24912
G1 X133.217 Y162.68 E8.27469
G1 X133.132 Y161.915 E8.30029
G1 X133.12 Y161.343 E8.31932
G1 X133.144 Y160.052 E8.36226
G1 X133.199 Y159.285 E8.38784
G1 X133.332 Y158.528 E8.4134
G1 X133.645 Y157.512 E8.44876
G1 X134.165 Y156.173 E8.49654
G1 X134.166 Y156.074 E8.49983
G1 X134.23 Y155.466 E8.52016
G1 X134.47 Y153.822 E8.57542
G1 X134.671 Y152.878 E8.60752
G1 X135.053 Y151.527 E8.65422
G1 X135.301 Y150.798 E8.67983
G1 X135.622 Y150.1 E8.70539
G1 X136.015 Y149.438 E8.73099
G1 X136.723 Y148.535 E8.76916
G1 X137.823 Y147.337 E8.82325
G1 X138.372 Y146.798 E8.84884
G1 X138.974 Y146.319 E8.87443
G1 X139.345 Y146.071 E8.88927
G1 X140.893 Y145.101 E8.95003
G1 X141.041 Y145.018 E8.95567
G1 X141.971 Y135.776 E9.26462
G1 X141.936 Y135.648 E9.26903
G1 X141.812 Y134.889 E9.29461
G1 X141.796 Y134.62 E9.30357
G1 X141.751 Y134.474 E9.30865
G1 X141.6 Y133.719 E9.33426
G1 X141.528 Y132.954 E9.35982
G1 X141.537 Y132.184 E9.38543
G1 X141.625 Y131.42 E9.41101
G1 X141.791 Y130.67 E9.43656
G1 X142.035 Y129.94 E9.46216
G1 X142.354 Y129.24 E9.48774
G1 X142.933 Y128.302 E9.52441
G1 X143.647 Y127.318 E9.56484
G1 X144.13 Y126.72 E9.59041
G0 F6000 X144.441 Y126.972
G1 F1200 X144.972 Y126.444 E9.61532
G1 X145.555 Y125.976 E9.64018
G1 X146.186 Y125.573 E9.66508
G1 X146.855 Y125.24 E9.68994
G1 X147.557 Y124.98 E9.71484
G1 X148.282 Y124.796 E9.73971
G1 X149.023 Y124.691 E9.76461
G1 X149.636 Y124.664 E9.78501
G1 X150.274 Y124.664 E9.80623
G1 X151.021 Y124.704 E9.83112
G1 X151.759 Y124.823 E9.85598
G1 X152.481 Y125.021 E9.88088
G1 X153.177 Y125.294 E9.90575
G1 X153.84 Y125.641 E9.93063
G1 X154.463 Y126.056 E9.95553
G1 X154.813 Y126.348 E9.97069
G1 X155.088 Y126.397 E9.97998
G1 X155.807 Y126.605 E10.00488
G1 X156.499 Y126.889 E10.02976
G1 X157.365 Y127.379 E10.06285
G1 X158.257 Y127.97 E10.09844
G1 X158.858 Y128.416 E10.12333
G1 X159.408 Y128.923 E10.14821
G1 X159.9 Y129.486 E10.17308
G1 X160.329 Y130.099 E10.19797
G1 X160.826 Y131.05 E10.23365
G1 X161.177 Y131.87 E10.26332
G1 X161.434 Y132.573 E10.28822
G1 X161.506 Y132.863 E10.29816
G1 X161.666 Y133.195 E10.31041
G1 X161.916 Y133.9 E10.33529
G1 X162.09 Y134.628 E10.36019
G1 X162.185 Y135.37 E10.38507
G1 X162.204 Y135.886 E10.40224
G1 X162.204 Y157.536 E11.12232
G1 X162.721 Y157.876 E11.1429
G1 X163.526 Y158.462 E11.17602
G1 X164.106 Y158.934 E11.20089
G1 X164.633 Y159.465 E11.22578
G1 X165.1 Y160.049 E11.25065
G1 X165.502 Y160.68 E11.27553
G1 X165.834 Y161.35 E11.3004
G1 X166.061 Y161.952 E11.3218
G1 X166.369 Y162.897 E11.35486
G1 X166.563 Y163.619 E11.37972
G1 X166.678 Y164.359 E11.40463
G1 X166.714 Y165.106 E11.42951
G1 X166.67 Y165.853 E11.45439
G1 X166.546 Y166.59 E11.47925
G1 X166.369 Y167.235 E11.5015
G1 X166.061 Y168.18 E11.53455
G1 X165.792 Y168.878 E11.55943
G1 X165.45 Y169.543 E11.58431
G1 X165.038 Y170.168 E11.6092
G1 X164.562 Y170.745 E11.63408
G1 X164.028 Y171.268 E11.65894
G1 X163.526 Y171.67 E11.68033
G1 X162.721 Y172.256 E11.71345
G1 X162.093 Y172.664 E11.73836
G1 X161.557 Y172.936 E11.75835
G1 X161.227 Y173.566 E11.78201
G1 X160.812 Y174.189 E11.8069
G1 X160.333 Y174.763 E11.83177
G1 X159.796 Y175.284 E11.85665
G1 X159.206 Y175.743 E11.88152
G1 X158.57 Y176.138 E11.90642
G1 X157.896 Y176.462 E11.93129
G1 X157.191 Y176.712 E11.95617
G1 X156.463 Y176.886 E11.98106
G1 X155.721 Y176.981 E12.00595
G1 X155.204 Y177 E12.02315
G1 X151.567 Y177 E12.14412
G1 X150.82 Y176.96 E12.169
G1 X150.082 Y176.841 E12.19386
G1 X149.36 Y176.643 E12.21876
G1 X148.664 Y176.37 E12.24363
G1 X148.001 Y176.023 E12.26852
G1 X147.378 Y175.608 E12.29342
G1 X146.804 Y175.129 E12.31828
G1 X146.283 Y174.592 E12.34317
G1 X145.824 Y174.002 E12.36803
G1 X145.429 Y173.366 E12.39293
G1 X145.167 Y172.822 E12.41301
G1 X144.402 Y172.565 E12.43986
G1 X143.181 Y172.303 E12.48139
G1 X142.459 Y172.107 E12.50627
G1 X141.822 Y171.862 E12.52897
G1 X140.6 Y171.322 E12.57341
G1 X139.705 Y170.847 E12.60711
G1 X138.25 Y169.933 E12.66426
G1 X137.639 Y169.501 E12.68915
G1 X137.077 Y169.007 E12.71403
G1 X136.683 Y168.588 E12.73316
G1 X135.823 Y167.595 E12.77685
G1 X135.364 Y167.004 E12.80174
G1 X134.971 Y166.367 E12.82664
G1 X134.589 Y165.548 E12.8567
G1 X133.994 Y164.017 E12.91133
G1 X133.761 Y163.306 E12.93621
G1 X133.605 Y162.574 E12.96111
G1 X133.528 Y161.83 E12.98598
G1 X133.52 Y161.351 E13.00192
G1 X133.544 Y160.06 E13.04486
G1 X133.598 Y159.314 E13.06974
G1 X133.731 Y158.578 E13.09462
G1 X134.018 Y157.656 E13.12673
G1 X134.565 Y156.247 E13.177
G1 X134.567 Y156.078 E13.18263
G1 X134.625 Y155.524 E13.20115
G1 X134.865 Y153.88 E13.25641
G1 X135.056 Y152.986 E13.28682
G1 X135.438 Y151.635 E13.33351
G1 X135.68 Y150.927 E13.3584
G1 X135.996 Y150.249 E13.38328
G1 X136.382 Y149.609 E13.40814
G1 X137.018 Y148.806 E13.44221
G1 X138.118 Y147.608 E13.4963
G1 X138.653 Y147.084 E13.52121
G1 X139.24 Y146.621 E13.54608
G1 X139.557 Y146.41 E13.55874
G1 X141.105 Y145.44 E13.6195
G1 X141.419 Y145.266 E13.63144
G1 X142.377 Y135.739 E13.94991
G1 X142.314 Y135.502 E13.95806
G1 X142.201 Y134.763 E13.98293
G1 X142.191 Y134.543 E13.99025
G1 X142.133 Y134.355 E13.9968
G1 X141.99 Y133.621 E14.02167
G1 X141.926 Y132.876 E14.04654
G1 X141.941 Y132.128 E14.07142
G1 X142.037 Y131.386 E14.09631
G1 X142.211 Y130.658 E14.1212
G1 X142.461 Y129.953 E14.14608
G1 X142.786 Y129.279 E14.17097
G1 X143.256 Y128.537 E14.20018
G1 X143.97 Y127.553 E14.24062
G1 X144.441 Y126.972 E14.2655
G0 F6000 X144.752 Y127.224
G1 F1200 X145.27 Y126.715 E14.28965
G1 X145.84 Y126.265 E14.3138
G1 X146.456 Y125.88 E14.33797
G1 X147.111 Y125.566 E14.36212
G1 X147.797 Y125.325 E14.38631
G1 X148.504 Y125.162 E14.41044
G1 X149.226 Y125.077 E14.43462
G1 X149.636 Y125.064 E14.44826
G1 X150.274 Y125.064 E14.46948
G1 X150.999 Y125.104 E14.49363
G1 X151.716 Y125.223 E14.51781
G1 X152.415 Y125.421 E14.54197
G1 X153.088 Y125.694 E14.56613
G1 X153.727 Y126.039 E14.59028
G1 X154.324 Y126.453 E14.61444
G1 X154.625 Y126.715 E14.62772
G1 X155.263 Y126.854 E14.64943
G1 X155.951 Y127.086 E14.67358
G1 X156.609 Y127.393 E14.69773
G1 X157.144 Y127.712 E14.71845
G1 X158.036 Y128.303 E14.75404
G1 X158.619 Y128.737 E14.77821
G1 X159.15 Y129.232 E14.80236
G1 X159.624 Y129.783 E14.82653
G1 X160.034 Y130.382 E14.85067
G1 X160.459 Y131.208 E14.88157
G1 X160.81 Y132.028 E14.91124
G1 X161.058 Y132.71 E14.93537
G1 X161.122 Y132.973 E14.94438
G1 X161.382 Y133.565 E14.96588
G1 X161.6 Y134.258 E14.99004
G1 X161.74 Y134.97 E15.01418
G1 X161.804 Y135.886 E15.04472
G1 X161.804 Y157.775 E15.77275
G1 X162.054 Y157.91 E15.7822
G1 X162.485 Y158.199 E15.79946
G1 X163.29 Y158.785 E15.83258
G1 X163.853 Y159.244 E15.85674
G1 X164.362 Y159.762 E15.88089
G1 X164.811 Y160.333 E15.90505
G1 X165.195 Y160.95 E15.92922
G1 X165.508 Y161.606 E15.9534
G1 X165.681 Y162.076 E15.97006
G1 X165.989 Y163.021 E16.00311
G1 X166.176 Y163.723 E16.02728
G1 X166.284 Y164.441 E16.05143
G1 X166.313 Y165.167 E16.07559
G1 X166.262 Y165.891 E16.09973
G1 X166.132 Y166.606 E16.1239
G1 X165.989 Y167.111 E16.14136
G1 X165.681 Y168.056 E16.17442
G1 X165.418 Y168.733 E16.19857
G1 X165.083 Y169.378 E16.22275
G1 X164.678 Y169.981 E16.24691
G1 X164.21 Y170.536 E16.27105
G1 X163.684 Y171.037 E16.29521
G1 X163.29 Y171.347 E16.31189
G1 X162.485 Y171.933 E16.34501
G1 X161.875 Y172.327 E16.36916
G1 X161.243 Y172.645 E16.39269
G1 X161.174 Y172.814 E16.39876
G1 X160.829 Y173.453 E16.42291
G1 X160.415 Y174.05 E16.44708
G1 X159.939 Y174.598 E16.47122
G1 X159.405 Y175.091 E16.49539
G1 X158.82 Y175.521 E16.51954
G1 X158.191 Y175.885 E16.54371
G1 X157.526 Y176.178 E16.56788
G1 X156.833 Y176.396 E16.59204
G1 X156.121 Y176.536 E16.61618
G1 X155.204 Y176.6 E16.64675
G1 X151.567 Y176.6 E16.76772
G1 X150.842 Y176.56 E16.79187
G1 X150.125 Y176.441 E16.81604
G1 X149.426 Y176.243 E16.84021
G1 X148.753 Y175.97 E16.86436
G1 X148.114 Y175.625 E16.88852
