;FLAVOR:Marlin
;TIME:2578
;Filament used: 1.69857m
;Layer height: 0.2
;MINX:120.199
;MINY:128.853
;MINZ:0.336
;MAXX:179.8
;MAXY:171.146
;MAXZ:19.116
;POSTPROCESSED
;Generated with Cura_SteamEngine 4.12.1
M140 S80
M105
M190 S80
M82 ;absolute extrusion mode
M201 X500.00 Y500.00 Z100.00 E5000.00 ;Setup machine max acceleration
M203 X500.00 Y500.00 Z10.00 E50.00 ;Setup machine max feedrate
M204 P500.00 R1000.00 T500.00 ;Setup Print/Retract/Travel acceleration
M205 X8.00 Y8.00 Z0.40 E5.00 ;Setup Jerk
M220 S100 ;Reset Feedrate
M221 S100 ;Reset Flowrate
M140 S80 ; set bed temp
M190 S80 ; wait for bed temp
G28; home all 
G29;
G92 E0 ;Reset Extruder
;G1 Z2.0 F3000 ;Move Z Axis up
G1 X10.1 Y20 Z0.28 F5000.0 ;Move to start position
M104 S240.0 ; wait for extruder printing temp
M109 S240.0 ; wait for extruder printing temp
G1 X10.1 Y200.0 Z0.28 F1500.0 E15 ;Draw the first line
G1 X10.4 Y200.0 Z0.28 F5000.0 ;Move to side a little
G1 X10.4 Y20 Z0.28 F1500.0 E30 ;Draw the second line
G92 E0 ;Reset Extruder
G1 Z2.0 F3000 ;Move Z Axis up
G92 E0
G92 E0
G1 F1800 E-3
;LAYER_COUNT:89
;LAYER:-6
M107
G0 F9000 X133.19 Y133.12 Z0.336
;TYPE:SUPPORT-INTERFACE
G1 F1800 E0
G1 F1125 X133.282 Y133.035 E0.014
G1 X133.976 Y132.424 E0.11733
G1 X134.135 Y132.294 E0.14028
G1 X134.825 Y131.769 E0.23718
G1 X134.96 Y131.673 E0.25569
G1 X135.743 Y131.164 E0.36005
G1 X135.85 Y131.101 E0.37393
G1 X136.658 Y130.657 E0.47696
G1 X136.812 Y130.579 E0.49626
G1 X137.632 Y130.202 E0.59711
G1 X137.755 Y130.151 E0.61199
G1 X138.619 Y129.828 E0.71508
G1 X138.766 Y129.78 E0.73236
G1 X139.648 Y129.521 E0.83509
G1 X139.811 Y129.481 E0.85384
G1 X140.665 Y129.297 E0.95147
G1 X140.861 Y129.263 E0.9737
G1 X141.702 Y129.146 E1.06859
G1 X141.935 Y129.124 E1.09475
G1 X143.239 Y129.058 E1.24066
G1 X143.376 Y129.054 E1.25598
G1 X143.829 Y129.055 E1.3066
G1 X144.83 Y129.091 E1.41854
G1 X144.953 Y129.1 E1.43232
G1 X145.87 Y129.202 E1.53543
G1 X146.045 Y129.227 E1.55519
G1 X146.934 Y129.391 E1.65622
G1 X147.057 Y129.419 E1.67031
G1 X147.941 Y129.65 E1.77242
G1 X148.26 Y129.752 E1.80985
G1 X148.906 Y129.929 E1.8847
G1 X149.583 Y130.023 E1.96109
G1 X150.265 Y130.032 E2.03731
G1 X150.943 Y129.955 E2.11356
G1 X151.537 Y129.812 E2.18184
G1 X152.399 Y129.554 E2.2824
G1 X152.598 Y129.502 E2.30538
G1 X153.446 Y129.313 E2.40248
G1 X153.611 Y129.283 E2.42122
G1 X154.499 Y129.154 E2.5215
G1 X154.694 Y129.134 E2.5434
G1 X156.139 Y129.057 E2.70512
G1 X156.238 Y129.054 E2.71619
G1 X156.703 Y129.055 E2.76815
G1 X157.704 Y129.091 E2.88009
G1 X157.827 Y129.1 E2.89387
G1 X158.744 Y129.202 E2.99698
G1 X158.919 Y129.227 E3.01674
G1 X159.808 Y129.391 E3.11776
G1 X159.931 Y129.419 E3.13186
G1 X160.825 Y129.653 E3.23513
G1 X160.988 Y129.702 E3.25416
G1 X161.83 Y129.988 E3.35353
G1 X161.996 Y130.052 E3.37342
G1 X162.799 Y130.393 E3.47091
G1 X162.988 Y130.481 E3.49421
G1 X163.782 Y130.889 E3.59397
G1 X163.899 Y130.956 E3.60904
G1 X164.678 Y131.43 E3.71094
G1 X164.829 Y131.53 E3.73118
G1 X165.512 Y132.018 E3.82499
G1 X165.715 Y132.177 E3.85381
G1 X166.686 Y133.009 E3.99671
G1 X166.831 Y133.14 E4.01855
G1 X174.677 Y140.583 E5.22713
G1 X174.77 Y140.675 E5.24175
G1 X175.705 Y141.656 E5.3932
G1 X175.893 Y141.871 E5.42512
G1 X176.479 Y142.604 E5.53
G1 X176.603 Y142.771 E5.55324
G1 X177.099 Y143.492 E5.65104
G1 X177.189 Y143.632 E5.66964
G1 X177.588 Y144.305 E5.75708
G1 X177.687 Y144.487 E5.78023
G1 X178.104 Y145.3 E5.88234
G1 X178.181 Y145.463 E5.90249
G1 X178.53 Y146.288 E6.00259
G1 X178.593 Y146.454 E6.02244
G1 X178.879 Y147.285 E6.12065
G1 X178.927 Y147.443 E6.1391
G1 X179.185 Y148.403 E6.25019
G1 X179.216 Y148.534 E6.26524
G1 X179.391 Y149.441 E6.36847
G1 X179.417 Y149.597 E6.38614
G1 X179.5 Y150.239 E6.45849
G1 X179.523 Y150.485 E6.4861
G1 X179.597 Y151.9 E6.64445
G1 X179.6 Y152.018 E6.65764
G1 X179.6 Y152.369 E6.69686
G1 X179.558 Y153.485 E6.82167
G1 X179.512 Y153.983 E6.87756
G1 X179.485 Y154.226 E6.90488
G1 X179.339 Y155.205 E7.0155
G1 X179.305 Y155.388 E7.0363
G1 X179.112 Y156.239 E7.13382
G1 X179.065 Y156.42 E7.15472
G1 X178.741 Y157.469 E7.27741
G1 X178.678 Y157.649 E7.29872
G1 X178.321 Y158.561 E7.40817
G1 X178.258 Y158.706 E7.42584
G1 X177.856 Y159.543 E7.52961
G1 X177.789 Y159.671 E7.54575
G1 X177.3 Y160.526 E7.65583
G1 X177.17 Y160.733 E7.68314
G1 X176.63 Y161.534 E7.7911
G1 X176.539 Y161.658 E7.80829
G1 X175.999 Y162.347 E7.90612
G1 X175.87 Y162.499 E7.9284
G1 X175.089 Y163.349 E8.0574
G1 X174.93 Y163.507 E8.08245
G1 X174.234 Y164.153 E8.18857
G1 X174.095 Y164.272 E8.20902
G1 X173.421 Y164.813 E8.3056
G1 X173.253 Y164.937 E8.32894
G1 X172.458 Y165.482 E8.43666
G1 X172.18 Y165.658 E8.47343
G1 X171.371 Y166.128 E8.57798
G1 X171.218 Y166.21 E8.59738
G1 X170.396 Y166.61 E8.69954
G1 X170.268 Y166.665 E8.71511
G1 X169.391 Y167.015 E8.82064
G1 X169.072 Y167.13 E8.85853
G1 X168.157 Y167.417 E8.9657
G1 X168.027 Y167.454 E8.98081
G1 X167.507 Y167.585 E9.04073
G1 X154.807 Y170.515 E10.49729
G1 X154.571 Y170.568 E10.52432
G1 X153.701 Y170.742 E10.62347
G1 X153.501 Y170.773 E10.64609
G1 X152.648 Y170.878 E10.74214
G1 X152.433 Y170.896 E10.76625
G1 X151.357 Y170.942 E10.88661
G1 X151.199 Y170.946 E10.90427
G1 X148.714 Y170.945 E11.18198
G1 X147.713 Y170.909 E11.29392
G1 X147.59 Y170.9 E11.3077
G1 X146.683 Y170.8 E11.40967
G1 X146.498 Y170.772 E11.43058
G1 X145.453 Y170.576 E11.5494
G1 X132.48 Y167.582 E13.0373
G1 X131.52 Y167.324 E13.14839
G1 X131.397 Y167.286 E13.16277
G1 X130.795 Y167.083 E13.23377
G1 X130.579 Y167.004 E13.25948
G1 X129.721 Y166.659 E13.36282
G1 X129.533 Y166.575 E13.38583
G1 X128.755 Y166.194 E13.48264
G1 X128.594 Y166.108 E13.50304
G1 X127.83 Y165.664 E13.60179
G1 X127.569 Y165.5 E13.63624
G1 X126.768 Y164.954 E13.74457
G1 X126.646 Y164.864 E13.76152
G1 X125.959 Y164.319 E13.85952
G1 X125.812 Y164.193 E13.88115
G1 X125.011 Y163.449 E14.00333
G1 X124.874 Y163.311 E14.02506
G1 X124.226 Y162.613 E14.13149
G1 X124.109 Y162.476 E14.15163
G1 X123.554 Y161.785 E14.25067
G1 X123.459 Y161.655 E14.26867
G1 X122.802 Y160.687 E14.39941
G1 X122.637 Y160.419 E14.43458
G1 X122.184 Y159.617 E14.53752
G1 X122.112 Y159.479 E14.55491
G1 X121.71 Y158.63 E14.65989
G1 X121.662 Y158.517 E14.67361
G1 X121.31 Y157.614 E14.78192
G1 X121.223 Y157.358 E14.81214
G1 X120.955 Y156.493 E14.91334
G1 X120.915 Y156.342 E14.93079
G1 X120.711 Y155.465 E15.03142
G1 X120.675 Y155.277 E15.05281
G1 X120.524 Y154.279 E15.16561
G1 X120.488 Y153.971 E15.20026
G1 X120.417 Y153.01 E15.30795
G1 X120.409 Y152.857 E15.32507
G1 X120.4 Y152.329 E15.38409
G1 X120.4 Y152.026 E15.41795
G1 X120.403 Y151.899 E15.43215
G1 X120.477 Y150.484 E15.59049
G1 X120.509 Y150.173 E15.62543
G1 X120.636 Y149.282 E15.72601
G1 X120.669 Y149.097 E15.74701
G1 X120.862 Y148.205 E15.849
G1 X120.891 Y148.088 E15.86248
G1 X121.097 Y147.366 E15.94638
G1 X121.173 Y147.131 E15.97398
G1 X121.477 Y146.273 E16.07571
G1 X121.55 Y146.089 E16.09783
G1 X121.897 Y145.299 E16.19426
G1 X121.985 Y145.117 E16.21685
G1 X122.358 Y144.403 E16.30687
G1 X122.467 Y144.213 E16.33135
G1 X122.949 Y143.42 E16.43506
G1 X123.039 Y143.283 E16.45338
G1 X123.566 Y142.543 E16.55491
G1 X123.662 Y142.417 E16.57261
G1 X124.151 Y141.819 E16.65894
G1 X124.296 Y141.655 E16.6834
G1 X125.223 Y140.682 E16.83359
G1 X125.318 Y140.588 E16.84852
G1 X133.19 Y133.12 E18.06114
G0 F9000 X132.8 Y133.489
G1 F1125 X132.8 Y167.655 E21.87933
G0 F9000 X134.4 Y168.025
G1 F1125 X134.4 Y132.092 E25.89499
G0 F9000 X136 Y131.018
G1 F1125 X136 Y168.394 E30.07191
G0 F9000 X137.6 Y168.763
G1 F1125 X137.6 Y130.216 E34.37969
G0 F9000 X139.2 Y129.652
G1 F1125 X139.2 Y169.132 E38.79174
G0 F9000 X140.8 Y169.502
G1 F1125 X140.8 Y129.273 E43.28749
G0 F9000 X142.4 Y129.1
G1 F1125 X142.4 Y169.871 E47.84382
G0 F9000 X144 Y170.24
G1 F1125 X144 Y129.062 E52.44563
G0 F9000 X145.6 Y129.172
G1 F1125 X145.6 Y170.603 E57.07571
G0 F9000 X147.2 Y170.857
G1 F1125 X147.2 Y129.457 E61.70233
G0 F9000 X148.8 Y129.9
G1 F1125 X148.8 Y170.945 E66.28927
G0 F9000 X150.4 Y170.945
G1 F1125 X150.4 Y130.016 E70.86325
G0 F9000 X152 Y129.673
G1 F1125 X152 Y170.915 E75.47221
G0 F9000 X153.6 Y170.758
G1 F1125 X153.6 Y129.285 E80.10699
G0 F9000 X155.2 Y129.107
G1 F1125 X155.2 Y170.425 E84.72444
G0 F9000 X156.8 Y170.056
G1 F1125 X156.8 Y129.059 E89.30602
G0 F9000 X158.4 Y129.164
G1 F1125 X158.4 Y169.687 E93.83463
G0 F9000 X160 Y169.317
G1 F1125 X160 Y129.438 E98.29127
G0 F9000 X161.6 Y129.91
G1 F1125 X161.6 Y168.948 E102.65393
G0 F9000 X163.2 Y168.579
G1 F1125 X163.2 Y130.59 E106.89935
G0 F9000 X164.8 Y131.511
G1 F1125 X164.8 Y168.21 E111.00062
G0 F9000 X166.4 Y167.841
G1 F1125 X166.4 Y132.764 E114.92061
G0 F9000 X168 Y134.249
G1 F1125 X168 Y167.461 E118.63219
G0 F9000 X169.6 Y166.932
G1 F1125 X169.6 Y135.767 E122.115
G0 F9000 X171.2 Y137.285
G1 F1125 X171.2 Y166.219 E125.3485
G0 F9000 X172.8 Y165.248
G1 F1125 X172.8 Y138.803 E128.30383
G0 F9000 X174.4 Y140.321
G1 F1125 X174.4 Y163.999 E130.94994
G0 F9000 X176 Y162.346
G1 F1125 X176 Y142.005 E133.22313
G0 F9000 X177.6 Y144.328
G1 F1125 X177.6 Y160.002 E134.97477
G0 F9000 X179.2 Y155.851
G1 F1125 X179.2 Y148.467 E135.79996
G1 F1800 E132.79996
G0 F9000 X131.2 Y135.007
G1 F1800 E135.79996
G1 F1125 X131.2 Y167.219 E139.39978
G0 F9000 X129.6 Y166.604
G1 F1125 X129.6 Y136.525 E142.76123
G0 F9000 X128 Y138.043
G1 F1125 X128 Y165.762 E145.85894
G0 F9000 X126.4 Y164.668
G1 F1125 X126.4 Y139.561 E148.66475
G0 F9000 X124.8 Y141.125
G1 F1125 X124.8 Y163.231 E151.13518
G0 F9000 X123.2 Y161.273
G1 F1125 X123.2 Y143.056 E153.17101
G0 F9000 X121.6 Y145.975
M104 S240
G1 F1125 X121.6 Y158.357 E154.55475
G0 F300 X121.6 Y158.357 Z0.636
G0 F9000 X123.435 Y161.619
;TIME_ELAPSED:83.816606
;LAYER:-5
;TYPE:SUPPORT
G1 F1125 X126.772 Y164.955 E155.02556
G1 X126.767 Y164.953 E155.0261
G1 X126.645 Y164.863 E155.04123
G1 X125.959 Y164.318 E155.12865
G1 X125.811 Y164.192 E155.14804
G1 X125.011 Y163.448 E155.25705
G1 X124.873 Y163.31 E155.27653
G1 X124.225 Y162.611 E155.37163
G1 X124.109 Y162.475 E155.38947
G1 X123.554 Y161.784 E155.4779
G1 X123.459 Y161.654 E155.49397
G0 F9000 X126.772 Y164.955
G1 F1125 X127.636 Y165.544 E155.5983
G1 X127.83 Y165.663 E155.62101
G1 X128.593 Y166.107 E155.7091
G1 X128.754 Y166.193 E155.72731
G1 X129.532 Y166.573 E155.81371
G1 X129.72 Y166.658 E155.83429
G1 X130.001 Y166.771 E155.86451
G1 X121.607 Y158.377 E157.049
G1 X121.31 Y157.613 E157.13079
G1 X121.268 Y157.498 E157.143
G1 X121.222 Y157.357 E157.1578
G1 X120.954 Y156.492 E157.24816
G1 X120.915 Y156.341 E157.26372
G1 X120.893 Y156.248 E157.27326
G1 X132.132 Y167.487 E158.8592
G1 X132.479 Y167.58 E158.89505
G1 X133.987 Y167.928 E159.04947
G1 X120.556 Y154.497 E160.94473
G1 X120.524 Y154.278 E160.96681
G1 X120.495 Y154.046 E160.99014
G1 X120.416 Y153.009 E161.09391
G1 X120.412 Y152.939 E161.10091
G1 X135.826 Y168.352 E163.27592
G1 X137.664 Y168.777 E163.46416
G1 X120.421 Y151.534 E165.89733
G1 X120.476 Y150.483 E166.00234
G1 X120.483 Y150.388 E166.01185
G1 X120.505 Y150.203 E166.03044
G1 X139.502 Y169.201 E168.71119
G1 X141.341 Y169.625 E168.8995
G1 X120.693 Y148.978 E171.81309
G1 X120.862 Y148.204 E171.89213
G1 X120.89 Y148.087 E171.90414
G1 X120.963 Y147.833 E171.93051
G1 X143.18 Y170.05 E175.06557
G1 X145.019 Y170.474 E175.25388
G1 X121.303 Y146.759 E178.60039
G1 X121.476 Y146.272 E178.65196
G1 X121.55 Y146.088 E178.67175
G1 X121.701 Y145.743 E178.70932
G1 X146.767 Y170.808 E182.24634
G1 X147.59 Y170.899 E182.32896
G1 X147.712 Y170.908 E182.34116
G1 X148.302 Y170.929 E182.40007
G1 X122.157 Y144.785 E186.08934
G1 X122.357 Y144.402 E186.13246
G1 X122.467 Y144.212 E186.15436
G1 X122.668 Y143.881 E186.193
G1 X149.731 Y170.944 E190.01188
G1 X151.145 Y170.944 E190.15297
G1 X123.223 Y143.022 E194.09307
G1 X123.566 Y142.542 E194.15193
G1 X123.662 Y142.416 E194.16774
G1 X123.827 Y142.212 E194.19392
G1 X152.504 Y170.889 E198.24055
G1 X152.648 Y170.877 E198.25497
G1 X153.5 Y170.772 E198.34063
G1 X153.7 Y170.74 E198.36084
G1 X153.758 Y170.728 E198.36675
G1 X124.484 Y141.455 E202.49756
G1 X125.174 Y140.731 E202.59735
G1 X154.929 Y170.485 E206.79603
G1 X156.078 Y170.22 E206.91369
G1 X125.896 Y140.038 E211.17269
G1 X126.622 Y139.35 E211.2725
G1 X157.227 Y169.955 E215.59119
G1 X158.377 Y169.69 E215.70895
G1 X127.347 Y138.661 E220.08754
G1 X128.074 Y137.973 E220.18742
G1 X159.526 Y169.425 E224.62564
G1 X160.675 Y169.16 E224.74329
G1 X128.799 Y137.284 E229.24134
G1 X129.524 Y136.596 E229.34107
G1 X161.824 Y168.895 E233.89888
G1 X162.973 Y168.63 E234.01654
G1 X130.251 Y135.908 E238.63396
G1 X130.976 Y135.219 E238.73376
G1 X164.122 Y168.364 E243.41095
G1 X165.271 Y168.099 E243.52861
G1 X131.702 Y134.53 E248.26555
G1 X132.428 Y133.842 E248.36536
G1 X166.42 Y167.834 E253.16199
G1 X167.506 Y167.584 E253.27319
G1 X167.568 Y167.568 E253.27958
G1 X133.153 Y133.153 E258.13591
G1 X133.189 Y133.119 E258.14085
G1 X133.281 Y133.035 E258.15328
G1 X133.902 Y132.488 E258.23585
G1 X168.669 Y167.254 E263.14178
G1 X169.175 Y167.094 E263.19473
G1 X169.39 Y167.014 E263.21762
G1 X169.713 Y166.884 E263.25237
G1 X134.696 Y131.867 E268.19364
G1 X134.824 Y131.769 E268.20973
G1 X134.959 Y131.673 E268.22626
G1 X135.538 Y131.296 E268.2952
G1 X170.702 Y166.46 E273.25722
G1 X171.217 Y166.209 E273.31438
G1 X171.37 Y166.127 E273.3317
G1 X171.631 Y165.974 E273.36189
G1 X136.436 Y130.779 E278.32829
G1 X136.657 Y130.657 E278.35347
G1 X136.811 Y130.578 E278.37074
G1 X137.386 Y130.315 E278.43383
G1 X172.513 Y165.442 E283.39063
G1 X173.252 Y164.936 E283.48
G1 X173.35 Y164.864 E283.49213
G1 X138.396 Y129.911 E288.42445
G1 X138.618 Y129.827 E288.44813
G1 X138.765 Y129.779 E288.46356
G1 X139.472 Y129.573 E288.53704
G1 X174.135 Y164.236 E293.42837
G1 X174.233 Y164.152 E293.44125
G1 X174.873 Y163.559 E293.5283
G1 X140.62 Y129.306 E298.36177
G1 X140.664 Y129.296 E298.36627
G1 X140.86 Y129.262 E298.38612
G1 X141.701 Y129.145 E298.47085
G1 X141.859 Y129.131 E298.48667
G1 X175.561 Y162.833 E303.24239
G1 X175.869 Y162.499 E303.28772
G1 X175.998 Y162.346 E303.30769
G1 X176.214 Y162.072 E303.34251
G1 X143.202 Y129.06 E308.00086
G1 X143.238 Y129.058 E308.00445
G1 X143.375 Y129.054 E308.01813
G1 X143.828 Y129.055 E308.06333
G1 X144.64 Y129.084 E308.1444
G1 X176.815 Y161.259 E312.68464
G1 X177.169 Y160.733 E312.74791
G1 X177.299 Y160.525 E312.77238
G1 X177.372 Y160.401 E312.78674
G1 X146.232 Y129.261 E317.18093
G1 X146.933 Y129.391 E317.25207
G1 X147.056 Y129.419 E317.26465
G1 X147.94 Y129.65 E317.35582
G1 X148.075 Y129.691 E317.3699
G1 X177.879 Y159.495 E321.57557
G1 X178.257 Y158.705 E321.66295
G1 X178.32 Y158.56 E321.67873
G1 X178.331 Y158.532 E321.68173
G1 X149.825 Y130.026 E325.70423
G1 X150.263 Y130.031 E325.74794
G1 X150.941 Y129.954 E325.81603
G1 X151.124 Y129.911 E325.83478
G1 X178.725 Y157.512 E329.72958
G1 X178.74 Y157.469 E329.73413
G1 X179.06 Y156.433 E329.84232
G1 X152.231 Y129.604 E333.62818
G1 X152.397 Y129.553 E333.64551
G1 X152.597 Y129.501 E333.66613
G1 X153.371 Y129.329 E333.74524
G1 X179.324 Y155.282 E337.40749
G1 X179.338 Y155.204 E337.4154
G1 X179.484 Y154.226 E337.51406
G1 X179.504 Y154.048 E337.53194
G1 X154.599 Y129.143 E341.0463
G1 X154.693 Y129.133 E341.05573
G1 X155.938 Y129.068 E341.18013
G1 X179.586 Y152.716 E344.51712
G1 X179.599 Y152.368 E344.55186
G1 X179.599 Y152.018 E344.58679
G1 X179.595 Y151.899 E344.59867
G1 X179.563 Y151.279 E344.66061
G1 X157.363 Y129.078 E347.79334
G1 X157.703 Y129.09 E347.82729
G1 X157.826 Y129.1 E347.8396
G1 X158.743 Y129.201 E347.93166
G1 X158.918 Y129.226 E347.9493
G1 X158.927 Y129.228 E347.95022
G1 X179.434 Y149.736 E350.84404
G1 X179.416 Y149.597 E350.85803
G1 X179.39 Y149.441 E350.87381
G1 X179.215 Y148.534 E350.96598
G1 X179.184 Y148.402 E350.97951
G1 X179.062 Y147.95 E351.02622
G1 X160.745 Y129.632 E353.61102
G1 X160.823 Y129.652 E353.61906
G1 X160.987 Y129.701 E353.63614
G1 X161.829 Y129.988 E353.7249
G1 X161.995 Y130.052 E353.74265
G1 X162.798 Y130.393 E353.8297
G1 X162.986 Y130.481 E353.85041
G1 X163.03 Y130.503 E353.85532
G1 X178.32 Y145.793 E356.0129
G1 X178.18 Y145.462 E356.04876
G1 X178.103 Y145.3 E356.06666
G1 X177.686 Y144.487 E356.15783
G1 X177.587 Y144.304 E356.17859
G1 X177.188 Y143.631 E356.25666
