;FLAVOR:Marlin
;TIME:6375
;Filament used: 5.29415m
;Layer height: 0.2
;MINX:97.159
;MINY:99.335
;MINZ:0.24
;MAXX:203.248
;MAXY:200.663
;MAXZ:3.14
;Generated with Cura_SteamEngine 4.12.1
M140 S95
M105
M190 S95
M82 ;absolute extrusion mode
M201 X500.00 Y500.00 Z100.00 E5000.00 ;Setup machine max acceleration
M203 X500.00 Y500.00 Z10.00 E50.00 ;Setup machine max feedrate
M204 P500.00 R1000.00 T500.00 ;Setup Print/Retract/Travel acceleration
M205 X8.00 Y8.00 Z0.40 E5.00 ;Setup Jerk
M220 S100 ;Reset Feedrate
M221 S100 ;Reset Flowrate
M140 S95 ; set bed temp
M190 S95 ; wait for bed temp
G28; home all 
G29;
G92 E0 ;Reset Extruder
G1 Z2.0 F3000 ;Move Z Axis up
G1 X10.1 Y20 Z0.28 F5000.0 ;Move to start position
M104 S230 ; wait for extruder printing temp
M109 S230 ; wait for extruder printing temp
G1 X10.1 Y200.0 Z0.28 F1500.0 E15 ;Draw the first line
G1 X10.4 Y200.0 Z0.28 F5000.0 ;Move to side a little
G1 X10.4 Y20 Z0.28 F1500.0 E30 ;Draw the second line
G92 E0 ;Reset Extruder
G1 Z2.0 F3000 ;Move Z Axis up
G92 E0
G92 E0
G1 F2700 E-5
;LAYER_COUNT:10
;LAYER:-6
M107
G0 F9000 X104.071 Y128.548 Z0.24
;TYPE:SUPPORT-INTERFACE
G1 F2700 E0
G1 F1125 X104.743 Y128.009 E0.06877
G1 X104.916 Y127.88 E0.08599
G1 X105.731 Y127.322 E0.16484
G1 X105.815 Y127.266 E0.17289
G1 X106.352 Y126.93 E0.22346
G1 X107.173 Y126.454 E0.29921
G1 X107.329 Y126.371 E0.31332
G1 X108.15 Y125.972 E0.38618
G1 X108.297 Y125.908 E0.39898
G1 X109.209 Y125.548 E0.47725
G1 X109.354 Y125.494 E0.4896
G1 X109.848 Y125.321 E0.53138
G1 X109.981 Y125.277 E0.54256
G1 X110.857 Y125.005 E0.61578
G1 X111.004 Y124.965 E0.62794
G1 X111.902 Y124.757 E0.70152
G1 X112.062 Y124.727 E0.71452
G1 X113.065 Y124.574 E0.79551
G1 X113.162 Y124.561 E0.80332
G1 X113.798 Y124.491 E0.85439
G1 X114.778 Y124.416 E0.93285
G1 X114.922 Y124.41 E0.94436
G1 X115.468 Y124.4 E0.98795
G1 X121.624 Y124.4 E1.47935
G1 X122.292 Y124.358 E1.53277
G1 X122.963 Y124.229 E1.58732
G1 X123.612 Y124.016 E1.64184
G1 X124.229 Y123.724 E1.69633
G1 X124.804 Y123.356 E1.75082
G1 X125.328 Y122.918 E1.80534
G1 X125.792 Y122.418 E1.85979
G1 X126.191 Y121.862 E1.91442
G1 X126.515 Y121.262 E1.96885
G1 X126.761 Y120.626 E2.02328
G1 X126.927 Y119.957 E2.07831
G1 X127.011 Y119.018 E2.15356
G1 X127.011 Y118.015 E2.23362
G1 X127.048 Y116.998 E2.31486
G1 X127.058 Y116.848 E2.32686
G1 X127.112 Y116.277 E2.37264
G1 X127.183 Y115.663 E2.42198
G1 X127.331 Y114.691 E2.50046
G1 X127.36 Y114.542 E2.51258
G1 X127.554 Y113.685 E2.58272
G1 X127.603 Y113.498 E2.59815
G1 X127.9 Y112.533 E2.67875
G1 X128.111 Y111.926 E2.73005
G1 X128.156 Y111.805 E2.74035
G1 X128.48 Y110.978 E2.81125
G1 X128.553 Y110.809 E2.82595
G1 X128.949 Y109.981 E2.89921
G1 X129.014 Y109.858 E2.91032
G1 X129.532 Y108.958 E2.99321
G1 X129.572 Y108.89 E2.99951
G1 X129.855 Y108.44 E3.04194
G1 X129.931 Y108.322 E3.05314
G1 X130.456 Y107.55 E3.12767
G1 X130.561 Y107.408 E3.14176
G1 X131.101 Y106.727 E3.21114
G1 X131.229 Y106.578 E3.22682
G1 X131.905 Y105.845 E3.30642
G1 X132.399 Y105.349 E3.3623
G1 X133.132 Y104.667 E3.44222
G1 X133.271 Y104.548 E3.45682
G1 X133.954 Y104 E3.52672
G1 X134.1 Y103.891 E3.54127
G1 X135.009 Y103.27 E3.62914
G1 X135.552 Y102.93 E3.68028
G1 X136.373 Y102.454 E3.75604
G1 X136.529 Y102.371 E3.77014
G1 X137.35 Y101.972 E3.84301
G1 X137.497 Y101.908 E3.85581
G1 X138.409 Y101.548 E3.93407
G1 X138.554 Y101.494 E3.94642
G1 X139.048 Y101.321 E3.98821
G1 X139.181 Y101.277 E3.99939
G1 X140.057 Y101.005 E4.07261
G1 X140.204 Y100.965 E4.08477
G1 X141.102 Y100.757 E4.15835
G1 X141.262 Y100.727 E4.17134
G1 X142.265 Y100.574 E4.25233
G1 X142.362 Y100.561 E4.26014
G1 X142.998 Y100.491 E4.31122
G1 X143.978 Y100.416 E4.38968
G1 X144.122 Y100.41 E4.40118
G1 X144.668 Y100.4 E4.44477
G1 X165.643 Y100.401 E6.11909
G1 X166.232 Y100.414 E6.16612
G1 X166.484 Y100.424 E6.18625
G1 X167.594 Y100.516 E6.27516
G1 X167.898 Y100.554 E6.29961
G1 X169.001 Y100.732 E6.3888
G1 X169.271 Y100.786 E6.41078
G1 X169.826 Y100.913 E6.45622
G1 X184.158 Y104.412 E7.63387
G1 X184.244 Y104.435 E7.64097
G1 X185.57 Y104.83 E7.75142
G1 X185.675 Y104.864 E7.76023
G1 X187.308 Y105.441 E7.89848
G1 X188.227 Y105.804 E7.97735
G1 X188.371 Y105.867 E7.9899
G1 X189.203 Y106.269 E8.06366
G1 X189.324 Y106.332 E8.07455
G1 X189.957 Y106.688 E8.13252
G1 X191.501 Y107.614 E8.27623
G1 X192.325 Y108.149 E8.35466
G1 X192.435 Y108.227 E8.36542
G1 X193.171 Y108.785 E8.43915
G1 X193.296 Y108.885 E8.45193
G1 X193.86 Y109.375 E8.51157
G1 X195.174 Y110.577 E8.65372
G1 X195.875 Y111.267 E8.73224
G1 X195.981 Y111.379 E8.74455
G1 X196.58 Y112.06 E8.81694
G1 X196.67 Y112.169 E8.82823
G1 X197.114 Y112.745 E8.88628
G1 X198.185 Y114.215 E9.03146
G1 X198.737 Y115.035 E9.11037
G1 X198.801 Y115.137 E9.11998
G1 X199.265 Y115.946 E9.19442
G1 X199.331 Y116.071 E9.20571
G1 X199.651 Y116.721 E9.26354
G1 X200.395 Y118.344 E9.40606
G1 X200.775 Y119.261 E9.48529
G1 X200.833 Y119.415 E9.49843
G1 X201.12 Y120.282 E9.57133
G1 X201.165 Y120.434 E9.58399
G1 X201.346 Y121.124 E9.64093
G1 X201.759 Y122.899 E9.7864
G1 X201.944 Y123.847 E9.8635
G1 X201.968 Y123.995 E9.87547
G1 X202.08 Y124.926 E9.95032
G1 X202.09 Y125.035 E9.95906
G1 X202.131 Y125.771 E10.0179
G1 X202.183 Y127.61 E10.16476
G1 X202.175 Y128.553 E10.24003
G1 X202.168 Y128.704 E10.2521
G1 X202.093 Y129.641 E10.32714
G1 X202.079 Y129.764 E10.33702
G1 X201.98 Y130.446 E10.39203
G1 X201.677 Y132.198 E10.53396
G1 X201.657 Y132.306 E10.54272
G1 X201.462 Y133.225 E10.61772
G1 X201.427 Y133.367 E10.62939
G1 X201.168 Y134.266 E10.70407
G1 X201.127 Y134.393 E10.71472
G1 X200.884 Y135.068 E10.77199
G1 X200.236 Y136.732 E10.91453
G1 X199.847 Y137.632 E10.9928
G1 X199.767 Y137.799 E11.00758
G1 X199.355 Y138.588 E11.07863
G1 X199.265 Y138.75 E11.09342
G1 X198.896 Y139.358 E11.1502
G1 X197.962 Y140.806 E11.28774
G1 X197.887 Y140.916 E11.29837
G1 X197.102 Y142.009 E11.40579
G1 X197.026 Y142.11 E11.41588
G1 X184.379 Y157.988 E13.03625
G1 X183.995 Y158.537 E13.08973
G1 X183.679 Y159.142 E13.14421
G1 X183.44 Y159.781 E13.19867
G1 X183.284 Y160.451 E13.25358
G1 X183.211 Y161.325 E13.32359
G1 X183.211 Y181.985 E14.97276
G1 X183.174 Y183.002 E15.054
G1 X183.164 Y183.152 E15.066
G1 X183.119 Y183.629 E15.10424
G1 X183.048 Y184.263 E15.15517
G1 X182.899 Y185.267 E15.23619
G1 X182.867 Y185.438 E15.25008
G1 X182.674 Y186.298 E15.32043
G1 X182.626 Y186.479 E15.33538
G1 X182.301 Y187.536 E15.42365
G1 X182.077 Y188.17 E15.47733
G1 X181.742 Y189.024 E15.55056
G1 X181.67 Y189.192 E15.56515
G1 X181.288 Y189.992 E15.63591
G1 X181.212 Y190.137 E15.64898
G1 X180.691 Y191.042 E15.73234
G1 X180.651 Y191.11 E15.73863
G1 X180.368 Y191.56 E15.78107
G1 X180.292 Y191.678 E15.79227
G1 X179.767 Y192.45 E15.8668
G1 X179.662 Y192.592 E15.88089
G1 X179.122 Y193.273 E15.95027
G1 X178.995 Y193.421 E15.96584
G1 X178.251 Y194.224 E16.05322
G1 X177.787 Y194.687 E16.10554
G1 X177.091 Y195.333 E16.18134
G1 X176.952 Y195.452 E16.19595
G1 X176.269 Y196 E16.26585
G1 X176.123 Y196.109 E16.28039
G1 X175.295 Y196.676 E16.3605
G1 X175.207 Y196.734 E16.36891
G1 X174.671 Y197.07 E16.41941
G1 X173.852 Y197.544 E16.49495
G1 X173.686 Y197.633 E16.50998
G1 X172.874 Y198.028 E16.58206
G1 X172.726 Y198.092 E16.59493
G1 X171.814 Y198.452 E16.6732
G1 X171.669 Y198.506 E16.68555
G1 X171.175 Y198.679 E16.72733
G1 X171.042 Y198.723 E16.73851
G1 X170.166 Y198.995 E16.81173
G1 X170.019 Y199.035 E16.82389
G1 X169.133 Y199.24 E16.89649
G1 X168.947 Y199.275 E16.9116
G1 X167.968 Y199.424 E16.99064
G1 X167.846 Y199.441 E17.00048
G1 X167.206 Y199.511 E17.05187
G1 X166.244 Y199.584 E17.12888
G1 X166.094 Y199.591 E17.14087
G1 X165.554 Y199.6 E17.18398
G1 X115.409 Y199.599 E21.18677
G1 X114.398 Y199.562 E21.26753
G1 X114.281 Y199.555 E21.27688
G1 X113.779 Y199.508 E21.31713
G1 X113.068 Y199.427 E21.37425
G1 X112.142 Y199.288 E21.449
G1 X111.977 Y199.258 E21.46238
G1 X111.091 Y199.057 E21.5349
G1 X110.948 Y199.02 E21.5467
G1 X109.957 Y198.716 E21.62944
G1 X109.851 Y198.681 E21.63835
G1 X109.337 Y198.501 E21.68182
G1 X109.234 Y198.463 E21.69059
G1 X108.39 Y198.132 E21.76295
G1 X108.222 Y198.059 E21.77758
G1 X107.403 Y197.668 E21.85002
G1 X107.261 Y197.593 E21.86284
G1 X106.359 Y197.074 E21.94591
G1 X105.741 Y196.686 E22.00416
G1 X104.95 Y196.146 E22.08061
G1 X104.828 Y196.056 E22.09271
G1 X104.121 Y195.495 E22.16475
G1 X103.972 Y195.367 E22.18043
G1 X103.181 Y194.633 E22.26657
G1 X102.724 Y194.175 E22.31822
G1 X102.076 Y193.477 E22.39425
G1 X101.959 Y193.34 E22.40863
G1 X101.415 Y192.662 E22.47801
G1 X101.292 Y192.497 E22.49444
G1 X100.738 Y191.687 E22.57278
G1 X100.658 Y191.565 E22.58442
G1 X100.343 Y191.062 E22.6318
G1 X99.851 Y190.212 E22.7102
G1 X99.781 Y190.078 E22.72226
G1 X99.385 Y189.262 E22.79466
G1 X99.317 Y189.108 E22.8081
G1 X98.912 Y188.079 E22.89638
G1 X98.683 Y187.413 E22.95259
G1 X98.413 Y186.542 E23.02538
G1 X98.376 Y186.403 E23.03687
G1 X98.168 Y185.506 E23.11037
G1 X98.139 Y185.351 E23.12296
G1 X97.974 Y184.269 E23.21032
G1 X97.902 Y183.617 E23.26269
G1 X97.827 Y182.654 E23.33979
G1 X97.821 Y182.521 E23.35042
G1 X97.811 Y181.949 E23.39608
G1 X97.811 Y142.014 E26.58387
G1 X97.847 Y141.007 E26.6643
G1 X97.858 Y140.848 E26.67702
G1 X97.912 Y140.277 E26.72281
G1 X97.974 Y139.732 E26.76659
G1 X97.987 Y139.635 E26.7744
G1 X98.128 Y138.707 E26.84933
G1 X98.16 Y138.542 E26.86275
G1 X98.354 Y137.685 E26.93289
G1 X98.403 Y137.498 E26.94832
G1 X98.7 Y136.533 E27.02892
G1 X98.911 Y135.926 E27.08021
G1 X98.953 Y135.812 E27.08991
G1 X99.28 Y134.978 E27.16142
G1 X99.353 Y134.809 E27.17611
G1 X99.749 Y133.981 E27.24938
G1 X99.814 Y133.858 E27.26048
G1 X100.332 Y132.958 E27.34338
G1 X100.372 Y132.89 E27.34967
G1 X100.655 Y132.44 E27.39211
G1 X100.731 Y132.322 E27.40331
G1 X101.256 Y131.55 E27.47783
G1 X101.361 Y131.408 E27.49193
G1 X101.903 Y130.725 E27.56153
G1 X102.028 Y130.579 E27.57687
G1 X102.705 Y129.845 E27.65658
G1 X103.229 Y129.319 E27.71585
G1 X103.932 Y128.667 E27.79239
G1 X104.071 Y128.548 E27.80699
G0 F9000 X104 Y128.608
G1 F1125 X104 Y195.391 E33.1379
G0 F9000 X105.6 Y196.589
G1 F1125 X105.6 Y127.411 E38.65999
G0 F9000 X107.2 Y126.439
G1 F1125 X107.2 Y197.557 E44.33693
G0 F9000 X108.8 Y198.292
G1 F1125 X108.8 Y125.709 E50.13082
G0 F9000 X110.4 Y125.146
G1 F1125 X110.4 Y198.851 E56.01427
G0 F9000 X112 Y199.262
G1 F1125 X112 Y124.738 E61.9631
G0 F9000 X113.6 Y124.512
G1 F1125 X113.6 Y199.487 E67.94793
G0 F9000 X115.2 Y199.591
G1 F1125 X115.2 Y124.404 E73.94968
G0 F9000 X116.8 Y124.4
G1 F1125 X116.8 Y199.599 E79.95239
G0 F9000 X118.4 Y199.599
G1 F1125 X118.4 Y124.4 E85.9551
G0 F9000 X120 Y124.4
G1 F1125 X120 Y199.599 E91.95781
G0 F9000 X121.6 Y199.599
G1 F1125 X121.6 Y124.4 E97.96052
G0 F9000 X123.2 Y124.151
G1 F1125 X123.2 Y199.599 E103.98311
G0 F9000 X124.8 Y199.599
G1 F1125 X124.8 Y123.358 E110.06899
G0 F9000 X126.4 Y121.474
G1 F1125 X126.4 Y199.599 E116.30527
G0 F9000 X128 Y199.599
G1 F1125 X128 Y112.245 E123.27824
G0 F9000 X129.6 Y108.845
G1 F1125 X129.6 Y199.599 E130.52262
G0 F9000 X131.2 Y199.599
G1 F1125 X131.2 Y106.611 E137.94532
G0 F9000 X132.8 Y104.975
G1 F1125 X132.8 Y199.599 E145.49862
G0 F9000 X134.4 Y199.599
G1 F1125 X134.4 Y103.686 E153.15481
G0 F9000 X136 Y102.67
G1 F1125 X136 Y199.599 E160.8921
G0 F9000 X137.6 Y199.599
G1 F1125 X137.6 Y101.867 E168.69349
G0 F9000 X139.2 Y101.271
G1 F1125 X139.2 Y199.599 E176.54246
G0 F9000 X140.8 Y199.599
G1 F1125 X140.8 Y100.826 E184.42695
G0 F9000 X142.4 Y100.556
G1 F1125 X142.4 Y199.599 E192.33299
G0 F9000 X144 Y199.599
G1 F1125 X144 Y100.415 E200.25028
G0 F9000 X145.6 Y100.401
G1 F1125 X145.6 Y199.599 E208.1687
G0 F9000 X147.2 Y199.599
G1 F1125 X147.2 Y100.401 E216.08711
G0 F9000 X148.8 Y100.401
G1 F1125 X148.8 Y199.599 E224.00552
G0 F9000 X150.4 Y199.599
G1 F1125 X150.4 Y100.401 E231.92394
G0 F9000 X152 Y100.401
G1 F1125 X152 Y199.599 E239.84235
G0 F9000 X153.6 Y199.599
G1 F1125 X153.6 Y100.401 E247.76076
G0 F9000 X155.2 Y100.401
G1 F1125 X155.2 Y199.599 E255.67918
G0 F9000 X156.8 Y199.599
G1 F1125 X156.8 Y100.401 E263.59759
G0 F9000 X158.4 Y100.401
G1 F1125 X158.4 Y199.599 E271.516
G0 F9000 X160 Y199.599
G1 F1125 X160 Y100.401 E279.43442
G0 F9000 X161.6 Y100.401
G1 F1125 X161.6 Y199.599 E287.35283
G0 F9000 X163.2 Y199.599
G1 F1125 X163.2 Y100.401 E295.27124
G0 F9000 X164.8 Y100.401
G1 F1125 X164.8 Y199.599 E303.18965
G0 F9000 X166.4 Y199.573
G1 F1125 X166.4 Y100.421 E311.1044
G0 F9000 X168 Y100.571
G1 F1125 X168 Y199.42 E318.99495
G0 F9000 X169.6 Y199.132
G1 F1125 X169.6 Y100.862 E326.83929
G0 F9000 X171.2 Y101.249
G1 F1125 X171.2 Y198.671 E334.61593
G0 F9000 X172.8 Y198.06
G1 F1125 X172.8 Y101.64 E342.31259
G0 F9000 X174.4 Y102.03
G1 F1125 X174.4 Y197.227 E349.91163
G0 F9000 X176 Y196.194
G1 F1125 X176 Y102.421 E357.397
G0 F9000 X177.6 Y102.811
G1 F1125 X177.6 Y194.861 E364.74483
G0 F9000 X179.2 Y193.175
G1 F1125 X179.2 Y103.202 E371.92686
G0 F9000 X180.8 Y103.593
G1 F1125 X180.8 Y190.853 E378.89233
G0 F9000 X182.4 Y187.215
G1 F1125 X182.4 Y103.983 E385.53627
G0 F9000 X184 Y104.374
G1 F1125 X184 Y158.53 E389.85923
G0 F9000 X185.6 Y156.456
G1 F1125 X185.6 Y104.84 E393.97945
G0 F9000 X187.2 Y105.403
G1 F1125 X187.2 Y154.447 E397.89435
G0 F9000 X188.8 Y152.438
G1 F1125 X188.8 Y106.075 E401.59525
G0 F9000 X190.4 Y106.954
G1 F1125 X190.4 Y150.429 E405.06561
G0 F9000 X192 Y148.421
G1 F1125 X192 Y107.938 E408.29714
G0 F9000 X193.6 Y109.15
G1 F1125 X193.6 Y146.412 E411.27155
G0 F9000 X195.2 Y144.403
G1 F1125 X195.2 Y110.603 E413.96961
G0 F9000 X196.8 Y112.338
G1 F1125 X196.8 Y142.394 E416.36881
G0 F9000 X198.4 Y140.127
G1 F1125 X198.4 Y114.535 E418.41168
G0 F9000 X200 Y117.483
G1 F1125 X200 Y137.279 E419.99188
G1 F2700 E414.99188
G0 F9000 X201.221 Y137.136
G0 X202 Y135.071
G0 X202.497 Y133.469
G0 X201.6 Y132.575
G1 F2700 E419.99188
G1 F1125 X201.6 Y122.216 E420.81878
G1 F2700 E415.81878
G0 F9000 X202.637 Y121.974
G0 X202.138 Y119.969
G0 X201.374 Y117.926
G0 X200.193 Y115.426
G0 X199.02 Y113.551
G0 X197.395 Y111.376
G0 X195.868 Y109.769
G0 X193.822 Y107.943
G0 X192.022 Y106.684
G0 X189.685 Y105.32
G0 X187.645 Y104.432
G0 X185.889 Y103.814
G0 X184.418 Y103.38
G0 X169.178 Y99.683
G0 X167.685 Y99.455
G0 X165.567 Y99.335
G0 X143.919 Y99.353
G0 X142.115 Y99.521
G0 X139.953 Y99.931
G0 X138.031 Y100.552
G0 X136.052 Y101.419
G0 X134.361 Y102.422
G0 X132.587 Y103.733
G0 X103.23 Y127.867
G0 X101.927 Y129.119
G0 X102.4 Y130.175
G1 F2700 E420.81878
G1 F1125 X102.4 Y193.826 E425.89968
G0 F9000 X100.8 Y191.777
G1 F1125 X100.8 Y132.22 E430.65377
G0 F9000 X99.2 Y135.182
M104 S230
G1 F1125 X99.2 Y188.81 E434.93459
G0 F300 X99.2 Y188.81 Z0.54
G0 F9000 X100.342 Y191.061
;TIME_ELAPSED:305.472645
;LAYER:-5
;TYPE:SUPPORT
G1 F1125 X100.658 Y191.563 E434.99378
G1 X100.737 Y191.686 E435.00837
G1 X101.292 Y192.496 E435.10634
G1 X101.414 Y192.661 E435.12682
G1 X101.958 Y193.339 E435.21355
G1 X102.075 Y193.476 E435.23153
G1 X102.724 Y194.174 E435.32663
G1 X103.181 Y194.632 E435.39119
G1 X103.971 Y195.366 E435.49879
G1 X104.12 Y195.494 E435.51839
G1 X104.828 Y196.055 E435.60852
G1 X104.95 Y196.145 E435.62365
G1 X105.741 Y196.685 E435.71921
G1 X106.358 Y197.073 E435.79194
G1 X106.841 Y197.35 E435.84749
G1 X100.056 Y190.565 E436.80493
G1 X99.851 Y190.211 E436.84575
G1 X99.781 Y190.077 E436.86083
G1 X99.385 Y189.261 E436.95134
G1 X99.317 Y189.107 E436.96813
G1 X98.912 Y188.078 E437.07847
G1 X98.874 Y187.97 E437.0899
G1 X109.441 Y198.536 E438.58095
G1 X109.851 Y198.68 E438.62431
G1 X109.956 Y198.715 E438.63535
G1 X110.947 Y199.019 E438.73878
G1 X111.09 Y199.056 E438.75352
G1 X111.457 Y199.138 E438.79104
G1 X98.271 Y185.952 E440.65173
G1 X98.167 Y185.505 E440.69752
G1 X98.138 Y185.35 E440.71325
G1 X97.973 Y184.267 E440.82256
G1 X97.97 Y184.237 E440.82557
G1 X113.171 Y199.438 E442.9706
G1 X113.779 Y199.507 E443.03165
G1 X114.281 Y199.554 E443.08196
G1 X114.397 Y199.561 E443.09356
G1 X114.72 Y199.573 E443.12581
G1 X97.829 Y182.682 E445.50931
G1 X97.827 Y182.653 E445.51221
G1 X97.821 Y182.519 E445.5256
G1 X97.811 Y181.948 E445.58258
G1 X97.81 Y181.249 E445.65233
G1 X116.159 Y199.598 E448.24157
G1 X117.574 Y199.598 E448.38276
G1 X97.81 Y179.834 E451.17167
G1 X97.81 Y178.42 E451.31276
G1 X118.988 Y199.598 E454.30121
