;FLAVOR:Marlin
;TIME:6672
;Filament used: 4.56596m
;Layer height: 0.2
;MINX:119.2
;MINY:33.875
;MINZ:0.2
;MAXX:180.8
;MAXY:266.118
;MAXZ:3.2
;Generated with Cura_SteamEngine 4.12.1
M140 S95
M105
M190 S95
M82 ;absolute extrusion mode
M201 X500.00 Y500.00 Z100.00 E5000.00 ;Setup machine max acceleration
M203 X500.00 Y500.00 Z10.00 E50.00 ;Setup machine max feedrate
M204 P500.00 R1000.00 T500.00 ;Setup Print/Retract/Travel acceleration
M205 X8.00 Y8.00 Z0.40 E5.00 ;Setup Jerk
M220 S100 ;Reset Feedrate
M221 S100 ;Reset Flowrate
M140 S95 ; set bed temp
M190 S95 ; wait for bed temp
G28; home all 
G29;
G92 E0 ;Reset Extruder
G1 Z2.0 F3000 ;Move Z Axis up
G1 X10.1 Y20 Z0.28 F5000.0 ;Move to start position
M104 S230 ; wait for extruder printing temp
M109 S230 ; wait for extruder printing temp
G1 X10.1 Y200.0 Z0.28 F1500.0 E15 ;Draw the first line
G1 X10.4 Y200.0 Z0.28 F5000.0 ;Move to side a little
G1 X10.4 Y20 Z0.28 F1500.0 E30 ;Draw the second line
G92 E0 ;Reset Extruder
G1 Z2.0 F3000 ;Move Z Axis up
G92 E0
G92 E0
;LAYER_COUNT:16
;LAYER:0
M107
G0 F6000 X153.558 Y52.341 Z0.2
;TYPE:SKIRT
G1 F1200 X153.832 Y51.6 E0.02628
G1 X154.18 Y50.891 E0.05255
G1 X154.598 Y50.221 E0.07881
G1 X155.081 Y49.597 E0.10506
G1 X155.625 Y49.024 E0.13134
G1 X156.224 Y48.509 E0.15761
G1 X156.871 Y48.058 E0.18384
G1 X157.562 Y47.674 E0.21013
G1 X158.287 Y47.362 E0.23639
G1 X159.04 Y47.125 E0.26264
G1 X159.7 Y46.989 E0.28505
G1 X159.7 Y41.675 E0.4618
G1 X159.74 Y40.886 E0.48807
G1 X159.859 Y40.106 E0.51432
G1 X160.057 Y39.341 E0.5406
G1 X160.331 Y38.601 E0.56685
G1 X160.679 Y37.892 E0.59311
G1 X161.097 Y37.221 E0.61941
G1 X161.58 Y36.597 E0.64565
G1 X162.123 Y36.024 E0.67191
G1 X162.722 Y35.509 E0.69818
G1 X163.37 Y35.058 E0.72444
G1 X164.061 Y34.674 E0.75074
G1 X164.786 Y34.362 E0.77699
G1 X165.539 Y34.125 E0.80324
G1 X166.313 Y33.966 E0.82952
G1 X167.098 Y33.885 E0.85577
G1 X167.5 Y33.875 E0.86915
G1 X173 Y33.875 E1.05208
G1 X173.789 Y33.915 E1.07835
G1 X174.569 Y34.034 E1.1046
G1 X175.334 Y34.232 E1.13088
G1 X176.074 Y34.506 E1.15712
G1 X176.783 Y34.854 E1.18339
G1 X177.454 Y35.272 E1.20969
G1 X178.078 Y35.755 E1.23593
G1 X178.651 Y36.298 E1.26219
G1 X179.166 Y36.897 E1.28846
G1 X179.617 Y37.545 E1.31472
G1 X180.001 Y38.236 E1.34101
G1 X180.313 Y38.961 E1.36727
G1 X180.55 Y39.714 E1.39352
G1 X180.709 Y40.488 E1.4198
G1 X180.79 Y41.273 E1.44605
G1 X180.8 Y41.675 E1.45943
G1 X180.8 Y175.343 E5.90524
G1 X180.774 Y175.984 E5.92658
G1 X180.612 Y177.949 E5.99216
G1 X180.507 Y178.732 E6.01843
G1 X180.403 Y179.208 E6.03464
G1 X179.924 Y181.115 E6.10003
G1 X179.693 Y181.87 E6.1263
G1 X179.509 Y182.332 E6.14284
G1 X178.722 Y184.137 E6.20833
G1 X178.37 Y184.844 E6.2346
G1 X178.3 Y184.96 E6.2391
G1 X178.3 Y192.403 E6.48666
G1 X178.514 Y192.773 E6.50087
G1 X178.722 Y193.213 E6.51706
G1 X179.508 Y195.016 E6.58248
G1 X179.787 Y195.755 E6.60875
G1 X179.923 Y196.232 E6.62525
G1 X180.403 Y198.142 E6.69075
G1 X180.556 Y198.917 E6.71703
G1 X180.612 Y199.401 E6.73323
G1 X180.774 Y201.364 E6.79874
G1 X180.8 Y202.006 E6.82011
G1 X180.799 Y254.871 E8.57841
G1 X180.762 Y255.629 E8.60365
G1 X180.65 Y256.776 E8.64198
G1 X180.506 Y257.689 E8.67272
G1 X180.472 Y257.844 E8.678
G1 X180.334 Y258.381 E8.69644
G1 X180.208 Y258.808 E8.71125
G1 X179.879 Y259.712 E8.74325
G1 X179.681 Y260.167 E8.75975
G1 X179.284 Y260.956 E8.78913
G1 X179.243 Y261.027 E8.79186
G1 X178.973 Y261.46 E8.80883
G1 X178.713 Y261.849 E8.82439
G1 X177.99 Y262.772 E8.86339
G1 X177.792 Y262.989 E8.87316
G1 X177.093 Y263.666 E8.90552
G1 X176.875 Y263.852 E8.91505
G1 X176.139 Y264.408 E8.94573
G1 X175.953 Y264.532 E8.95317
G1 X175.447 Y264.842 E8.9729
G1 X175.342 Y264.901 E8.97691
G1 X174.661 Y265.241 E9.00223
G1 X174.445 Y265.336 E9.01007
G1 X173.893 Y265.554 E9.02981
G1 X173.802 Y265.586 E9.03302
G1 X173.113 Y265.793 E9.05695
G1 X172.862 Y265.856 E9.06556
G1 X172.164 Y265.998 E9.08925
G1 X172.087 Y266.01 E9.09184
G1 X171.531 Y266.076 E9.11046
G1 X171.266 Y266.098 E9.11931
G1 X170.28 Y266.118 E9.15211
G1 X169.983 Y266.105 E9.162
G1 X169.377 Y266.054 E9.18222
G1 X169.238 Y266.037 E9.18688
G1 X168.351 Y265.876 E9.21687
G1 X167.917 Y265.771 E9.23172
G1 X167.284 Y265.59 E9.25361
G1 X167.212 Y265.566 E9.25614
G1 X166.73 Y265.387 E9.27324
G1 X166.326 Y265.222 E9.28775
G1 X165.844 Y265.006 E9.30532
G1 X165.746 Y264.958 E9.30895
G1 X165.269 Y264.703 E9.32694
G1 X164.889 Y264.483 E9.34155
G1 X164.341 Y264.135 E9.36314
G1 X164.114 Y263.977 E9.37234
G1 X163.664 Y263.639 E9.39105
G1 X163.292 Y263.338 E9.40697
G1 X162.864 Y262.965 E9.42585
G1 X162.545 Y262.666 E9.44039
G1 X162.364 Y262.49 E9.44879
G1 X121.485 Y221.611 E11.37161
G1 X120.955 Y221.025 E11.39789
G1 X120.488 Y220.389 E11.42414
G1 X120.087 Y219.709 E11.45039
G1 X119.757 Y218.991 E11.47668
G1 X119.502 Y218.244 E11.50293
G1 X119.323 Y217.475 E11.52919
G1 X119.223 Y216.691 E11.55548
G1 X119.2 Y216.096 E11.57528
G1 X119.2 Y193.175 E12.33764
G1 X119.24 Y192.386 E12.36391
G1 X119.359 Y191.606 E12.39016
G1 X119.557 Y190.841 E12.41644
G1 X119.807 Y190.167 E12.44035
G1 X119.687 Y189.889 E12.45042
G1 X119.45 Y189.136 E12.47668
G1 X119.291 Y188.362 E12.50296
G1 X119.21 Y187.577 E12.5292
G1 X119.2 Y187.175 E12.54258
G1 X119.2 Y172.676 E13.02482
G1 X119.248 Y171.813 E13.05357
G1 X119.322 Y171.148 E13.07582
G1 X119.449 Y170.369 E13.10207
G1 X119.711 Y169.437 E13.13427
G1 X119.934 Y168.799 E13.15675
G1 X120.232 Y168.068 E13.18301
G1 X120.697 Y167.216 E13.21529
G1 X121.056 Y166.646 E13.2377
G1 X121.51 Y166 E13.26396
G1 X122.141 Y165.288 E13.2956
G1 X122.613 Y164.816 E13.3178
G1 X123.199 Y164.286 E13.34408
G1 X123.971 Y163.731 E13.3757
G1 X124.541 Y163.372 E13.39811
G1 X125.23 Y162.985 E13.42439
G1 X126.124 Y162.609 E13.45665
G1 X126.759 Y162.387 E13.47902
G1 X127.517 Y162.164 E13.5053
G1 X128.463 Y161.999 E13.53724
G1 X129.131 Y161.924 E13.5596
G1 X130.001 Y161.875 E13.58858
G1 X147.779 Y161.875 E14.17988
G1 X147.779 Y117.796 E15.64595
G1 X147.485 Y117.748 E15.65586
G1 X146.564 Y117.489 E15.68768
G1 X146.14 Y117.341 E15.70262
G1 X145.409 Y117.044 E15.72886
G1 X144.566 Y116.585 E15.76079
G1 X144.185 Y116.346 E15.77575
G1 X143.538 Y115.893 E15.80202
G1 X142.815 Y115.253 E15.83413
G1 X142.501 Y114.939 E15.8489
G1 X141.971 Y114.353 E15.87518
G1 X141.408 Y113.569 E15.90728
G1 X141.169 Y113.188 E15.92224
G1 X140.784 Y112.499 E15.94849
G1 X140.414 Y111.618 E15.98028
G1 X140.265 Y111.192 E15.99529
G1 X140.043 Y110.435 E16.02152
G1 X139.876 Y109.478 E16.05384
G1 X139.827 Y109.037 E16.06859
G1 X139.779 Y108.174 E16.09734
G1 X139.78 Y104.16 E16.23085
G1 X139.828 Y103.295 E16.25966
G1 X139.876 Y102.866 E16.27402
G1 X140.004 Y102.086 E16.30031
G1 X140.265 Y101.158 E16.33237
G1 X140.414 Y100.732 E16.34738
G1 X140.712 Y100.001 E16.37364
G1 X141.169 Y99.162 E16.40541
G1 X141.408 Y98.781 E16.42037
G1 X141.861 Y98.134 E16.44664
G1 X142.501 Y97.411 E16.47876
G1 X142.815 Y97.097 E16.49353
G1 X143.401 Y96.567 E16.51981
G1 X144.185 Y96.004 E16.55191
G1 X144.566 Y95.765 E16.56687
G1 X145.255 Y95.38 E16.59312
G1 X146.14 Y95.009 E16.62504
G1 X146.564 Y94.861 E16.63997
G1 X147.322 Y94.639 E16.66624
G1 X148.264 Y94.474 E16.69805
G1 X148.709 Y94.424 E16.71295
G1 X149.579 Y94.375 E16.74193
G1 X153.2 Y94.375 E16.86236
G1 X153.201 Y54.675 E18.18279
G1 X153.241 Y53.886 E18.20907
G1 X153.361 Y53.106 E18.23531
G1 X153.558 Y52.341 E18.26159
G0 F6000 X153.958 Y52.404
G1 F1200 X154.232 Y51.685 E18.28718
G1 X154.579 Y50.998 E18.31278
G1 X154.995 Y50.352 E18.33834
G1 X155.477 Y49.752 E18.36393
G1 X156.017 Y49.205 E18.3895
G1 X156.612 Y48.717 E18.41509
G1 X157.254 Y48.294 E18.44066
G1 X157.937 Y47.939 E18.46627
G1 X158.653 Y47.658 E18.49185
G1 X159.394 Y47.452 E18.51743
G1 X160.1 Y47.333 E18.54124
G1 X160.1 Y41.675 E18.72943
G1 X160.14 Y40.907 E18.75501
G1 X160.259 Y40.147 E18.78059
G1 X160.457 Y39.404 E18.80617
G1 X160.731 Y38.685 E18.83176
G1 X161.078 Y37.999 E18.85733
G1 X161.494 Y37.352 E18.88291
G1 X161.975 Y36.752 E18.90849
G1 X162.516 Y36.205 E18.93408
G1 X163.111 Y35.717 E18.95967
G1 X163.753 Y35.294 E18.98524
G1 X164.436 Y34.939 E19.01084
G1 X165.151 Y34.658 E19.0364
G1 X165.893 Y34.452 E19.06201
G1 X166.651 Y34.324 E19.08758
G1 X167.5 Y34.275 E19.11586
G1 X173 Y34.275 E19.29879
G1 X173.768 Y34.315 E19.32437
G1 X174.528 Y34.434 E19.34996
G1 X175.271 Y34.632 E19.37553
G1 X175.99 Y34.906 E19.40112
G1 X176.676 Y35.253 E19.42669
G1 X177.323 Y35.669 E19.45228
G1 X177.923 Y36.15 E19.47785
G1 X178.47 Y36.691 E19.50344
G1 X178.958 Y37.286 E19.52904
G1 X179.381 Y37.928 E19.55461
G1 X179.736 Y38.611 E19.58021
G1 X180.017 Y39.326 E19.60576
G1 X180.223 Y40.068 E19.63137
G1 X180.351 Y40.826 E19.65694
G1 X180.4 Y41.675 E19.68523
G1 X180.4 Y175.343 E24.13104
G1 X180.375 Y175.951 E24.15128
G1 X180.213 Y177.916 E24.21686
G1 X180.11 Y178.678 E24.24243
G1 X180.015 Y179.111 E24.25718
G1 X179.536 Y181.018 E24.32258
G1 X179.31 Y181.753 E24.34815
G1 X179.142 Y182.173 E24.3632
G1 X178.355 Y183.978 E24.42869
G1 X178.012 Y184.666 E24.45426
G1 X177.9 Y184.85 E24.46142
G1 X177.9 Y192.51 E24.7162
G1 X178.167 Y192.973 E24.73397
G1 X178.355 Y193.373 E24.74867
G1 X179.141 Y195.176 E24.81409
G1 X179.412 Y195.896 E24.83968
G1 X179.535 Y196.329 E24.85465
G1 X180.015 Y198.239 E24.92015
G1 X180.163 Y198.994 E24.94574
G1 X180.213 Y199.434 E24.96047
G1 X180.375 Y201.397 E25.02598
G1 X180.4 Y202.006 E25.04625
G1 X180.399 Y254.871 E26.80455
G1 X180.364 Y255.59 E26.82849
G1 X180.252 Y256.737 E26.86682
G1 X180.115 Y257.604 E26.89602
G1 X180.081 Y257.759 E26.9013
G1 X179.95 Y258.267 E26.91875
G1 X179.824 Y258.694 E26.93355
G1 X179.512 Y259.553 E26.96395
G1 X179.314 Y260.008 E26.98045
G1 X178.937 Y260.756 E27.00831
G1 X178.896 Y260.827 E27.01104
G1 X178.64 Y261.238 E27.02714
G1 X178.38 Y261.627 E27.04271
G1 X177.694 Y262.503 E27.07971
G1 X177.496 Y262.72 E27.08948
G1 X176.833 Y263.361 E27.12016
G1 X176.615 Y263.547 E27.12969
G1 X175.917 Y264.075 E27.1588
G1 X175.731 Y264.199 E27.16623
G1 X175.251 Y264.493 E27.18495
G1 X175.146 Y264.552 E27.18896
G1 X174.5 Y264.875 E27.21298
G1 X174.284 Y264.97 E27.22083
G1 X173.76 Y265.177 E27.23957
G1 X173.669 Y265.209 E27.24278
G1 X173.015 Y265.405 E27.26549
G1 X172.764 Y265.468 E27.27409
G1 X172.102 Y265.603 E27.29656
G1 X172.025 Y265.615 E27.29916
G1 X171.498 Y265.678 E27.31681
G1 X171.233 Y265.7 E27.32565
G1 X170.297 Y265.718 E27.35679
G1 X170 Y265.705 E27.36668
G1 X169.426 Y265.657 E27.38584
G1 X169.287 Y265.64 E27.39049
G1 X168.445 Y265.487 E27.41896
G1 X168.011 Y265.382 E27.43381
G1 X167.411 Y265.21 E27.45457
G1 X167.339 Y265.186 E27.45709
G1 X166.881 Y265.017 E27.47333
G1 X166.477 Y264.852 E27.48784
G1 X166.02 Y264.647 E27.5045
G1 X165.922 Y264.599 E27.50813
G1 X165.469 Y264.357 E27.52522
G1 X165.089 Y264.137 E27.53982
G1 X164.57 Y263.807 E27.56028
G1 X164.343 Y263.649 E27.56947
G1 X163.915 Y263.328 E27.58727
G1 X163.543 Y263.027 E27.60318
G1 X163.137 Y262.673 E27.6211
G1 X162.818 Y262.374 E27.63564
G1 X162.646 Y262.208 E27.64359
G1 X121.767 Y221.329 E29.56642
G1 X121.253 Y220.757 E29.59199
G1 X120.8 Y220.135 E29.61759
G1 X120.414 Y219.47 E29.64316
G1 X120.099 Y218.768 E29.66875
G1 X119.859 Y218.037 E29.69434
G1 X119.696 Y217.286 E29.7199
G1 X119.612 Y216.521 E29.7455
G1 X119.6 Y216.096 E29.75964
G1 X119.6 Y193.175 E30.52199
G1 X119.64 Y192.407 E30.54757
G1 X119.759 Y191.647 E30.57316
G1 X119.957 Y190.904 E30.59873
G1 X120.231 Y190.185 E30.62433
G1 X120.238 Y190.172 E30.62482
G1 X119.983 Y189.524 E30.64798
G1 X119.777 Y188.782 E30.67359
G1 X119.649 Y188.024 E30.69916
G1 X119.6 Y187.175 E30.72744
G1 X119.6 Y172.676 E31.20968
G1 X119.645 Y171.858 E31.23693
G1 X119.719 Y171.193 E31.25918
G1 X119.844 Y170.434 E31.28477
G1 X120.088 Y169.569 E31.31466
G1 X120.311 Y168.931 E31.33714
G1 X120.603 Y168.219 E31.36274
G1 X121.035 Y167.429 E31.39268
G1 X121.394 Y166.859 E31.41509
G1 X121.838 Y166.231 E31.44067
G1 X122.423 Y165.57 E31.47003
G1 X122.895 Y165.098 E31.49223
G1 X123.467 Y164.584 E31.51781
G1 X124.184 Y164.069 E31.54717
G1 X124.754 Y163.71 E31.56957
G1 X125.426 Y163.335 E31.59517
G1 X126.256 Y162.987 E31.6251
G1 X126.891 Y162.765 E31.64748
G1 X127.629 Y162.549 E31.67305
G1 X128.507 Y162.396 E31.70269
G1 X129.175 Y162.321 E31.72505
G1 X130.001 Y162.275 E31.75257
G1 X148.179 Y162.275 E32.35717
G1 X148.179 Y117.457 E33.84782
G1 X147.55 Y117.353 E33.86903
G1 X146.696 Y117.112 E33.89854
G1 X146.272 Y116.964 E33.91348
G1 X145.56 Y116.673 E33.93906
G1 X144.779 Y116.246 E33.96867
G1 X144.398 Y116.007 E33.98362
G1 X143.768 Y115.565 E34.00922
G1 X143.097 Y114.971 E34.03903
G1 X142.783 Y114.657 E34.0538
G1 X142.269 Y114.085 E34.07937
G1 X141.747 Y113.356 E34.1092
G1 X141.508 Y112.975 E34.12415
G1 X141.134 Y112.303 E34.14973
G1 X140.792 Y111.486 E34.17919
G1 X140.643 Y111.06 E34.1942
G1 X140.427 Y110.322 E34.21978
G1 X140.273 Y109.434 E34.24975
G1 X140.224 Y108.993 E34.26451
G1 X140.179 Y108.174 E34.29179
G1 X140.18 Y104.16 E34.4253
G1 X140.226 Y103.339 E34.45265
G1 X140.274 Y102.91 E34.46701
G1 X140.399 Y102.151 E34.49259
G1 X140.643 Y101.29 E34.52236
G1 X140.792 Y100.864 E34.53737
G1 X141.083 Y100.152 E34.56295
G1 X141.508 Y99.375 E34.59241
G1 X141.747 Y98.994 E34.60736
G1 X142.189 Y98.364 E34.63296
G1 X142.783 Y97.693 E34.66277
G1 X143.097 Y97.379 E34.67754
G1 X143.669 Y96.865 E34.70311
G1 X144.398 Y96.343 E34.73294
G1 X144.779 Y96.104 E34.74789
G1 X145.451 Y95.73 E34.77347
G1 X146.272 Y95.386 E34.80308
G1 X146.696 Y95.238 E34.81802
G1 X147.435 Y95.023 E34.84362
G1 X148.309 Y94.871 E34.87312
G1 X148.754 Y94.821 E34.88801
G1 X149.579 Y94.775 E34.9155
G1 X153.6 Y94.775 E35.04924
G1 X153.601 Y54.675 E36.38297
G1 X153.641 Y53.907 E36.40855
G1 X153.76 Y53.147 E36.43413
G1 X153.958 Y52.404 E36.45971
G0 F6000 X154.358 Y52.468
G1 F1200 X154.632 Y51.772 E36.48458
G1 X154.978 Y51.108 E36.50949
G1 X155.393 Y50.486 E36.53436
G1 X155.872 Y49.912 E36.55922
G1 X156.409 Y49.391 E36.58411
G1 X156.999 Y48.932 E36.60897
G1 X157.635 Y48.537 E36.63387
G1 X158.309 Y48.213 E36.65875
G1 X159.014 Y47.963 E36.68362
G1 X159.742 Y47.789 E36.70852
G1 X160.5 Y47.693 E36.73393
G1 X160.5 Y41.675 E36.93409
G1 X160.54 Y40.928 E36.95897
G1 X160.659 Y40.19 E36.98384
G1 X160.857 Y39.468 E37.00874
G1 X161.13 Y38.772 E37.0336
G1 X161.477 Y38.109 E37.05849
G1 X161.892 Y37.486 E37.08339
G1 X162.371 Y36.912 E37.10825
G1 X162.908 Y36.391 E37.13314
G1 X163.498 Y35.932 E37.158
G1 X164.134 Y35.537 E37.1829
G1 X164.808 Y35.213 E37.20778
G1 X165.513 Y34.963 E37.23266
G1 X166.241 Y34.789 E37.25755
G1 X166.983 Y34.694 E37.28243
G1 X167.5 Y34.675 E37.29964
G1 X173 Y34.675 E37.48257
G1 X173.747 Y34.715 E37.50745
G1 X174.485 Y34.834 E37.53231
G1 X175.207 Y35.032 E37.55721
G1 X175.903 Y35.305 E37.58208
G1 X176.566 Y35.652 E37.60697
G1 X177.189 Y36.067 E37.63187
G1 X177.763 Y36.546 E37.65673
G1 X178.284 Y37.083 E37.68162
G1 X178.743 Y37.673 E37.70648
G1 X179.138 Y38.309 E37.73138
G1 X179.462 Y38.983 E37.75625
G1 X179.712 Y39.688 E37.78113
G1 X179.886 Y40.416 E37.80603
G1 X179.981 Y41.158 E37.83091
G1 X180 Y41.675 E37.84812
G1 X180 Y175.343 E42.29393
G1 X179.976 Y175.918 E42.31307
G1 X179.814 Y177.883 E42.37865
G1 X179.713 Y178.624 E42.40352
G1 X179.627 Y179.013 E42.41677
G1 X179.148 Y180.92 E42.48217
G1 X178.927 Y181.635 E42.50706
G1 X178.776 Y182.013 E42.5206
G1 X177.989 Y183.818 E42.58609
G1 X177.653 Y184.486 E42.61096
G1 X177.5 Y184.739 E42.6208
G1 X177.5 Y192.616 E42.88279
G1 X177.82 Y193.173 E42.90415
G1 X177.989 Y193.533 E42.91738
G1 X178.775 Y195.336 E42.9828
G1 X179.037 Y196.036 E43.00766
G1 X179.147 Y196.427 E43.02117
G1 X179.627 Y198.337 E43.08667
G1 X179.77 Y199.071 E43.11154
G1 X179.814 Y199.467 E43.1248
G1 X179.976 Y201.43 E43.19031
G1 X180 Y202.006 E43.20948
G1 X179.999 Y254.871 E44.96778
G1 X179.966 Y255.551 E44.99042
G1 X179.854 Y256.698 E45.02875
G1 X179.724 Y257.518 E45.05637
G1 X179.69 Y257.673 E45.06164
G1 X179.567 Y258.154 E45.07816
G1 X179.441 Y258.581 E45.09296
G1 X179.146 Y259.393 E45.1217
G1 X178.948 Y259.848 E45.1382
G1 X178.591 Y260.556 E45.16458
G1 X178.55 Y260.627 E45.1673
G1 X178.308 Y261.016 E45.18254
G1 X178.048 Y261.405 E45.1981
G1 X177.399 Y262.233 E45.23309
G1 X177.201 Y262.45 E45.24286
