;FLAVOR:Marlin
;TIME:882
;Filament used: 0.574319m
;Layer height: 0.2
;MINX:117.801
;MINY:135.563
;MINZ:0.2
;MAXX:182.199
;MAXY:164.442
;MAXZ:3.2
;Generated with Cura_SteamEngine 4.12.1
M140 S95
M105
M190 S95
M82 ;absolute extrusion mode
M201 X500.00 Y500.00 Z100.00 E5000.00 ;Setup machine max acceleration
M203 X500.00 Y500.00 Z10.00 E50.00 ;Setup machine max feedrate
M204 P500.00 R1000.00 T500.00 ;Setup Print/Retract/Travel acceleration
M205 X8.00 Y8.00 Z0.40 E5.00 ;Setup Jerk
M220 S100 ;Reset Feedrate
M221 S100 ;Reset Flowrate
M140 S95 ; set bed temp
M190 S95 ; wait for bed temp
G28; home all 
G29;
G92 E0 ;Reset Extruder
G1 Z2.0 F3000 ;Move Z Axis up
G1 X10.1 Y20 Z0.28 F5000.0 ;Move to start position
M104 S230 ; wait for extruder printing temp
M109 S230 ; wait for extruder printing temp
G1 X10.1 Y200.0 Z0.28 F1500.0 E15 ;Draw the first line
G1 X10.4 Y200.0 Z0.28 F5000.0 ;Move to side a little
G1 X10.4 Y20 Z0.28 F1500.0 E30 ;Draw the second line
G92 E0 ;Reset Extruder
G1 Z2.0 F3000 ;Move Z Axis up
G92 E0
G92 E0
;LAYER_COUNT:16
;LAYER:0
M107
G0 F6000 X125.737 Y141.24 Z0.2
;TYPE:SKIRT
G1 F1200 X126.352 Y140.701 E0.0272
G1 X127.288 Y139.998 E0.06613
G1 X127.966 Y139.564 E0.09291
G1 X128.652 Y139.172 E0.11919
G1 X129.34 Y138.865 E0.14424
G1 X130.087 Y138.574 E0.17091
G1 X130.966 Y138.29 E0.20163
G1 X135.157 Y137.207 E0.3456
G1 X135.71 Y137.086 E0.36443
G1 X139.971 Y136.309 E0.50849
G1 X140.529 Y136.228 E0.52724
G1 X144.833 Y135.761 E0.67124
G1 X145.391 Y135.72 E0.68985
G1 X149.717 Y135.563 E0.83382
G1 X150.283 Y135.563 E0.85265
G1 X154.609 Y135.72 E0.99663
G1 X155.167 Y135.761 E1.01524
G1 X159.471 Y136.228 E1.15923
G1 X160.028 Y136.308 E1.17794
G1 X164.289 Y137.084 E1.322
G1 X164.844 Y137.206 E1.3409
G1 X169.036 Y138.29 E1.48491
G1 X169.453 Y138.411 E1.49935
G1 X169.801 Y138.522 E1.5115
G1 X170.603 Y138.827 E1.54004
G1 X170.958 Y138.985 E1.55296
G1 X171.92 Y139.497 E1.58921
G1 X172.6 Y139.922 E1.61588
G1 X173.248 Y140.374 E1.64216
G1 X173.581 Y140.648 E1.6565
G1 X174.236 Y141.217 E1.68536
G1 X174.636 Y141.59 E1.70355
G1 X179.05 Y146.004 E1.91117
G1 X179.662 Y146.692 E1.9418
G1 X180.1 Y147.248 E1.96534
G1 X180.557 Y147.892 E1.9916
G1 X181.061 Y148.82 E2.02673
G1 X181.354 Y149.458 E2.05008
G1 X181.647 Y150.191 E2.07633
G1 X181.915 Y151.183 E2.11051
G1 X182.054 Y151.878 E2.13408
G1 X182.169 Y152.659 E2.16034
G1 X182.199 Y153.718 E2.19557
G1 X182.171 Y154.422 E2.21901
G1 X182.1 Y155.208 E2.24526
G1 X181.888 Y156.217 E2.27955
G1 X181.698 Y156.895 E2.30297
G1 X181.446 Y157.643 E2.32922
G1 X180.984 Y158.616 E2.36505
G1 X180.639 Y159.229 E2.38844
G1 X180.218 Y159.896 E2.41468
G1 X179.573 Y160.694 E2.4488
G1 X179.093 Y161.214 E2.47234
G1 X178.529 Y161.766 E2.49859
G1 X177.699 Y162.406 E2.53345
G1 X177.113 Y162.798 E2.5569
G1 X176.435 Y163.203 E2.58316
G1 X175.477 Y163.632 E2.61808
G1 X174.816 Y163.876 E2.64151
G1 X174.062 Y164.112 E2.66779
G1 X173.031 Y164.305 E2.70268
G1 X172.329 Y164.388 E2.72619
G1 X171.413 Y164.442 E2.75671
G1 X164.733 Y164.442 E2.97888
G1 X163.92 Y164.4 E3.00596
G1 X163.71 Y164.378 E3.01298
G1 X162.93 Y164.256 E3.03924
G1 X162.068 Y164.023 E3.06894
G1 X161.869 Y163.957 E3.07591
G1 X161.133 Y163.671 E3.10218
G1 X160.682 Y163.442 E3.119
G1 X139.317 Y163.442 E3.8296
G1 X138.846 Y163.681 E3.84717
G1 X138.131 Y163.957 E3.87266
G1 X137.932 Y164.023 E3.87964
G1 X137.171 Y164.234 E3.9059
G1 X136.29 Y164.378 E3.93559
G1 X136.08 Y164.4 E3.94261
G1 X135.267 Y164.442 E3.96969
G1 X128.587 Y164.442 E4.19187
G1 X127.671 Y164.388 E4.22239
G1 X126.969 Y164.305 E4.2459
G1 X126.191 Y164.173 E4.27215
G1 X125.184 Y163.876 E4.30707
G1 X124.523 Y163.632 E4.3305
G1 X123.797 Y163.322 E4.35676
G1 X122.887 Y162.798 E4.39168
G1 X122.301 Y162.406 E4.41513
G1 X121.668 Y161.934 E4.44139
G1 X120.907 Y161.214 E4.47624
G1 X120.427 Y160.694 E4.49977
G1 X119.921 Y160.087 E4.52606
G1 X119.361 Y159.229 E4.56014
G1 X119.016 Y158.616 E4.58353
G1 X118.664 Y157.909 E4.6098
G1 X118.302 Y156.895 E4.64561
G1 X118.112 Y156.217 E4.66903
G1 X117.938 Y155.447 E4.69529
G1 X117.829 Y154.422 E4.72957
G1 X117.801 Y153.718 E4.753
G1 X117.81 Y152.928 E4.77928
G1 X117.946 Y151.878 E4.8145
G1 X118.085 Y151.183 E4.83807
G1 X118.279 Y150.418 E4.86432
G1 X118.646 Y149.458 E4.8985
G1 X118.939 Y148.82 E4.92185
G1 X119.304 Y148.12 E4.94811
G1 X119.898 Y147.251 E4.98312
G1 X120.334 Y146.697 E5.00657
G1 X120.948 Y146.006 E5.03731
G1 X125.363 Y141.591 E5.24498
G1 X125.737 Y141.24 E5.26204
G0 F6000 X126.001 Y141.541
G1 F1200 X126.616 Y141.002 E5.28924
G1 X127.503 Y140.335 E5.32615
G1 X128.181 Y139.901 E5.35293
G1 X128.85 Y139.52 E5.37853
G1 X129.485 Y139.238 E5.40164
G1 X130.232 Y138.947 E5.42831
G1 X131.067 Y138.677 E5.45749
G1 X135.258 Y137.594 E5.60147
G1 X135.781 Y137.479 E5.61928
G1 X140.042 Y136.702 E5.76334
G1 X140.572 Y136.625 E5.78115
G1 X144.876 Y136.158 E5.92514
G1 X145.406 Y136.12 E5.94281
G1 X149.732 Y135.963 E6.08679
G1 X150.268 Y135.963 E6.10462
G1 X154.594 Y136.12 E6.2486
G1 X155.124 Y136.158 E6.26627
G1 X159.428 Y136.625 E6.41026
G1 X159.956 Y136.702 E6.42801
G1 X164.217 Y137.478 E6.57206
G1 X164.744 Y137.594 E6.59001
G1 X168.936 Y138.678 E6.73402
G1 X169.332 Y138.792 E6.74773
G1 X169.68 Y138.903 E6.75988
G1 X170.44 Y139.192 E6.78692
G1 X170.795 Y139.35 E6.79984
G1 X171.708 Y139.836 E6.83424
G1 X172.388 Y140.261 E6.86092
G1 X173.018 Y140.702 E6.88649
G1 X173.319 Y140.95 E6.89946
G1 X173.974 Y141.519 E6.92832
G1 X174.354 Y141.872 E6.94557
G1 X178.768 Y146.286 E7.15319
G1 X179.348 Y146.94 E7.18227
G1 X179.786 Y147.496 E7.20581
G1 X180.23 Y148.124 E7.23139
G1 X180.698 Y148.987 E7.26404
G1 X180.991 Y149.625 E7.28739
G1 X181.275 Y150.339 E7.31295
G1 X181.522 Y151.262 E7.34473
G1 X181.661 Y151.957 E7.3683
G1 X181.773 Y152.718 E7.39389
G1 X181.799 Y153.702 E7.42663
G1 X181.771 Y154.406 E7.45006
G1 X181.701 Y155.172 E7.47564
G1 X181.502 Y156.109 E7.5075
G1 X181.312 Y156.787 E7.53092
G1 X181.067 Y157.516 E7.5565
G1 X180.636 Y158.419 E7.58978
G1 X180.291 Y159.032 E7.61318
G1 X179.879 Y159.682 E7.63877
G1 X179.28 Y160.422 E7.67044
G1 X178.8 Y160.942 E7.69398
G1 X178.249 Y161.48 E7.71959
G1 X177.476 Y162.074 E7.75201
G1 X176.89 Y162.466 E7.77546
G1 X176.23 Y162.86 E7.80103
G1 X175.339 Y163.257 E7.83347
G1 X174.678 Y163.501 E7.85691
G1 X173.943 Y163.73 E7.88251
G1 X172.984 Y163.908 E7.91495
G1 X172.282 Y163.991 E7.93846
G1 X171.413 Y164.042 E7.96742
G1 X164.733 Y164.042 E8.18959
G1 X163.962 Y164.002 E8.21527
G1 X163.752 Y163.98 E8.2223
G1 X162.992 Y163.86 E8.24789
G1 X162.194 Y163.644 E8.27538
G1 X161.995 Y163.578 E8.28236
G1 X161.278 Y163.298 E8.30796
G1 X160.776 Y163.042 E8.3267
G1 X139.222 Y163.042 E9.04359
G1 X138.665 Y163.324 E9.06435
G1 X138.005 Y163.578 E9.08788
G1 X137.806 Y163.644 E9.09485
G1 X137.065 Y163.848 E9.12041
G1 X136.248 Y163.98 E9.14794
G1 X136.038 Y164.002 E9.15496
G1 X135.267 Y164.042 E9.18064
G1 X128.587 Y164.042 E9.40282
G1 X127.718 Y163.991 E9.43177
G1 X127.016 Y163.908 E9.45528
G1 X126.258 Y163.778 E9.48086
G1 X125.322 Y163.501 E9.51333
G1 X124.661 Y163.257 E9.53676
G1 X123.955 Y162.954 E9.56231
G1 X123.11 Y162.466 E9.59477
G1 X122.524 Y162.074 E9.61822
G1 X121.907 Y161.613 E9.64383
G1 X121.2 Y160.942 E9.67625
G1 X120.72 Y160.422 E9.69979
G1 X120.229 Y159.831 E9.72535
G1 X119.709 Y159.032 E9.75705
G1 X119.364 Y158.419 E9.78045
G1 X119.022 Y157.73 E9.80603
G1 X118.688 Y156.787 E9.83931
G1 X118.498 Y156.109 E9.86273
G1 X118.329 Y155.358 E9.88833
G1 X118.229 Y154.406 E9.92017
G1 X118.201 Y153.702 E9.9436
G1 X118.21 Y152.933 E9.96918
G1 X118.339 Y151.957 E10.00192
G1 X118.478 Y151.262 E10.0255
G1 X118.668 Y150.516 E10.0511
G1 X119.009 Y149.625 E10.08283
G1 X119.302 Y148.987 E10.10618
G1 X119.659 Y148.305 E10.13179
G1 X120.212 Y147.498 E10.16432
G1 X120.648 Y146.944 E10.18777
G1 X121.23 Y146.288 E10.21694
G1 X125.645 Y141.873 E10.42461
G1 X126.001 Y141.541 E10.4408
G0 F6000 X126.264 Y141.842
G1 F1200 X126.879 Y141.303 E10.468
G1 X127.719 Y140.671 E10.50296
G1 X128.397 Y140.237 E10.52974
G1 X129.048 Y139.868 E10.55462
G1 X129.63 Y139.61 E10.5758
G1 X130.377 Y139.319 E10.60246
G1 X131.167 Y139.065 E10.63006
G1 X135.358 Y137.982 E10.77404
G1 X135.853 Y137.873 E10.79089
G1 X140.114 Y137.096 E10.93495
G1 X140.615 Y137.023 E10.95179
G1 X144.919 Y136.556 E11.09578
G1 X145.42 Y136.52 E11.11249
G1 X149.746 Y136.363 E11.25647
G1 X150.254 Y136.363 E11.27336
G1 X154.58 Y136.52 E11.41734
G1 X155.081 Y136.556 E11.43405
G1 X159.385 Y137.023 E11.57804
G1 X159.884 Y137.095 E11.59481
G1 X164.145 Y137.871 E11.73886
G1 X164.643 Y137.981 E11.75582
G1 X168.835 Y139.065 E11.89984
G1 X169.21 Y139.173 E11.91282
G1 X169.558 Y139.284 E11.92496
G1 X170.277 Y139.558 E11.95056
G1 X170.632 Y139.716 E11.96348
G1 X171.496 Y140.175 E11.99602
G1 X172.176 Y140.6 E12.02269
G1 X173.057 Y141.252 E12.05915
G1 X173.712 Y141.821 E12.088
G1 X174.071 Y142.155 E12.10431
G1 X178.485 Y146.569 E12.31193
G1 X179.034 Y147.187 E12.33943
G1 X179.472 Y147.743 E12.36297
G1 X179.903 Y148.355 E12.38786
G1 X180.334 Y149.154 E12.41806
G1 X180.627 Y149.792 E12.44141
G1 X180.903 Y150.487 E12.46628
G1 X181.13 Y151.34 E12.49564
G1 X181.269 Y152.035 E12.51921
G1 X181.376 Y152.776 E12.54412
G1 X181.399 Y153.686 E12.57439
G1 X181.371 Y154.39 E12.59783
G1 X181.302 Y155.135 E12.62271
G1 X181.117 Y156.001 E12.65216
G1 X180.927 Y156.679 E12.67558
G1 X180.687 Y157.387 E12.70045
G1 X180.287 Y158.223 E12.73127
G1 X179.942 Y158.836 E12.75467
G1 X179.541 Y159.468 E12.77956
G1 X178.986 Y160.151 E12.80883
G1 X178.506 Y160.671 E12.83237
G1 X177.97 Y161.193 E12.85725
G1 X177.254 Y161.741 E12.88724
G1 X176.668 Y162.133 E12.91069
G1 X176.025 Y162.515 E12.93557
G1 X175.2 Y162.882 E12.9656
G1 X174.539 Y163.126 E12.98904
G1 X173.824 Y163.347 E13.01393
G1 X172.937 Y163.511 E13.04393
G1 X172.235 Y163.594 E13.06744
G1 X171.413 Y163.642 E13.09483
G1 X164.733 Y163.642 E13.317
G1 X164.004 Y163.604 E13.34128
G1 X163.794 Y163.582 E13.34831
G1 X163.055 Y163.464 E13.3732
G1 X162.319 Y163.264 E13.39856
G1 X162.12 Y163.198 E13.40554
G1 X161.424 Y162.925 E13.4304
G1 X160.87 Y162.642 E13.45109
G1 X139.129 Y162.642 E14.1742
G1 X138.484 Y162.966 E14.19821
G1 X137.88 Y163.198 E14.21973
G1 X137.681 Y163.264 E14.2267
G1 X136.959 Y163.461 E14.2516
G1 X136.206 Y163.582 E14.27696
G1 X135.996 Y163.604 E14.28398
G1 X135.267 Y163.642 E14.30826
G1 X128.587 Y163.642 E14.53044
G1 X127.765 Y163.594 E14.55783
G1 X127.063 Y163.511 E14.58134
G1 X126.326 Y163.383 E14.60622
G1 X125.461 Y163.126 E14.63623
G1 X124.8 Y162.882 E14.65967
G1 X124.113 Y162.586 E14.68455
G1 X123.332 Y162.133 E14.71458
G1 X122.746 Y161.741 E14.73803
G1 X122.147 Y161.293 E14.7629
G1 X121.494 Y160.671 E14.7929
G1 X121.014 Y160.151 E14.81644
G1 X120.537 Y159.575 E14.84131
G1 X120.058 Y158.836 E14.8706
G1 X119.713 Y158.223 E14.894
G1 X119.381 Y157.553 E14.91887
G1 X119.073 Y156.679 E14.94969
G1 X118.883 Y156.001 E14.97311
G1 X118.72 Y155.271 E14.99799
G1 X118.629 Y154.39 E15.02744
G1 X118.601 Y153.686 E15.05088
G1 X118.611 Y152.938 E15.07576
G1 X118.731 Y152.035 E15.10606
G1 X118.87 Y151.34 E15.12963
G1 X119.056 Y150.616 E15.15449
G1 X119.373 Y149.792 E15.18386
G1 X119.666 Y149.154 E15.20721
G1 X120.014 Y148.491 E15.23211
G1 X120.526 Y147.746 E15.26218
G1 X120.962 Y147.192 E15.28563
G1 X121.513 Y146.571 E15.31324
G1 X125.928 Y142.156 E15.52091
G1 X126.264 Y141.842 E15.5362
G0 F6000 X126.528 Y142.142
G1 F1200 X127.143 Y141.603 E15.5634
G1 X127.935 Y141.008 E15.59635
G1 X128.613 Y140.574 E15.62312
G1 X129.245 Y140.217 E15.64727
G1 X129.775 Y139.983 E15.66654
G1 X130.522 Y139.692 E15.6932
G1 X131.267 Y139.452 E15.71923
G1 X135.458 Y138.369 E15.86321
G1 X135.925 Y138.266 E15.87911
G1 X140.186 Y137.489 E16.02317
G1 X140.658 Y137.421 E16.03903
G1 X144.962 Y136.954 E16.18302
G1 X145.435 Y136.919 E16.1988
G1 X149.761 Y136.762 E16.34278
G1 X150.239 Y136.762 E16.35867
G1 X154.565 Y136.919 E16.50265
G1 X155.038 Y136.954 E16.51843
G1 X159.342 Y137.421 E16.66242
G1 X159.813 Y137.489 E16.67825
G1 X164.074 Y138.265 E16.8223
G1 X164.543 Y138.368 E16.83827
G1 X168.735 Y139.452 E16.98228
G1 X169.089 Y139.554 E16.99454
G1 X169.437 Y139.665 E17.00668
G1 X170.115 Y139.923 E17.03081
G1 X170.47 Y140.081 E17.04374
G1 X171.284 Y140.514 E17.0744
G1 X171.964 Y140.939 E17.10107
G1 X172.794 Y141.553 E17.13541
G1 X173.449 Y142.122 E17.16427
G1 X173.788 Y142.438 E17.17968
G1 X178.202 Y146.852 E17.3873
G1 X178.72 Y147.435 E17.41324
G1 X179.158 Y147.991 E17.43678
G1 X179.575 Y148.585 E17.46092
G1 X179.971 Y149.321 E17.48872
G1 X180.264 Y149.959 E17.51207
G1 X180.53 Y150.634 E17.5362
G1 X180.738 Y151.419 E17.56321
G1 X180.877 Y152.114 E17.58679
G1 X180.98 Y152.833 E17.61094
G1 X181 Y153.67 E17.63879
G1 X180.972 Y154.374 E17.66223
G1 X180.903 Y155.097 E17.68638
G1 X180.732 Y155.893 E17.71346
G1 X180.542 Y156.571 E17.73688
G1 X180.308 Y157.259 E17.76105
G1 X179.939 Y158.027 E17.78939
G1 X179.594 Y158.64 E17.81279
G1 X179.203 Y159.252 E17.83694
G1 X178.692 Y159.88 E17.86387
G1 X178.212 Y160.4 E17.88741
G1 X177.69 Y160.905 E17.91156
G1 X177.032 Y161.409 E17.93913
G1 X176.446 Y161.801 E17.96258
G1 X175.821 Y162.171 E17.98674
G1 X175.062 Y162.507 E18.01434
G1 X174.401 Y162.751 E18.03778
G1 X173.706 Y162.964 E18.06196
G1 X172.89 Y163.113 E18.08954
G1 X172.188 Y163.196 E18.11306
G1 X171.413 Y163.242 E18.13888
G1 X164.733 Y163.242 E18.36106
G1 X164.045 Y163.206 E18.38397
G1 X163.835 Y163.184 E18.39099
G1 X163.118 Y163.069 E18.41515
G1 X162.445 Y162.884 E18.43836
G1 X162.246 Y162.818 E18.44533
G1 X161.571 Y162.552 E18.46946
G1 X161.046 Y162.282 E18.4891
G1 X160.976 Y162.242 E18.49178
G1 X139.024 Y162.242 E19.22191
G1 X138.954 Y162.282 E19.22459
G1 X138.305 Y162.608 E19.24874
G1 X137.754 Y162.818 E19.26836
G1 X137.555 Y162.884 E19.27533
G1 X136.854 Y163.075 E19.2995
G1 X136.165 Y163.184 E19.3227
G1 X135.955 Y163.206 E19.32972
G1 X135.267 Y163.242 E19.35263
G1 X128.587 Y163.242 E19.57481
G1 X127.812 Y163.196 E19.60063
G1 X127.11 Y163.113 E19.62414
G1 X126.395 Y162.988 E19.64829
G1 X125.599 Y162.751 E19.67591
G1 X124.938 Y162.507 E19.69935
G1 X124.272 Y162.218 E19.72349
G1 X123.554 Y161.801 E19.75111
G1 X122.968 Y161.409 E19.77456
G1 X122.388 Y160.972 E19.79871
G1 X121.788 Y160.4 E19.82628
G1 X121.308 Y159.88 E19.84982
G1 X120.846 Y159.32 E19.87397
G1 X120.406 Y158.64 E19.9009
G1 X120.061 Y158.027 E19.9243
G1 X119.74 Y157.375 E19.94847
G1 X119.458 Y156.571 E19.97681
G1 X119.268 Y155.893 E20.00023
G1 X119.111 Y155.184 E20.02438
G1 X119.028 Y154.374 E20.05146
G1 X119 Y153.67 E20.0749
G1 X119.011 Y152.944 E20.09905
G1 X119.123 Y152.114 E20.1269
G1 X119.262 Y151.419 E20.15048
G1 X119.444 Y150.715 E20.17466
G1 X119.736 Y149.959 E20.20162
G1 X120.029 Y149.321 E20.22497
G1 X120.368 Y148.678 E20.24914
G1 X120.841 Y147.993 E20.27683
G1 X121.277 Y147.439 E20.30028
G1 X121.796 Y146.854 E20.32629
G1 X126.211 Y142.439 E20.53396
G1 X126.528 Y142.142 E20.54841
G0 F6000 X126.792 Y142.443
G1 F1200 X127.407 Y141.904 E20.5756
G1 X128.15 Y141.345 E20.60653
G1 X128.828 Y140.911 E20.6333
G1 X129.442 Y140.566 E20.65673
G1 X129.92 Y140.356 E20.67409
G1 X130.667 Y140.065 E20.70076
G1 X131.367 Y139.839 E20.72522
G1 X135.558 Y138.756 E20.8692
G1 X135.997 Y138.66 E20.88414
G1 X140.258 Y137.883 E21.0282
G1 X140.701 Y137.818 E21.04309
G1 X145.005 Y137.351 E21.18708
G1 X145.449 Y137.319 E21.20189
G1 X149.775 Y137.162 E21.34587
G1 X150.225 Y137.162 E21.36084
G1 X154.551 Y137.319 E21.50481
G1 X154.995 Y137.351 E21.51962
G1 X159.299 Y137.818 E21.66361
G1 X159.741 Y137.882 E21.67847
G1 X164.002 Y138.658 E21.82252
G1 X164.443 Y138.755 E21.83754
G1 X168.635 Y139.839 E21.98155
G1 X168.967 Y139.935 E21.99304
G1 X169.315 Y140.046 E22.00519
G1 X169.952 Y140.289 E22.02787
G1 X170.307 Y140.447 E22.04079
G1 X171.072 Y140.853 E22.0696
G1 X171.752 Y141.278 E22.09627
G1 X172.532 Y141.855 E22.12854
G1 X173.187 Y142.424 E22.1574
G1 X173.505 Y142.721 E22.17187
G1 X177.919 Y147.135 E22.37949
G1 X178.405 Y147.682 E22.40383
G1 X178.843 Y148.238 E22.42737
G1 X179.247 Y148.815 E22.4508
G1 X179.607 Y149.487 E22.47615
G1 X179.9 Y150.125 E22.4995
G1 X180.157 Y150.781 E22.52294
G1 X180.346 Y151.497 E22.54757
G1 X180.485 Y152.192 E22.57114
G1 X180.583 Y152.889 E22.59455
