;FLAVOR:Marlin
;TIME:2728
;Filament used: 1.28503m
;Layer height: 0.2
;MINX:140.31
;MINY:130.2
;MINZ:0.2
;MAXX:160.618
;MAXY:173.048
;MAXZ:33.8
;Generated with Cura_SteamEngine 4.12.1
M140 S95
M105
M190 S95
M82 ;absolute extrusion mode
M201 X500.00 Y500.00 Z100.00 E5000.00 ;Setup machine max acceleration
M203 X500.00 Y500.00 Z10.00 E50.00 ;Setup machine max feedrate
M204 P500.00 R1000.00 T500.00 ;Setup Print/Retract/Travel acceleration
M205 X8.00 Y8.00 Z0.40 E5.00 ;Setup Jerk
M220 S100 ;Reset Feedrate
M221 S100 ;Reset Flowrate
M140 S95 ; set bed temp
M190 S95 ; wait for bed temp
G28; home all 
G29;
G92 E0 ;Reset Extruder
G1 Z2.0 F3000 ;Move Z Axis up
G1 X10.1 Y20 Z0.28 F5000.0 ;Move to start position
M104 S230 ; wait for extruder printing temp
M109 S230 ; wait for extruder printing temp
G1 X10.1 Y200.0 Z0.28 F1500.0 E15 ;Draw the first line
G1 X10.4 Y200.0 Z0.28 F5000.0 ;Move to side a little
G1 X10.4 Y20 Z0.28 F1500.0 E30 ;Draw the second line
G92 E0 ;Reset Extruder
G1 Z2.0 F3000 ;Move Z Axis up
G92 E0
G92 E0
;LAYER_COUNT:169
;LAYER:0
M107
G0 F6000 X142.496 Y147.981 Z0.2
;TYPE:SKIRT
G1 F1200 X143.093 Y147.404 E0.02761
G1 X143.239 Y147.277 E0.03405
G1 X143.86 Y146.789 E0.06032
G1 X144.527 Y146.367 E0.08657
G1 X145.234 Y146.015 E0.11284
G1 X145.973 Y145.736 E0.13911
G1 X146.736 Y145.533 E0.16537
G1 X147.426 Y145.418 E0.18864
G1 X147.642 Y145.392 E0.19587
G1 X148.43 Y145.337 E0.22215
G1 X149.219 Y145.363 E0.2484
G1 X149.935 Y145.456 E0.27242
G1 X150.093 Y145.484 E0.27776
G1 X150.863 Y145.661 E0.30403
G1 X151.86 Y146.019 E0.33927
G1 X151.9 Y146.036 E0.34071
G1 X152.928 Y146.416 E0.37716
G1 X153.338 Y146.58 E0.39185
G1 X153.607 Y146.697 E0.40161
G1 X154.314 Y147.048 E0.42786
G1 X154.982 Y147.469 E0.45412
G1 X155.631 Y147.979 E0.48158
G1 X157.458 Y149.577 E0.56231
G1 X158.026 Y150.126 E0.58858
G1 X158.534 Y150.73 E0.61483
G1 X158.98 Y151.382 E0.64111
G1 X159.273 Y151.907 E0.6611
G1 X159.312 Y151.983 E0.66394
G1 X159.511 Y152.316 E0.67685
G1 X159.881 Y153.013 E0.70309
G1 X160.18 Y153.744 E0.72936
G1 X160.403 Y154.502 E0.75564
G1 X160.548 Y155.278 E0.7819
G1 X160.618 Y156.322 E0.8167
G1 X160.618 Y162.072 E1.00794
G1 X160.578 Y162.861 E1.03422
G1 X160.459 Y163.641 E1.06046
G1 X160.261 Y164.406 E1.08675
G1 X159.987 Y165.146 E1.11299
G1 X159.508 Y166.083 E1.14799
G1 X159.311 Y166.412 E1.16075
G1 X159.273 Y166.486 E1.16351
G1 X158.879 Y167.171 E1.1898
G1 X158.418 Y167.812 E1.21606
G1 X157.895 Y168.403 E1.24231
G1 X157.458 Y168.816 E1.2623
G1 X155.631 Y170.414 E1.34303
G1 X155.011 Y170.903 E1.3693
G1 X154.345 Y171.327 E1.39556
G1 X153.629 Y171.686 E1.4222
G1 X153.36 Y171.804 E1.43197
G1 X152.923 Y171.98 E1.44764
G1 X151.906 Y172.355 E1.48369
G1 X151.871 Y172.37 E1.48495
G1 X151.133 Y172.65 E1.51121
G1 X150.371 Y172.855 E1.53745
G1 X149.378 Y173.002 E1.57084
G1 X149.137 Y173.022 E1.57888
G1 X148.348 Y173.048 E1.60514
G1 X147.56 Y172.993 E1.63141
G1 X146.782 Y172.859 E1.65767
G1 X145.921 Y172.613 E1.68745
G1 X145.689 Y172.532 E1.69563
G1 X144.958 Y172.234 E1.72188
G1 X144.26 Y171.864 E1.74816
G1 X143.603 Y171.425 E1.77444
G1 X142.995 Y170.923 E1.80066
G1 X142.44 Y170.361 E1.82693
G1 X141.944 Y169.746 E1.85321
G1 X141.392 Y168.866 E1.88776
G1 X141.266 Y168.632 E1.8966
G1 X140.928 Y167.919 E1.92285
G1 X140.663 Y167.175 E1.94912
G1 X140.466 Y166.364 E1.97687
G1 X140.444 Y166.246 E1.98087
G1 X140.339 Y165.463 E2.00714
G1 X140.312 Y164.893 E2.02612
G1 X140.31 Y164.69 E2.03287
G1 X140.31 Y160.535 E2.17107
G1 X140.35 Y159.746 E2.19735
G1 X140.435 Y159.191 E2.21602
G1 X140.361 Y158.749 E2.23093
G1 X140.31 Y157.858 E2.26061
G1 X140.311 Y153.671 E2.39987
G1 X140.314 Y153.457 E2.40699
G1 X140.365 Y152.669 E2.43325
G1 X140.495 Y151.89 E2.45952
G1 X140.768 Y150.941 E2.49236
G1 X140.867 Y150.664 E2.50215
G1 X141.17 Y149.935 E2.5284
G1 X141.545 Y149.24 E2.55467
G1 X141.989 Y148.587 E2.58093
G1 X142.496 Y147.981 E2.60721
G0 F6000 X142.844 Y148.195
G1 F1200 X143.355 Y147.706 E2.63074
G1 X143.501 Y147.579 E2.63717
G1 X144.107 Y147.105 E2.66276
G1 X144.759 Y146.696 E2.68836
G1 X145.449 Y146.358 E2.71392
G1 X146.171 Y146.092 E2.73951
G1 X146.917 Y145.904 E2.7651
G1 X147.474 Y145.815 E2.78386
G1 X147.69 Y145.789 E2.79109
G1 X148.457 Y145.737 E2.81666
G1 X149.226 Y145.765 E2.84226
G1 X149.865 Y145.85 E2.8637
G1 X150.023 Y145.878 E2.86903
G1 X150.773 Y146.051 E2.89463
G1 X151.699 Y146.385 E2.92738
G1 X151.746 Y146.406 E2.92909
G1 X152.79 Y146.791 E2.9661
G1 X153.178 Y146.947 E2.98001
G1 X153.447 Y147.064 E2.98976
G1 X154.136 Y147.407 E3.01536
G1 X154.785 Y147.82 E3.04095
G1 X155.368 Y148.28 E3.06565
G1 X157.195 Y149.878 E3.14638
G1 X157.747 Y150.414 E3.17197
G1 X158.24 Y151.004 E3.19754
G1 X158.669 Y151.642 E3.22311
G1 X158.917 Y152.089 E3.24011
G1 X158.966 Y152.185 E3.2437
G1 X159.167 Y152.521 E3.25672
G1 X159.528 Y153.201 E3.28233
G1 X159.815 Y153.914 E3.30789
G1 X160.027 Y154.654 E3.33349
G1 X160.162 Y155.411 E3.35907
G1 X160.218 Y156.322 E3.38943
G1 X160.218 Y162.072 E3.58067
G1 X160.178 Y162.84 E3.60625
G1 X160.059 Y163.6 E3.63184
G1 X159.861 Y164.343 E3.65741
G1 X159.587 Y165.062 E3.683
G1 X159.164 Y165.878 E3.71357
G1 X158.965 Y166.21 E3.72645
G1 X158.917 Y166.304 E3.72996
G1 X158.532 Y166.971 E3.75557
G1 X158.081 Y167.593 E3.78113
G1 X157.567 Y168.166 E3.80673
G1 X157.195 Y168.515 E3.82369
G1 X155.368 Y170.113 E3.90442
G1 X154.763 Y170.589 E3.93003
G1 X154.113 Y170.999 E3.95559
G1 X153.469 Y171.32 E3.97952
G1 X153.2 Y171.438 E3.98929
G1 X152.785 Y171.605 E4.00417
G1 X151.758 Y171.983 E4.04057
G1 X151.711 Y172.004 E4.04228
G1 X150.991 Y172.276 E4.06788
G1 X150.248 Y172.472 E4.09344
G1 X149.345 Y172.604 E4.12379
G1 X149.104 Y172.624 E4.13183
G1 X148.335 Y172.647 E4.15742
G1 X147.568 Y172.591 E4.183
G1 X146.811 Y172.456 E4.20858
G1 X146.053 Y172.235 E4.23484
G1 X145.821 Y172.154 E4.24301
G1 X145.109 Y171.863 E4.26859
G1 X144.431 Y171.5 E4.29417
G1 X143.794 Y171.069 E4.31975
G1 X143.206 Y170.573 E4.34534
G1 X142.672 Y170.019 E4.37093
G1 X142.199 Y169.413 E4.3965
G1 X141.745 Y168.676 E4.42529
G1 X141.619 Y168.442 E4.43413
G1 X141.29 Y167.747 E4.4597
G1 X141.035 Y167.021 E4.4853
G1 X140.859 Y166.29 E4.5103
G1 X140.837 Y166.172 E4.5143
G1 X140.736 Y165.41 E4.53986
G1 X140.712 Y164.889 E4.55721
G1 X140.71 Y164.686 E4.56396
G1 X140.71 Y160.535 E4.70202
G1 X140.75 Y159.767 E4.7276
G1 X140.837 Y159.21 E4.74635
G1 X140.738 Y158.505 E4.77003
G1 X140.71 Y157.858 E4.79157
G1 X140.711 Y153.676 E4.93067
G1 X140.714 Y153.462 E4.93778
G1 X140.764 Y152.695 E4.96335
G1 X140.895 Y151.937 E4.98893
G1 X141.145 Y151.076 E5.01875
G1 X141.244 Y150.799 E5.02854
G1 X141.54 Y150.089 E5.05412
G1 X141.908 Y149.413 E5.07972
G1 X142.344 Y148.78 E5.10529
G1 X142.844 Y148.195 E5.13088
G0 F6000 X143.191 Y148.411
G1 F1200 X143.618 Y148.008 E5.15041
G1 X143.764 Y147.881 E5.15685
G1 X144.354 Y147.42 E5.18175
G1 X144.989 Y147.026 E5.2066
G1 X145.663 Y146.701 E5.23149
G1 X146.368 Y146.451 E5.25637
G1 X147.096 Y146.277 E5.28127
G1 X147.521 Y146.212 E5.29557
G1 X147.737 Y146.186 E5.3028
G1 X148.484 Y146.137 E5.3277
G1 X149.231 Y146.167 E5.35257
G1 X149.795 Y146.243 E5.37149
G1 X149.953 Y146.271 E5.37683
G1 X150.682 Y146.441 E5.40173
G1 X151.539 Y146.751 E5.43204
G1 X151.604 Y146.78 E5.43441
G1 X152.651 Y147.166 E5.47152
G1 X153.019 Y147.314 E5.48471
G1 X153.288 Y147.431 E5.49447
G1 X153.957 Y147.765 E5.51934
G1 X154.587 Y148.17 E5.54425
G1 X155.105 Y148.581 E5.56624
G1 X156.932 Y150.179 E5.64698
G1 X157.467 Y150.701 E5.67184
G1 X157.945 Y151.277 E5.69673
G1 X158.358 Y151.901 E5.72162
G1 X158.56 Y152.27 E5.73561
G1 X158.615 Y152.377 E5.73961
G1 X158.824 Y152.727 E5.75317
G1 X159.174 Y153.388 E5.77805
G1 X159.45 Y154.083 E5.80292
G1 X159.651 Y154.804 E5.82782
G1 X159.774 Y155.542 E5.8527
G1 X159.818 Y156.322 E5.87868
G1 X159.818 Y162.072 E6.06993
G1 X159.778 Y162.819 E6.09481
G1 X159.659 Y163.557 E6.11967
G1 X159.461 Y164.279 E6.14457
G1 X159.188 Y164.975 E6.16944
G1 X158.821 Y165.672 E6.19564
G1 X158.613 Y166.018 E6.20907
G1 X158.56 Y166.123 E6.21298
G1 X158.185 Y166.77 E6.23785
G1 X157.744 Y167.374 E6.26273
G1 X157.24 Y167.927 E6.28761
G1 X156.932 Y168.214 E6.30161
G1 X155.105 Y169.812 E6.38234
G1 X154.516 Y170.274 E6.40724
G1 X153.881 Y170.67 E6.43213
G1 X153.308 Y170.953 E6.45339
G1 X153.039 Y171.071 E6.46316
G1 X152.647 Y171.229 E6.47722
G1 X151.605 Y171.613 E6.51415
G1 X151.55 Y171.637 E6.51615
G1 X150.85 Y171.901 E6.54103
G1 X150.126 Y172.089 E6.56591
G1 X149.312 Y172.205 E6.59326
G1 X149.071 Y172.225 E6.6013
G1 X148.323 Y172.247 E6.62619
G1 X147.577 Y172.189 E6.65108
G1 X146.842 Y172.052 E6.67594
G1 X146.185 Y171.858 E6.69873
G1 X145.953 Y171.777 E6.7069
G1 X145.261 Y171.493 E6.73178
G1 X144.603 Y171.137 E6.75666
G1 X143.987 Y170.712 E6.78155
G1 X143.419 Y170.225 E6.80644
G1 X142.907 Y169.679 E6.83133
G1 X142.457 Y169.082 E6.8562
G1 X142.097 Y168.487 E6.87933
G1 X141.971 Y168.253 E6.88817
G1 X141.652 Y167.576 E6.91306
G1 X141.407 Y166.869 E6.93795
G1 X141.253 Y166.217 E6.96023
G1 X141.231 Y166.099 E6.96422
G1 X141.133 Y165.357 E6.98912
G1 X141.112 Y164.885 E7.00483
G1 X141.11 Y164.682 E7.01158
G1 X141.11 Y160.535 E7.14951
G1 X141.15 Y159.788 E7.17439
G1 X141.246 Y159.191 E7.1945
G1 X141.205 Y159.008 E7.20074
G1 X141.122 Y158.265 E7.22561
G1 X141.11 Y157.858 E7.23915
G1 X141.111 Y153.682 E7.37804
G1 X141.114 Y153.468 E7.38516
G1 X141.164 Y152.722 E7.41003
G1 X141.294 Y151.985 E7.43492
G1 X141.521 Y151.21 E7.46178
G1 X141.62 Y150.933 E7.47157
G1 X141.909 Y150.243 E7.49645
G1 X142.27 Y149.588 E7.52132
G1 X142.699 Y148.975 E7.54621
G1 X143.191 Y148.411 E7.5711
G0 F6000 X143.537 Y148.63
G1 F1200 X143.88 Y148.309 E7.58672
G1 X144.026 Y148.182 E7.59316
G1 X144.6 Y147.737 E7.61732
G1 X145.219 Y147.356 E7.64149
G1 X145.876 Y147.047 E7.66564
G1 X146.563 Y146.811 E7.6898
G1 X147.569 Y146.609 E7.72393
G1 X147.785 Y146.583 E7.73116
G1 X148.51 Y146.536 E7.75533
G1 X149.236 Y146.569 E7.7795
G1 X149.726 Y146.637 E7.79595
G1 X149.884 Y146.665 E7.80129
G1 X150.591 Y146.831 E7.82545
G1 X151.379 Y147.118 E7.85334
G1 X151.442 Y147.146 E7.85563
G1 X152.513 Y147.541 E7.8936
G1 X152.859 Y147.681 E7.90601
G1 X153.128 Y147.798 E7.91577
G1 X153.778 Y148.124 E7.93996
G1 X154.387 Y148.519 E7.9641
G1 X154.841 Y148.882 E7.98343
G1 X156.668 Y150.48 E8.06416
G1 X157.188 Y150.988 E8.08834
G1 X157.648 Y151.549 E8.11247
G1 X158.204 Y152.452 E8.14774
G1 X158.263 Y152.568 E8.15207
G1 X158.481 Y152.932 E8.16618
G1 X158.819 Y153.575 E8.19034
G1 X159.085 Y154.251 E8.2145
G1 X159.274 Y154.952 E8.23865
G1 X159.386 Y155.67 E8.26282
G1 X159.418 Y156.322 E8.28453
G1 X159.418 Y162.072 E8.47578
G1 X159.378 Y162.797 E8.49993
G1 X159.259 Y163.514 E8.5241
G1 X159.061 Y164.213 E8.54827
G1 X158.788 Y164.886 E8.57242
G1 X158.478 Y165.466 E8.5943
G1 X158.265 Y165.821 E8.60807
G1 X158.204 Y165.941 E8.61254
G1 X157.839 Y166.569 E8.6367
G1 X157.407 Y167.153 E8.66086
G1 X156.668 Y167.913 E8.69612
G1 X154.841 Y169.511 E8.77685
G1 X154.269 Y169.958 E8.801
G1 X153.651 Y170.34 E8.82516
G1 X153.147 Y170.587 E8.84383
G1 X152.878 Y170.705 E8.8536
G1 X152.508 Y170.854 E8.86687
G1 X151.456 Y171.241 E8.90415
G1 X151.389 Y171.271 E8.90659
G1 X150.709 Y171.526 E8.93074
G1 X150.005 Y171.705 E8.9549
G1 X149.279 Y171.806 E8.97928
G1 X149.038 Y171.826 E8.98733
G1 X148.312 Y171.847 E9.01148
G1 X147.588 Y171.787 E9.03565
G1 X146.875 Y171.648 E9.05981
G1 X146.316 Y171.48 E9.07922
G1 X146.084 Y171.399 E9.08739
G1 X145.413 Y171.122 E9.11154
G1 X144.776 Y170.773 E9.1357
G1 X144.181 Y170.357 E9.15984
G1 X143.636 Y169.877 E9.184
G1 X143.146 Y169.34 E9.20818
G1 X142.719 Y168.753 E9.23232
G1 X142.449 Y168.297 E9.24995
G1 X142.323 Y168.063 E9.25879
G1 X142.014 Y167.406 E9.28293
G1 X141.78 Y166.718 E9.3071
G1 X141.646 Y166.144 E9.32671
G1 X141.624 Y166.026 E9.3307
G1 X141.53 Y165.305 E9.35488
G1 X141.512 Y164.881 E9.369
G1 X141.51 Y164.678 E9.37575
G1 X141.51 Y160.535 E9.51355
G1 X141.55 Y159.81 E9.5377
G1 X141.654 Y159.184 E9.55881
G1 X141.571 Y158.755 E9.57334
G1 X141.51 Y157.858 E9.60324
G1 X141.511 Y153.687 E9.74197
G1 X141.514 Y153.473 E9.74909
G1 X141.564 Y152.749 E9.77323
G1 X141.693 Y152.034 E9.79739
G1 X141.898 Y151.345 E9.8213
G1 X141.997 Y151.068 E9.83108
G1 X142.279 Y150.398 E9.85526
G1 X142.632 Y149.764 E9.8794
G1 X143.053 Y149.172 E9.90356
G1 X143.537 Y148.63 E9.92773
G0 F6000 X143.882 Y148.851
G1 F1200 X144.143 Y148.611 E9.93952
G1 X144.289 Y148.484 E9.94596
G1 X144.845 Y148.053 E9.96935
G1 X145.447 Y147.688 E9.99277
G1 X146.087 Y147.393 E10.01621
G1 X146.755 Y147.173 E10.0396
G1 X147.617 Y147.006 E10.0688
G1 X147.833 Y146.98 E10.07604
G1 X148.536 Y146.936 E10.09947
G1 X149.239 Y146.972 E10.12288
G1 X149.656 Y147.031 E10.13689
G1 X149.814 Y147.059 E10.14222
G1 X150.499 Y147.221 E10.16564
G1 X151.218 Y147.484 E10.1911
G1 X151.309 Y147.524 E10.19441
G1 X152.374 Y147.917 E10.23216
G1 X152.7 Y148.048 E10.24385
G1 X152.969 Y148.165 E10.2536
G1 X153.597 Y148.481 E10.27699
G1 X154.186 Y148.868 E10.30043
G1 X154.578 Y149.183 E10.31715
G1 X156.405 Y150.781 E10.39788
G1 X156.908 Y151.274 E10.42131
G1 X157.351 Y151.821 E10.44472
G1 X157.847 Y152.633 E10.47637
G1 X157.911 Y152.76 E10.4811
G1 X158.138 Y153.138 E10.49576
G1 X158.465 Y153.761 E10.51916
G1 X158.718 Y154.418 E10.54258
G1 X158.896 Y155.099 E10.56599
G1 X158.996 Y155.796 E10.58941
G1 X159.018 Y156.322 E10.60692
G1 X159.018 Y162.072 E10.79817
G1 X158.978 Y162.775 E10.82159
G1 X158.859 Y163.469 E10.84501
G1 X158.661 Y164.144 E10.8684
G1 X158.389 Y164.793 E10.89181
G1 X158.135 Y165.26 E10.90949
G1 X157.914 Y165.629 E10.9238
G1 X157.847 Y165.76 E10.92869
G1 X157.493 Y166.368 E10.95209
G1 X157.071 Y166.932 E10.97552
G1 X156.405 Y167.612 E11.00718
G1 X154.578 Y169.21 E11.08791
G1 X154.022 Y169.642 E11.11132
G1 X153.422 Y170.009 E11.13472
G1 X152.987 Y170.221 E11.15081
G1 X152.718 Y170.339 E11.16058
G1 X152.37 Y170.479 E11.17306
G1 X151.303 Y170.872 E11.21088
G1 X151.228 Y170.905 E11.2136
G1 X150.568 Y171.151 E11.23703
G1 X149.885 Y171.321 E11.26044
G1 X149.246 Y171.408 E11.28189
G1 X149.005 Y171.428 E11.28993
G1 X148.301 Y171.446 E11.31336
G1 X147.6 Y171.384 E11.33676
G1 X146.91 Y171.244 E11.36018
G1 X146.448 Y171.102 E11.37625
G1 X146.216 Y171.021 E11.38443
G1 X145.566 Y170.752 E11.40782
G1 X144.95 Y170.411 E11.43124
G1 X144.377 Y170.002 E11.45466
G1 X143.854 Y169.53 E11.47809
G1 X143.388 Y169.003 E11.50149
G1 X142.985 Y168.426 E11.5249
G1 X142.801 Y168.107 E11.53714
G1 X142.675 Y167.873 E11.54598
G1 X142.377 Y167.236 E11.56937
G1 X142.153 Y166.568 E11.59281
G1 X142.039 Y166.07 E11.6098
G1 X142.017 Y165.952 E11.61379
G1 X141.927 Y165.254 E11.6372
G1 X141.912 Y164.877 E11.64975
G1 X141.91 Y164.674 E11.6565
G1 X141.91 Y160.535 E11.79416
G1 X141.95 Y159.832 E11.81758
G1 X142.057 Y159.202 E11.83884
G1 X141.944 Y158.507 E11.86226
G1 X141.91 Y157.858 E11.88387
G1 X141.911 Y153.693 E12.0224
G1 X141.914 Y153.479 E12.02952
G1 X141.963 Y152.777 E12.05293
G1 X142.093 Y152.085 E12.07634
G1 X142.275 Y151.479 E12.09739
G1 X142.374 Y151.202 E12.10717
G1 X142.648 Y150.554 E12.13057
G1 X142.994 Y149.941 E12.15399
G1 X143.407 Y149.371 E12.1774
G1 X143.882 Y148.851 E12.20082
G0 F6000 X143.76 Y149.572
G1 F1200 X144.405 Y148.913 E12.23149
G1 X144.551 Y148.786 E12.23793
G1 X145.09 Y148.37 E12.26057
G1 X145.675 Y148.02 E12.28325
G1 X146.296 Y147.741 E12.30589
G1 X146.945 Y147.537 E12.32852
G1 X147.665 Y147.404 E12.35287
G1 X147.881 Y147.378 E12.36011
G1 X148.56 Y147.336 E12.38273
G1 X149.24 Y147.374 E12.40538
G1 X149.586 Y147.425 E12.41702
G1 X149.744 Y147.453 E12.42235
G1 X150.406 Y147.611 E12.44499
G1 X151.058 Y147.851 E12.4681
G1 X151.147 Y147.89 E12.47133
G1 X152.236 Y148.292 E12.50994
G1 X152.54 Y148.414 E12.52083
G1 X152.809 Y148.531 E12.53059
G1 X153.417 Y148.839 E12.55326
G1 X153.984 Y149.216 E12.57591
G1 X154.314 Y149.484 E12.59005
G1 X156.141 Y151.082 E12.67078
G1 X156.627 Y151.56 E12.69345
G1 X157.053 Y152.091 E12.71609
G1 X157.491 Y152.815 E12.74424
G1 X157.56 Y152.95 E12.74928
G1 X157.795 Y153.343 E12.76451
G1 X158.109 Y153.947 E12.78715
G1 X158.351 Y154.583 E12.80978
G1 X158.517 Y155.244 E12.83245
G1 X158.604 Y155.919 E12.85509
G1 X158.618 Y156.322 E12.8685
G1 X158.618 Y162.072 E13.05974
