;FLAVOR:Marlin
;TIME:1829
;Filament used: 1.54407m
;Layer height: 0.2
;MINX:121.147
;MINY:120.836
;MINZ:0.24
;MAXX:179.164
;MAXY:179.164
;MAXZ:4.34
;Generated with Cura_SteamEngine 4.12.1
M140 S95
M105
M190 S95
M82 ;absolute extrusion mode
M201 X500.00 Y500.00 Z100.00 E5000.00 ;Setup machine max acceleration
M203 X500.00 Y500.00 Z10.00 E50.00 ;Setup machine max feedrate
M204 P500.00 R1000.00 T500.00 ;Setup Print/Retract/Travel acceleration
M205 X8.00 Y8.00 Z0.40 E5.00 ;Setup Jerk
M220 S100 ;Reset Feedrate
M221 S100 ;Reset Flowrate
M140 S95 ; set bed temp
M190 S95 ; wait for bed temp
G28; home all 
G29;
G92 E0 ;Reset Extruder
G1 Z2.0 F3000 ;Move Z Axis up
G1 X10.1 Y20 Z0.28 F5000.0 ;Move to start position
M104 S230 ; wait for extruder printing temp
M109 S230 ; wait for extruder printing temp
G1 X10.1 Y200.0 Z0.28 F1500.0 E15 ;Draw the first line
G1 X10.4 Y200.0 Z0.28 F5000.0 ;Move to side a little
G1 X10.4 Y20 Z0.28 F1500.0 E30 ;Draw the second line
G92 E0 ;Reset Extruder
G1 Z2.0 F3000 ;Move Z Axis up
G92 E0
G92 E0
G1 F2700 E-5
;LAYER_COUNT:16
;LAYER:-6
M107
G0 F9000 X128.411 Y128.34 Z0.24
;TYPE:SUPPORT-INTERFACE
G1 F2700 E0
G1 F1125 X128.517 Y128.236 E0.01185
G1 X129.099 Y127.695 E0.07528
G1 X129.802 Y127.078 E0.14995
G1 X130.578 Y126.446 E0.22984
G1 X130.69 Y126.36 E0.24111
G1 X131.325 Y125.909 E0.30328
G1 X132.175 Y125.342 E0.38484
G1 X132.981 Y124.847 E0.46034
G1 X133.122 Y124.766 E0.47332
G1 X133.792 Y124.411 E0.53385
G1 X134.607 Y124.009 E0.60639
G1 X134.726 Y123.953 E0.61689
G1 X135.582 Y123.569 E0.69178
G1 X135.71 Y123.517 E0.70281
G1 X136.453 Y123.24 E0.7661
G1 X137.317 Y122.947 E0.83893
G1 X137.405 Y122.919 E0.8463
G1 X138.309 Y122.649 E0.92161
G1 X138.484 Y122.603 E0.93606
G1 X139.142 Y122.452 E0.98995
G1 X139.263 Y122.426 E0.99983
G1 X140.19 Y122.242 E1.07527
G1 X141.154 Y122.087 E1.15321
G1 X141.282 Y122.07 E1.16351
G1 X142.123 Y121.992 E1.23093
G1 X142.977 Y121.936 E1.29925
G1 X143.102 Y121.93 E1.30924
G1 X144.047 Y121.9 E1.38471
G1 X155.953 Y121.9 E2.3351
G1 X156.898 Y121.93 E2.41057
G1 X157.023 Y121.935 E2.42056
G1 X157.856 Y121.99 E2.4872
G1 X157.988 Y122.001 E2.49777
G1 X158.896 Y122.094 E2.57063
G1 X159.086 Y122.119 E2.58593
G1 X159.855 Y122.25 E2.6482
G1 X160.732 Y122.425 E2.71958
G1 X160.832 Y122.447 E2.72775
G1 X161.771 Y122.67 E2.80479
G1 X161.902 Y122.707 E2.81566
G1 X162.641 Y122.933 E2.87735
G1 X163.577 Y123.251 E2.95626
G1 X164.482 Y123.596 E3.03357
G1 X164.63 Y123.658 E3.04638
G1 X165.371 Y123.998 E3.11146
G1 X166.156 Y124.385 E3.18132
G1 X167.073 Y124.877 E3.26439
G1 X167.216 Y124.961 E3.27763
G1 X167.915 Y125.4 E3.34352
G1 X168.625 Y125.876 E3.41175
G1 X168.733 Y125.951 E3.42225
G1 X169.473 Y126.485 E3.49509
G1 X169.598 Y126.581 E3.50767
G1 X170.198 Y127.078 E3.56986
G1 X170.909 Y127.702 E3.64538
G1 X171.656 Y128.407 E3.72737
G1 X171.764 Y128.517 E3.73967
G1 X172.305 Y129.099 E3.8031
G1 X172.922 Y129.802 E3.87777
G1 X173.554 Y130.578 E3.95766
G1 X173.64 Y130.69 E3.96893
G1 X174.091 Y131.325 E4.0311
G1 X174.658 Y132.175 E4.11266
G1 X175.153 Y132.981 E4.18816
G1 X175.234 Y133.122 E4.20114
G1 X175.589 Y133.792 E4.26167
G1 X175.988 Y134.6 E4.3336
G1 X176.055 Y134.743 E4.34621
G1 X176.431 Y135.582 E4.4196
G1 X176.483 Y135.71 E4.43063
G1 X176.756 Y136.441 E4.49292
G1 X177.05 Y137.307 E4.56592
G1 X177.081 Y137.405 E4.57412
G1 X177.351 Y138.309 E4.64943
G1 X177.394 Y138.472 E4.66289
G1 X177.546 Y139.134 E4.71711
G1 X177.574 Y139.264 E4.72773
G1 X177.737 Y140.08 E4.79415
G1 X177.756 Y140.182 E4.80243
G1 X177.913 Y141.151 E4.88079
G1 X177.93 Y141.282 E4.89133
G1 X178.008 Y142.118 E4.95836
G1 X178.063 Y142.96 E5.02571
G1 X178.071 Y143.116 E5.03818
G1 X178.1 Y144.038 E5.11182
G1 X178.1 Y155.953 E6.06292
G1 X178.071 Y156.878 E6.1368
G1 X178.065 Y157.023 E6.14838
G1 X178.011 Y157.839 E6.21366
G1 X178 Y157.98 E6.22495
G1 X177.906 Y158.896 E6.29845
G1 X177.881 Y159.086 E6.31375
G1 X177.753 Y159.843 E6.37503
G1 X177.555 Y160.825 E6.455
G1 X177.335 Y161.75 E6.5309
G1 X177.293 Y161.902 E6.54348
G1 X177.07 Y162.632 E6.60441
G1 X176.749 Y163.577 E6.68408
G1 X176.409 Y164.47 E6.76036
G1 X176.342 Y164.63 E6.7742
G1 X176.002 Y165.371 E6.83928
G1 X175.579 Y166.226 E6.91543
G1 X175.123 Y167.073 E6.99221
G1 X175.039 Y167.216 E7.00545
G1 X174.603 Y167.909 E7.07081
G1 X174.14 Y168.602 E7.13734
G1 X174.057 Y168.722 E7.14898
G1 X173.515 Y169.473 E7.22291
G1 X173.42 Y169.596 E7.23532
G1 X172.922 Y170.198 E7.29769
G1 X172.246 Y170.966 E7.37936
G1 X171.595 Y171.654 E7.45496
G1 X171.483 Y171.764 E7.4675
G1 X170.901 Y172.305 E7.53092
G1 X170.198 Y172.922 E7.60559
G1 X169.422 Y173.554 E7.68548
G1 X169.31 Y173.64 E7.69675
G1 X168.675 Y174.091 E7.75892
G1 X167.825 Y174.658 E7.84048
G1 X167.019 Y175.153 E7.91599
G1 X166.878 Y175.234 E7.92897
G1 X166.208 Y175.589 E7.98949
G1 X165.397 Y175.989 E8.06168
G1 X165.274 Y176.047 E8.07253
G1 X164.418 Y176.431 E8.14742
G1 X164.29 Y176.483 E8.15845
G1 X163.55 Y176.759 E8.22149
G1 X162.686 Y177.052 E8.29432
G1 X162.595 Y177.081 E8.30194
G1 X161.691 Y177.351 E8.37725
G1 X161.516 Y177.397 E8.3917
G1 X160.858 Y177.548 E8.44559
G1 X160.737 Y177.574 E8.45547
G1 X159.81 Y177.758 E8.53091
G1 X158.846 Y177.913 E8.60885
G1 X158.718 Y177.93 E8.61915
G1 X157.877 Y178.008 E8.68658
G1 X157.023 Y178.064 E8.75489
G1 X156.898 Y178.07 E8.76488
G1 X155.953 Y178.1 E8.84035
G1 X144.047 Y178.1 E9.79074
G1 X143.102 Y178.07 E9.86621
G1 X142.977 Y178.065 E9.8762
G1 X142.144 Y178.01 E9.94284
G1 X142.012 Y177.999 E9.95341
G1 X141.104 Y177.906 E10.02627
G1 X140.914 Y177.881 E10.04157
G1 X140.145 Y177.75 E10.10384
G1 X139.268 Y177.575 E10.17522
G1 X139.168 Y177.553 E10.1834
G1 X138.229 Y177.33 E10.26044
G1 X138.098 Y177.293 E10.2713
G1 X137.35 Y177.064 E10.33375
G1 X136.423 Y176.749 E10.4119
G1 X135.518 Y176.404 E10.48921
G1 X135.371 Y176.342 E10.50195
G1 X134.629 Y176.002 E10.5671
G1 X133.836 Y175.611 E10.63768
G1 X132.91 Y175.113 E10.7216
G1 X132.784 Y175.039 E10.73327
G1 X132.085 Y174.6 E10.79916
G1 X131.375 Y174.124 E10.86739
G1 X131.267 Y174.049 E10.87789
G1 X130.527 Y173.515 E10.95073
G1 X130.402 Y173.419 E10.96331
G1 X129.802 Y172.922 E11.0255
G1 X129.091 Y172.298 E11.10102
G1 X128.34 Y171.589 E11.18346
G1 X128.236 Y171.483 E11.19531
G1 X127.695 Y170.901 E11.25874
G1 X127.078 Y170.198 E11.33341
G1 X126.446 Y169.422 E11.4133
G1 X126.36 Y169.31 E11.42457
G1 X125.899 Y168.661 E11.48811
G1 X125.389 Y167.896 E11.5615
G1 X125.335 Y167.812 E11.56948
G1 X124.847 Y167.019 E11.6438
G1 X124.766 Y166.878 E11.65678
G1 X124.411 Y166.208 E11.71731
G1 X124.009 Y165.393 E11.78985
G1 X123.942 Y165.251 E11.80238
G1 X123.569 Y164.418 E11.87524
G1 X123.517 Y164.29 E11.88627
G1 X123.24 Y163.547 E11.94956
G1 X122.948 Y162.685 E12.02221
G1 X122.905 Y162.55 E12.03352
G1 X122.648 Y161.687 E12.1054
G1 X122.603 Y161.516 E12.11951
G1 X122.452 Y160.858 E12.1734
G1 X122.425 Y160.732 E12.18369
G1 X122.24 Y159.8 E12.25954
G1 X122.083 Y158.825 E12.33837
G1 X122.07 Y158.719 E12.34689
G1 X121.998 Y157.96 E12.40775
G1 X121.935 Y157.023 E12.48272
G1 X121.9 Y155.962 E12.56746
G1 X121.9 Y144.045 E13.51872
G1 X121.929 Y143.123 E13.59236
G1 X121.936 Y142.96 E13.60538
G1 X122 Y142.02 E13.68059
G1 X122.094 Y141.104 E13.75409
G1 X122.119 Y140.914 E13.76939
G1 X122.246 Y140.163 E13.83019
G1 X122.422 Y139.282 E13.9019
G1 X122.445 Y139.175 E13.91064
G1 X122.67 Y138.229 E13.98826
G1 X122.707 Y138.098 E13.99913
G1 X122.933 Y137.359 E14.06081
G1 X123.251 Y136.423 E14.13972
G1 X123.591 Y135.53 E14.216
G1 X123.658 Y135.37 E14.22985
G1 X123.998 Y134.629 E14.29492
G1 X124.421 Y133.774 E14.37107
G1 X124.886 Y132.911 E14.44932
G1 X124.961 Y132.784 E14.4611
G1 X125.334 Y132.189 E14.51715
G1 X125.412 Y132.068 E14.52864
G1 X125.876 Y131.375 E14.59522
G1 X125.951 Y131.267 E14.60571
G1 X126.485 Y130.527 E14.67856
G1 X126.581 Y130.402 E14.69114
G1 X127.078 Y129.802 E14.75333
G1 X127.702 Y129.091 E14.82884
G1 X128.411 Y128.34 E14.91129
G0 F9000 X128 Y128.775
G1 F1125 X128 Y171.229 E18.30015
G0 F9000 X129.6 Y172.744
G1 F1125 X129.6 Y127.255 E21.93128
G0 F9000 X131.2 Y125.997
G1 F1125 X131.2 Y174 E25.76308
G0 F9000 X132.8 Y175.048
G1 F1125 X132.8 Y124.958 E29.76148
G0 F9000 X134.4 Y124.111
G1 F1125 X134.4 Y175.889 E33.89463
G0 F9000 X136 Y176.587
G1 F1125 X136 Y123.408 E38.13961
G0 F9000 X137.6 Y122.86
G1 F1125 X137.6 Y177.14 E42.47247
G0 F9000 X139.2 Y177.56
G1 F1125 X139.2 Y122.439 E46.87247
G0 F9000 X140.8 Y122.143
G1 F1125 X140.8 Y177.861 E51.32012
G0 F9000 X142.4 Y178.026
G1 F1125 X142.4 Y121.973 E55.79451
G0 F9000 X144 Y121.901
G1 F1125 X144 Y178.098 E60.2804
G0 F9000 X145.6 Y178.1
G1 F1125 X145.6 Y121.9 E64.76653
G0 F9000 X147.2 Y121.9
G1 F1125 X147.2 Y178.1 E69.25265
G0 F9000 X148.8 Y178.1
G1 F1125 X148.8 Y121.9 E73.73878
G0 F9000 X150.4 Y121.9
G1 F1125 X150.4 Y178.1 E78.22491
G0 F9000 X152 Y178.1
G1 F1125 X152 Y121.9 E82.71103
G0 F9000 X153.6 Y121.9
G1 F1125 X153.6 Y178.1 E87.19716
G0 F9000 X155.2 Y178.1
G1 F1125 X155.2 Y121.9 E91.68329
G0 F9000 X156.8 Y121.927
G1 F1125 X156.8 Y178.074 E96.16518
G0 F9000 X158.4 Y177.96
G1 F1125 X158.4 Y122.044 E100.62864
G0 F9000 X160 Y122.279
G1 F1125 X160 Y177.721 E105.05426
G0 F9000 X161.6 Y177.375
G1 F1125 X161.6 Y122.63 E109.42424
G0 F9000 X163.2 Y123.123
G1 F1125 X163.2 Y176.878 E113.7152
G0 F9000 X164.8 Y176.26
G1 F1125 X164.8 Y123.737 E117.90781
G0 F9000 X166.4 Y124.516
G1 F1125 X166.4 Y175.488 E121.97662
G0 F9000 X168 Y174.542
G1 F1125 X168 Y125.457 E125.8948
G0 F9000 X169.6 Y126.583
G1 F1125 X169.6 Y173.41 E129.63273
G0 F9000 X171.2 Y172.028
G1 F1125 X171.2 Y127.977 E133.14907
G0 F9000 X172.8 Y129.663
G1 F1125 X172.8 Y170.337 E136.39584
G0 F9000 X174.4 Y168.213
G1 F1125 X174.4 Y131.789 E139.30337
G0 F9000 X176 Y134.626
G1 F1125 X176 Y165.376 E141.75796
G1 F2700 E136.75796
G0 F9000 X177.015 Y165.719
G0 X177.773 Y163.874
G0 X178.106 Y162.824
G0 X178.591 Y161.065
G0 X177.6 Y160.602
G1 F2700 E141.75796
G1 F1125 X177.6 Y139.395 E143.4508
G1 F2700 E138.4508
G0 F9000 X178.617 Y139.051
G0 X178.063 Y136.979
G0 X177.407 Y135.157
G0 X176.065 Y132.432
G0 X174.385 Y129.913
G0 X173.326 Y128.641
G0 X171.704 Y126.986
G0 X170.113 Y125.635
G0 X167.602 Y123.953
G0 X164.87 Y122.605
G0 X162.029 Y121.638
G0 X159.025 Y121.037
G0 X155.969 Y120.836
G0 X142.92 Y120.873
G0 X141.005 Y121.032
G0 X138.028 Y121.622
G0 X135.157 Y122.593
G0 X132.432 Y123.935
G0 X129.913 Y125.615
G0 X128.641 Y126.674
G0 X127.301 Y127.987
G0 X125.635 Y129.887
G0 X126.4 Y130.644
G1 F2700 E143.4508
G1 F1125 X126.4 Y169.362 E146.54144
G0 F9000 X124.8 Y166.937
G1 F1125 X124.8 Y133.07 E149.24485
G0 F9000 X123.2 Y136.573
M104 S230
G1 F1125 X123.2 Y163.428 E151.38853
G1 F2700 E146.38853
G0 F300 X123.2 Y163.428 Z0.54
G0 F9000 X122.239 Y163.909
G0 X123.051 Y165.858
G0 X123.551 Y166.827
G0 X124.428 Y168.369
G0 X125.335 Y167.811
;TIME_ELAPSED:112.359494
;LAYER:-5
;TYPE:SUPPORT
G1 F2700 E151.38853
G1 F1125 X125.389 Y167.894 E151.39841
G1 X125.898 Y168.66 E151.49018
G1 X126.359 Y169.309 E151.56961
G1 X126.446 Y169.421 E151.58376
G1 X127.077 Y170.197 E151.68356
G1 X127.694 Y170.9 E151.77689
G1 X128.235 Y171.482 E151.85617
G1 X128.339 Y171.587 E151.87092
G1 X129.091 Y172.297 E151.97411
G1 X129.802 Y172.921 E152.06851
G1 X130.401 Y173.417 E152.14611
G1 X130.526 Y173.514 E152.16189
G1 X131.267 Y174.048 E152.25303
G1 X131.374 Y174.123 E152.26607
G1 X132.085 Y174.599 E152.35144
G1 X132.32 Y174.746 E152.3791
G1 X125.255 Y167.681 E153.37605
G1 X124.846 Y167.018 E153.45378
G1 X124.766 Y166.877 E153.46995
G1 X124.411 Y166.206 E153.5457
G1 X124.009 Y165.392 E153.63628
G1 X123.942 Y165.25 E153.65195
G1 X123.701 Y164.714 E153.71059
G1 X135.292 Y176.305 E155.34621
G1 X135.371 Y176.341 E155.35487
G1 X135.518 Y176.403 E155.37079
G1 X136.423 Y176.748 E155.46743
G1 X137.349 Y177.063 E155.56502
G1 X137.516 Y177.114 E155.58245
G1 X122.885 Y162.483 E157.64704
G1 X122.648 Y161.686 E157.73001
G1 X122.603 Y161.515 E157.74765
G1 X122.451 Y160.857 E157.81503
G1 X122.424 Y160.731 E157.82789
G1 X122.394 Y160.578 E157.84345
G1 X139.42 Y177.604 E160.246
G1 X140.145 Y177.748 E160.31975
G1 X140.914 Y177.88 E160.39761
G1 X141.104 Y177.905 E160.41673
G1 X141.139 Y177.908 E160.42024
G1 X122.087 Y158.857 E163.10861
G1 X122.082 Y158.823 E163.11204
G1 X122.069 Y158.717 E163.12269
G1 X121.998 Y157.959 E163.19866
G1 X121.954 Y157.31 E163.26356
G1 X142.689 Y178.044 E166.18943
G1 X142.976 Y178.063 E166.21812
G1 X143.101 Y178.069 E166.23061
G1 X144.046 Y178.099 E166.32495
G1 X144.158 Y178.099 E166.33613
G1 X121.9 Y155.841 E169.47697
G1 X121.9 Y154.427 E169.61806
G1 X145.572 Y178.099 E172.95844
G1 X146.986 Y178.099 E173.09953
G1 X121.9 Y153.012 E176.6395
G1 X121.9 Y151.598 E176.78059
G1 X148.401 Y178.099 E180.52017
G1 X149.815 Y178.099 E180.66126
G1 X121.9 Y150.184 E184.60037
G1 X121.9 Y148.77 E184.74146
G1 X151.229 Y178.099 E188.88009
G1 X152.643 Y178.099 E189.02118
G1 X121.9 Y147.356 E193.35935
G1 X121.9 Y145.941 E193.50054
G1 X154.058 Y178.099 E198.03838
G1 X155.472 Y178.099 E198.17947
G1 X121.9 Y144.527 E202.91684
G1 X121.9 Y144.044 E202.96504
G1 X121.928 Y143.141 E203.05518
G1 X156.856 Y178.069 E207.9839
G1 X156.898 Y178.069 E207.98809
G1 X157.022 Y178.063 E208.00048
G1 X157.877 Y178.007 E208.08597
G1 X158.179 Y177.978 E208.11625
G1 X122.02 Y141.819 E213.21867
G1 X122.094 Y141.103 E213.2905
G1 X122.118 Y140.913 E213.3096
G1 X122.178 Y140.562 E213.34514
G1 X159.432 Y177.817 E218.60215
G1 X159.809 Y177.757 E218.64024
G1 X160.624 Y177.595 E218.72315
G1 X122.403 Y139.373 E224.11662
G1 X122.422 Y139.28 E224.12609
G1 X122.445 Y139.174 E224.13691
G1 X122.67 Y138.228 E224.23394
G0 F9000 X122.67 Y138.226
G1 F1125 X161.769 Y177.326 E229.7513
G1 X162.594 Y177.08 E229.8372
G1 X162.686 Y177.051 E229.84682
G1 X162.852 Y176.994 E229.86434
G1 X123.004 Y137.146 E235.48732
G1 X123.25 Y136.422 E235.56362
G1 X123.373 Y136.101 E235.59792
G1 X163.899 Y176.627 E241.31657
G1 X164.289 Y176.481 E241.35813
G1 X164.417 Y176.43 E241.37187
G1 X164.9 Y176.213 E241.42471
G1 X123.782 Y135.096 E247.22683
G1 X123.997 Y134.628 E247.27822
G1 X124.239 Y134.138 E247.33275
G1 X165.859 Y175.759 E253.20585
G1 X166.207 Y175.588 E253.24454
G1 X166.792 Y175.277 E253.31065
G1 X124.724 Y133.209 E259.2469
G1 X124.886 Y132.91 E259.28083
G1 X124.961 Y132.783 E259.29555
G1 X125.25 Y132.321 E259.34992
G1 X167.676 Y174.748 E265.33676
G1 X167.825 Y174.657 E265.35418
G1 X168.529 Y174.186 E265.4387
G1 X125.811 Y131.468 E271.46667
G1 X125.875 Y131.374 E271.47802
G1 X125.951 Y131.265 E271.49128
G1 X126.4 Y130.642 E271.5679
G1 X169.358 Y173.601 E277.62981
G1 X169.422 Y173.552 E277.63785
G1 X170.139 Y172.968 E277.73012
G1 X127.029 Y129.858 E283.81341
G1 X127.077 Y129.801 E283.82084
G1 X127.69 Y129.104 E283.91346
G1 X170.894 Y172.309 E290.01008
G1 X170.901 Y172.304 E290.01094
G1 X171.483 Y171.763 E290.09023
G1 X171.595 Y171.652 E290.10596
G1 X171.623 Y171.623 E290.10998
G1 X128.375 Y128.375 E296.21274
G1 X128.41 Y128.339 E296.21775
G1 X128.515 Y128.235 E296.2325
G1 X129.097 Y127.694 E296.31179
G1 X129.104 Y127.69 E296.31259
G1 X172.308 Y170.894 E302.40914
G1 X172.921 Y170.197 E302.50176
G1 X172.968 Y170.14 E302.50913
G1 X129.859 Y127.031 E308.59228
G1 X130.577 Y126.446 E308.68469
G1 X130.64 Y126.398 E308.69259
G1 X173.599 Y169.357 E314.75457
G1 X174.056 Y168.722 E314.83263
G1 X174.139 Y168.602 E314.84719
G1 X174.187 Y168.531 E314.85574
G1 X131.469 Y125.812 E320.88379
G1 X132.174 Y125.342 E320.96833
G1 X132.323 Y125.251 E320.98575
G1 X174.748 Y167.677 E326.97245
G1 X175.037 Y167.215 E327.02682
G1 X175.122 Y167.073 E327.04334
G1 X175.275 Y166.79 E327.07544
G1 X133.206 Y124.721 E333.01183
G1 X133.791 Y124.411 E333.07789
G1 X134.139 Y124.24 E333.11658
G1 X175.759 Y165.86 E338.98961
G1 X176.001 Y165.371 E339.04405
G1 X176.216 Y164.902 E339.09553
G1 X135.099 Y123.785 E344.89758
G1 X135.581 Y123.569 E344.95028
G1 X135.709 Y123.517 E344.96407
G1 X136.099 Y123.371 E345.00562
G1 X176.626 Y163.898 E350.72442
G1 X176.748 Y163.576 E350.75878
G1 X176.994 Y162.852 E350.83507
G1 X137.146 Y123.004 E356.45806
G1 X137.316 Y122.946 E356.47598
G1 X137.404 Y122.918 E356.48519
G1 X138.229 Y122.673 E356.57107
G1 X177.328 Y161.772 E362.08836
G1 X177.334 Y161.749 E362.09073
