;FLAVOR:Marlin
;TIME:5765
;Filament used: 5.07013m
;Layer height: 0.2
;MINX:129.086
;MINY:28.835
;MINZ:0.24
;MAXX:170.915
;MAXY:271.165
;MAXZ:4.34
;Generated with Cura_SteamEngine 4.12.1
M140 S95
M105
M190 S95
M82 ;absolute extrusion mode
M201 X500.00 Y500.00 Z100.00 E5000.00 ;Setup machine max acceleration
M203 X500.00 Y500.00 Z10.00 E50.00 ;Setup machine max feedrate
M204 P500.00 R1000.00 T500.00 ;Setup Print/Retract/Travel acceleration
M205 X8.00 Y8.00 Z0.40 E5.00 ;Setup Jerk
M220 S100 ;Reset Feedrate
M221 S100 ;Reset Flowrate
M140 S95 ; set bed temp
M190 S95 ; wait for bed temp
G28; home all 
G29;
G92 E0 ;Reset Extruder
G1 Z2.0 F3000 ;Move Z Axis up
G1 X10.1 Y20 Z0.28 F5000.0 ;Move to start position
M104 S230 ; wait for extruder printing temp
M109 S230 ; wait for extruder printing temp
G1 X10.1 Y200.0 Z0.28 F1500.0 E15 ;Draw the first line
G1 X10.4 Y200.0 Z0.28 F5000.0 ;Move to side a little
G1 X10.4 Y20 Z0.28 F1500.0 E30 ;Draw the second line
G92 E0 ;Reset Extruder
G1 Z2.0 F3000 ;Move Z Axis up
G92 E0
G92 E0
G1 F2700 E-5
;LAYER_COUNT:16
;LAYER:-6
M107
G0 F9000 X130.798 Y40.212 Z0.24
;TYPE:SUPPORT-INTERFACE
G1 F2700 E0
G1 F1125 X131.084 Y39.37 E0.07098
G1 X131.148 Y39.204 E0.08519
G1 X131.489 Y38.401 E0.15482
G1 X131.57 Y38.226 E0.17022
G1 X131.985 Y37.418 E0.24273
G1 X132.052 Y37.301 E0.25349
G1 X132.526 Y36.522 E0.32628
G1 X132.626 Y36.371 E0.34073
G1 X133.137 Y35.657 E0.41082
G1 X133.25 Y35.509 E0.42569
G1 X133.826 Y34.818 E0.49749
G1 X133.927 Y34.705 E0.50959
G1 X134.552 Y34.056 E0.58152
G1 X134.677 Y33.936 E0.59535
G1 X135.348 Y33.333 E0.66736
G1 X135.464 Y33.237 E0.67938
G1 X136.176 Y32.687 E0.7512
G1 X136.335 Y32.574 E0.76677
G1 X137.073 Y32.084 E0.83748
G1 X137.199 Y32.008 E0.84923
G1 X137.993 Y31.562 E0.92192
G1 X138.143 Y31.484 E0.93542
G1 X138.958 Y31.101 E1.0073
G1 X139.101 Y31.041 E1.01968
G1 X139.96 Y30.712 E1.0931
G1 X140.11 Y30.66 E1.10578
G1 X140.96 Y30.405 E1.17662
G1 X141.133 Y30.358 E1.19093
G1 X142.028 Y30.158 E1.26413
G1 X142.158 Y30.135 E1.27467
G1 X143.063 Y30.001 E1.3477
G1 X143.232 Y29.983 E1.36126
G1 X144.121 Y29.917 E1.43242
G1 X144.305 Y29.908 E1.44713
G1 X144.81 Y29.9 E1.48744
G1 X155.253 Y29.901 E2.32105
G1 X156.254 Y29.937 E2.40101
G1 X156.377 Y29.946 E2.41085
G1 X157.294 Y30.048 E2.4845
G1 X157.469 Y30.073 E2.49861
G1 X158.358 Y30.237 E2.57077
G1 X158.481 Y30.265 E2.58084
G1 X159.375 Y30.499 E2.65461
G1 X159.538 Y30.548 E2.6682
G1 X160.38 Y30.834 E2.73918
G1 X160.546 Y30.898 E2.75338
G1 X161.349 Y31.239 E2.82302
G1 X161.538 Y31.327 E2.83966
G1 X162.332 Y31.735 E2.91092
G1 X162.449 Y31.802 E2.92168
G1 X163.228 Y32.276 E2.99447
G1 X163.379 Y32.376 E3.00893
G1 X164.093 Y32.887 E3.07902
G1 X164.241 Y33 E3.09388
G1 X164.932 Y33.576 E3.16569
G1 X165.045 Y33.677 E3.17779
G1 X165.694 Y34.302 E3.24971
G1 X165.814 Y34.427 E3.26354
G1 X166.417 Y35.098 E3.33556
G1 X166.513 Y35.214 E3.34757
G1 X167.072 Y35.938 E3.42059
G1 X167.166 Y36.069 E3.43346
G1 X167.666 Y36.823 E3.50568
G1 X167.742 Y36.949 E3.51742
G1 X168.188 Y37.743 E3.59012
G1 X168.266 Y37.893 E3.60361
G1 X168.649 Y38.708 E3.6755
G1 X168.709 Y38.851 E3.68788
G1 X169.038 Y39.71 E3.7613
G1 X169.09 Y39.86 E3.77398
G1 X169.345 Y40.71 E3.84481
G1 X169.392 Y40.883 E3.85912
G1 X169.59 Y41.769 E3.93159
G1 X169.615 Y41.908 E3.94287
G1 X169.748 Y42.807 E4.01541
G1 X169.766 Y42.969 E4.02842
G1 X169.833 Y43.871 E4.10062
G1 X169.842 Y44.055 E4.11533
G1 X169.85 Y44.556 E4.15532
G1 X169.85 Y255.486 E20.99267
G1 X169.814 Y256.492 E21.07302
G1 X169.804 Y256.627 E21.08383
G1 X169.702 Y257.544 E21.15748
G1 X169.677 Y257.719 E21.17159
G1 X169.515 Y258.597 E21.24286
G1 X169.485 Y258.731 E21.25382
G1 X169.254 Y259.616 E21.32683
G1 X169.202 Y259.788 E21.34117
G1 X168.926 Y260.6 E21.40963
G1 X168.846 Y260.809 E21.4275
G1 X168.511 Y261.599 E21.49599
G1 X168.43 Y261.774 E21.51139
G1 X168.015 Y262.582 E21.58389
G1 X167.948 Y262.699 E21.59466
G1 X167.474 Y263.478 E21.66745
G1 X167.374 Y263.629 E21.6819
G1 X166.863 Y264.343 E21.75199
G1 X166.75 Y264.491 E21.76686
G1 X166.174 Y265.182 E21.83866
G1 X166.073 Y265.295 E21.85076
G1 X165.448 Y265.944 E21.92268
G1 X165.323 Y266.064 E21.93652
G1 X164.653 Y266.666 E22.00842
G1 X164.536 Y266.763 E22.02055
G1 X163.824 Y267.313 E22.09237
G1 X163.665 Y267.426 E22.10794
G1 X162.927 Y267.916 E22.17865
G1 X162.801 Y267.992 E22.19039
G1 X162.007 Y268.438 E22.26309
G1 X161.856 Y268.516 E22.27666
G1 X161.042 Y268.899 E22.34847
G1 X160.899 Y268.959 E22.36085
G1 X160.04 Y269.288 E22.43427
G1 X159.89 Y269.34 E22.44694
G1 X159.04 Y269.595 E22.51778
G1 X158.867 Y269.642 E22.53209
G1 X157.972 Y269.842 E22.6053
G1 X157.842 Y269.865 E22.61584
G1 X156.937 Y269.999 E22.68886
G1 X156.769 Y270.017 E22.70235
G1 X155.879 Y270.083 E22.77359
G1 X155.695 Y270.092 E22.7883
G1 X155.19 Y270.1 E22.82861
G1 X144.747 Y270.099 E23.66222
G1 X143.746 Y270.063 E23.74217
G1 X143.623 Y270.054 E23.75202
G1 X142.706 Y269.952 E23.82567
G1 X142.531 Y269.927 E23.83978
G1 X141.642 Y269.763 E23.91194
G1 X141.519 Y269.735 E23.92201
G1 X140.625 Y269.501 E23.99578
G1 X140.462 Y269.452 E24.00936
G1 X139.62 Y269.166 E24.08035
G1 X139.454 Y269.102 E24.09455
G1 X138.651 Y268.761 E24.16419
G1 X138.462 Y268.673 E24.18083
G1 X137.668 Y268.265 E24.25209
G1 X137.551 Y268.198 E24.26285
G1 X136.772 Y267.724 E24.33564
G1 X136.621 Y267.624 E24.3501
G1 X135.907 Y267.113 E24.42019
G1 X135.759 Y267 E24.43505
G1 X135.068 Y266.424 E24.50686
G1 X134.955 Y266.323 E24.51896
G1 X134.306 Y265.698 E24.59088
G1 X134.186 Y265.573 E24.60471
G1 X133.583 Y264.902 E24.67672
G1 X133.486 Y264.784 E24.68892
G1 X132.928 Y264.062 E24.76176
G1 X132.824 Y263.915 E24.77613
G1 X132.331 Y263.172 E24.84731
G1 X132.258 Y263.051 E24.85859
G1 X131.806 Y262.246 E24.93228
G1 X131.734 Y262.107 E24.94478
G1 X131.337 Y261.261 E25.01938
G1 X131.291 Y261.149 E25.02904
G1 X130.962 Y260.29 E25.10247
G1 X130.905 Y260.125 E25.1164
G1 X130.655 Y259.29 E25.18598
G1 X130.608 Y259.117 E25.20029
G1 X130.407 Y258.216 E25.27398
G1 X130.385 Y258.092 E25.28403
G1 X130.25 Y257.178 E25.35778
G1 X130.233 Y257.018 E25.37063
G1 X130.167 Y256.126 E25.44202
G1 X130.158 Y255.945 E25.45649
G1 X130.15 Y255.444 E25.49649
G1 X130.15 Y44.514 E42.33383
G1 X130.186 Y43.508 E42.41419
G1 X130.196 Y43.373 E42.42499
G1 X130.298 Y42.456 E42.49864
G1 X130.323 Y42.281 E42.51275
G1 X130.485 Y41.403 E42.58402
G1 X130.515 Y41.269 E42.59498
G1 X130.746 Y40.384 E42.668
G1 X130.798 Y40.212 E42.68234
G0 F9000 X131.2 Y39.081
G1 F1125 X131.2 Y260.911 E60.38977
G0 F9000 X132.8 Y263.878
G1 F1125 X132.8 Y36.127 E78.56984
G0 F9000 X134.4 Y34.213
G1 F1125 X134.4 Y265.788 E97.05516
G0 F9000 X136 Y267.179
G1 F1125 X136 Y32.822 E115.76255
G0 F9000 X137.6 Y31.782
G1 F1125 X137.6 Y268.226 E134.63653
G0 F9000 X139.2 Y268.994
G1 F1125 X139.2 Y31.003 E153.634
G0 F9000 X140.8 Y30.453
G1 F1125 X140.8 Y269.546 E172.71944
G0 F9000 X142.4 Y269.902
G1 F1125 X142.4 Y30.099 E191.86155
G0 F9000 X144 Y29.925
G1 F1125 X144 Y270.072 E211.03112
G0 F9000 X145.6 Y270.099
G1 F1125 X145.6 Y29.901 E230.20476
G0 F9000 X147.2 Y29.901
G1 F1125 X147.2 Y270.099 E249.37841
G0 F9000 X148.8 Y270.099
G1 F1125 X148.8 Y29.901 E268.55205
G0 F9000 X150.4 Y29.901
G1 F1125 X150.4 Y270.099 E287.72569
G0 F9000 X152 Y270.099
G1 F1125 X152 Y29.901 E306.89934
G0 F9000 X153.6 Y29.901
G1 F1125 X153.6 Y270.099 E326.07298
G0 F9000 X155.2 Y270.1
G1 F1125 X155.2 Y29.901 E345.2467
G0 F9000 X156.8 Y29.994
G1 F1125 X156.8 Y270.014 E364.40614
G0 F9000 X158.4 Y269.747
G1 F1125 X158.4 Y30.247 E383.52406
G0 F9000 X160 Y30.705
G1 F1125 X160 Y269.302 E402.56991
G0 F9000 X161.6 Y268.637
G1 F1125 X161.6 Y31.359 E421.51046
G0 F9000 X163.2 Y32.259
G1 F1125 X163.2 Y267.735 E440.30717
G0 F9000 X164.8 Y266.534
G1 F1125 X164.8 Y33.466 E458.91167
G0 F9000 X166.4 Y35.08
G1 F1125 X166.4 Y264.911 E477.25777
G0 F9000 X168 Y262.609
G1 F1125 X168 Y37.409 E495.23421
G1 F2700 E490.23421
G0 F9000 X169.128 Y37.243
G0 X169.7 Y38.461
G0 X170.242 Y40.053
G0 X170.635 Y41.566
G0 X169.6 Y41.825
M104 S230
G1 F2700 E495.23421
G1 F1125 X169.6 Y258.137 E512.50117
G0 F300 X169.6 Y258.137 Z0.54
G0 F9000 X168.432 Y261.77
;TIME_ELAPSED:350.715228
;LAYER:-5
;TYPE:SUPPORT
G1 F1125 X130.149 Y223.487 E517.90332
G1 X130.149 Y222.073 E518.0444
G1 X168.856 Y260.78 E523.50638
G1 X168.925 Y260.599 E523.52571
G1 X169.202 Y259.786 E523.61141
G1 X169.219 Y259.729 E523.61734
G1 X130.149 Y220.659 E529.13054
G1 X130.149 Y219.244 E529.27173
G1 X169.512 Y258.608 E534.82635
G1 X169.514 Y258.596 E534.82756
G1 X169.676 Y257.718 E534.91665
G1 X169.702 Y257.543 E534.9343
G1 X169.718 Y257.399 E534.94876
G1 X130.149 Y217.83 E540.53237
G1 X130.149 Y216.416 E540.67346
G1 X169.828 Y256.095 E546.2726
G1 X169.849 Y255.484 E546.3336
G1 X169.849 Y254.702 E546.41163
G1 X130.149 Y215.002 E552.01372
G1 X130.149 Y213.587 E552.15491
G1 X169.849 Y253.288 E557.75708
G1 X169.849 Y251.874 E557.89817
G1 X130.149 Y212.173 E563.50034
G1 X130.149 Y210.759 E563.64143
G1 X169.849 Y250.46 E569.2436
G1 X169.849 Y249.045 E569.38479
G1 X130.149 Y209.345 E574.98689
G1 X130.149 Y207.931 E575.12798
G1 X169.849 Y247.631 E580.73008
G1 X169.849 Y246.217 E580.87117
G1 X130.149 Y206.516 E586.47334
G1 X130.149 Y205.102 E586.61443
G1 X169.849 Y244.803 E592.2166
G1 X169.849 Y243.388 E592.35778
G1 X130.149 Y203.688 E597.95988
G1 X130.149 Y202.274 E598.10097
G1 X169.849 Y241.974 E603.70307
G1 X169.849 Y240.56 E603.84416
G1 X130.149 Y200.86 E609.44626
G1 X130.149 Y199.445 E609.58745
G1 X169.849 Y239.146 E615.18962
G1 X169.849 Y237.732 E615.33071
G1 X130.149 Y198.031 E620.93288
G1 X130.149 Y196.617 E621.07397
G1 X169.849 Y236.317 E626.67607
G1 X169.849 Y234.903 E626.81716
G1 X130.149 Y195.203 E632.41925
G1 X130.149 Y193.788 E632.56044
G1 X169.849 Y233.489 E638.16261
G1 X169.849 Y232.075 E638.3037
G1 X130.149 Y192.374 E643.90587
G1 X130.149 Y190.96 E644.04696
G1 X169.849 Y230.661 E649.64913
G1 X169.849 Y229.246 E649.79032
G1 X130.149 Y189.546 E655.39242
G1 X130.149 Y188.132 E655.53351
G1 X169.849 Y227.832 E661.13561
G1 X169.849 Y226.418 E661.2767
G1 X130.149 Y186.717 E666.87887
G1 X130.149 Y185.303 E667.01996
G1 X169.849 Y225.004 E672.62213
G1 X169.849 Y223.589 E672.76331
G1 X130.149 Y183.889 E678.36541
G1 X130.149 Y182.475 E678.5065
G1 X169.849 Y222.175 E684.1086
G1 X169.849 Y220.761 E684.24969
G1 X130.149 Y181.061 E689.85179
G1 X130.149 Y179.646 E689.99298
G1 X169.849 Y219.347 E695.59515
G1 X169.849 Y217.933 E695.73624
G1 X130.149 Y178.232 E701.33841
G1 X130.149 Y176.818 E701.4795
G1 X169.849 Y216.518 E707.0816
G1 X169.849 Y215.104 E707.22269
G1 X130.149 Y175.404 E712.82478
G1 X130.149 Y173.989 E712.96597
G1 X169.849 Y213.69 E718.56814
G1 X169.849 Y212.276 E718.70923
G1 X130.149 Y172.575 E724.3114
G1 X130.149 Y171.161 E724.45249
G1 X169.849 Y210.862 E730.05466
G1 X169.849 Y209.447 E730.19585
G1 X130.149 Y169.747 E735.79795
G1 X130.149 Y168.333 E735.93904
G1 X169.849 Y208.033 E741.54114
G1 X169.849 Y206.619 E741.68223
G1 X130.149 Y166.918 E747.2844
G1 X130.149 Y165.504 E747.42549
G1 X169.849 Y205.205 E753.02766
G1 X169.849 Y203.791 E753.16874
G1 X130.149 Y164.09 E758.77091
G1 X130.149 Y162.676 E758.912
G1 X169.849 Y202.376 E764.5141
G1 X169.849 Y200.962 E764.65519
G1 X130.149 Y161.262 E770.25729
G1 X130.149 Y159.847 E770.39848
G1 X169.849 Y199.548 E776.00065
G1 X169.849 Y198.134 E776.14174
G1 X130.149 Y158.433 E781.74391
G1 X130.149 Y157.019 E781.885
G1 X169.849 Y196.719 E787.4871
G1 X169.849 Y195.305 E787.62819
G1 X130.149 Y155.605 E793.23029
G1 X130.149 Y154.19 E793.37147
G1 X169.849 Y193.891 E798.97364
G1 X169.849 Y192.477 E799.11473
G1 X130.149 Y152.776 E804.7169
G1 X130.149 Y151.362 E804.85799
G1 X169.849 Y191.063 E810.46016
G1 X169.849 Y189.648 E810.60135
G1 X130.149 Y149.948 E816.20345
G1 X130.149 Y148.534 E816.34454
G1 X169.849 Y188.234 E821.94664
G1 X169.849 Y186.82 E822.08773
G1 X130.149 Y147.119 E827.6899
G1 X130.149 Y145.705 E827.83099
G1 X169.849 Y185.406 E833.43316
G1 X169.849 Y183.992 E833.57425
G1 X130.149 Y144.291 E839.17641
G1 X130.149 Y142.877 E839.3175
G1 X169.849 Y182.577 E844.9196
G1 X169.849 Y181.163 E845.06069
G1 X130.149 Y141.463 E850.66279
G1 X130.149 Y140.048 E850.80398
G1 X169.849 Y179.749 E856.40615
G1 X169.849 Y178.335 E856.54724
G1 X130.149 Y138.634 E862.14941
G1 X130.149 Y137.22 E862.2905
G1 X169.849 Y176.92 E867.8926
G1 X169.849 Y175.506 E868.03369
G1 X130.149 Y135.806 E873.63579
G1 X130.149 Y134.392 E873.77688
G1 X169.849 Y174.092 E879.37897
G1 X169.849 Y172.678 E879.52006
G1 X130.149 Y132.977 E885.12223
G1 X130.149 Y131.563 E885.26332
G1 X169.849 Y171.264 E890.86549
G1 X169.849 Y169.849 E891.00668
G1 X130.149 Y130.149 E896.60878
G1 X130.149 Y128.735 E896.74987
G1 X169.849 Y168.435 E902.35197
G1 X169.849 Y167.021 E902.49306
G1 X130.149 Y127.32 E908.09523
G1 X130.149 Y125.906 E908.23632
G1 X169.849 Y165.607 E913.83849
G1 X169.849 Y164.193 E913.97958
G1 X130.149 Y124.492 E919.58174
G1 X130.149 Y123.078 E919.72283
G1 X169.849 Y162.778 E925.32493
G1 X169.849 Y161.364 E925.46602
G1 X130.149 Y121.664 E931.06812
G1 X130.149 Y120.249 E931.20931
G1 X169.849 Y159.95 E936.81148
G1 X169.849 Y158.536 E936.95257
G1 X130.149 Y118.835 E942.55474
G1 X130.149 Y117.421 E942.69583
G1 X169.849 Y157.121 E948.29793
G1 X169.849 Y155.707 E948.43902
G1 X130.149 Y116.007 E954.04112
G1 X130.149 Y114.593 E954.18221
G1 X169.849 Y154.293 E959.7843
G1 X169.849 Y152.879 E959.92539
G1 X130.149 Y113.178 E965.52756
G1 X130.149 Y111.764 E965.66865
G1 X169.849 Y151.465 E971.27082
G1 X169.849 Y150.05 E971.41201
G1 X130.149 Y110.35 E977.01411
G1 X130.149 Y108.936 E977.1552
G1 X169.849 Y148.636 E982.7573
G1 X169.849 Y147.222 E982.89839
G1 X130.149 Y107.521 E988.50056
G1 X130.149 Y106.107 E988.64165
G1 X169.849 Y145.808 E994.24382
G1 X169.849 Y144.394 E994.38491
G1 X130.149 Y104.693 E999.98708
G1 X130.149 Y103.279 E1000.12816
G1 X169.849 Y142.979 E1005.73026
G1 X169.849 Y141.565 E1005.87135
G1 X130.149 Y101.865 E1011.47345
G1 X130.149 Y100.45 E1011.61464
G1 X169.849 Y140.151 E1017.21681
G1 X169.849 Y138.737 E1017.3579
G1 X130.149 Y99.036 E1022.96007
G1 X130.149 Y97.622 E1023.10116
G1 X169.849 Y137.322 E1028.70326
G1 X169.849 Y135.908 E1028.84435
G1 X130.149 Y96.208 E1034.44645
G1 X130.149 Y94.794 E1034.58754
G1 X169.849 Y134.494 E1040.18963
G1 X169.849 Y133.08 E1040.33072
G1 X130.149 Y93.379 E1045.93289
G1 X130.149 Y91.965 E1046.07398
G1 X169.849 Y131.666 E1051.67615
G1 X169.849 Y130.251 E1051.81734
G1 X130.149 Y90.551 E1057.41944
G1 X130.149 Y89.137 E1057.56053
G1 X169.849 Y128.837 E1063.16263
G1 X169.849 Y127.423 E1063.30372
G1 X130.149 Y87.722 E1068.90589
G1 X130.149 Y86.308 E1069.04698
G1 X169.849 Y126.009 E1074.64915
G1 X169.849 Y124.595 E1074.79024
G1 X130.149 Y84.894 E1080.39241
G1 X130.149 Y83.48 E1080.53349
G1 X169.849 Y123.18 E1086.13559
G1 X169.849 Y121.766 E1086.27668
G1 X130.149 Y82.066 E1091.87878
G1 X130.149 Y80.651 E1092.01997
G1 X169.849 Y120.352 E1097.62214
G1 X169.849 Y118.938 E1097.76323
G1 X130.149 Y79.237 E1103.3654
G1 X130.149 Y77.823 E1103.50649
G1 X169.849 Y117.523 E1109.10859
G1 X169.849 Y116.109 E1109.24968
G1 X130.149 Y76.409 E1114.85178
G1 X130.149 Y74.995 E1114.99287
G1 X169.849 Y114.695 E1120.59496
G1 X169.849 Y113.281 E1120.73605
G1 X130.149 Y73.58 E1126.33822
G1 X130.149 Y72.166 E1126.47931
G1 X169.849 Y111.867 E1132.08148
G1 X169.849 Y110.452 E1132.22267
G1 X130.149 Y70.752 E1137.82477
G1 X130.149 Y69.338 E1137.96586
G1 X169.849 Y109.038 E1143.56796
G1 X169.849 Y107.624 E1143.70905
G1 X130.149 Y67.923 E1149.31122
G1 X130.149 Y66.509 E1149.45231
G1 X169.849 Y106.21 E1155.05448
G1 X169.849 Y104.796 E1155.19557
G1 X130.149 Y65.095 E1160.79774
G1 X130.149 Y63.681 E1160.93883
G1 X169.849 Y103.381 E1166.54092
G1 X169.849 Y101.967 E1166.68201
G1 X130.149 Y62.267 E1172.28411
G1 X130.149 Y60.852 E1172.4253
G1 X169.849 Y100.553 E1178.02747
G1 X169.849 Y99.139 E1178.16856
G1 X130.149 Y59.438 E1183.77073
G1 X130.149 Y58.024 E1183.91182
G1 X169.849 Y97.724 E1189.51392
G1 X169.849 Y96.31 E1189.65501
G1 X130.149 Y56.61 E1195.25711
G1 X130.149 Y55.196 E1195.3982
G1 X169.849 Y94.896 E1201.00029
G1 X169.849 Y93.482 E1201.14138
G1 X130.149 Y53.781 E1206.74355
G1 X130.149 Y52.367 E1206.88464
