;FLAVOR:Marlin
;TIME:1012
;Filament used: 0.587564m
;Layer height: 0.2
;MINX:128.472
;MINY:127.339
;MINZ:0.2
;MAXX:171.528
;MAXY:172.661
;MAXZ:4
;Generated with Cura_SteamEngine 4.12.1
M140 S80
M105
M190 S80
M82 ;absolute extrusion mode
M201 X500.00 Y500.00 Z100.00 E5000.00 ;Setup machine max acceleration
M203 X500.00 Y500.00 Z10.00 E50.00 ;Setup machine max feedrate
M204 P500.00 R1000.00 T500.00 ;Setup Print/Retract/Travel acceleration
M205 X8.00 Y8.00 Z0.40 E5.00 ;Setup Jerk
M220 S100 ;Reset Feedrate
M221 S100 ;Reset Flowrate
M140 S80.0 ; set bed temp
M190 S80.0 ; wait for bed temp
G28; home all 
G29;
G92 E0 ;Reset Extruder
G1 Z2.0 F3000 ;Move Z Axis up
G1 X10.1 Y20 Z0.28 F5000.0 ;Move to start position
M104 S230 ; wait for extruder printing temp
M109 S230 ; wait for extruder printing temp
G1 X10.1 Y200.0 Z0.28 F1500.0 E15 ;Draw the first line
G1 X10.4 Y200.0 Z0.28 F5000.0 ;Move to side a little
G1 X10.4 Y20 Z0.28 F1500.0 E30 ;Draw the second line
G92 E0 ;Reset Extruder
G1 Z2.0 F3000 ;Move Z Axis up
G92 E0
G92 E0
G1 F2700 E-5
;LAYER_COUNT:20
;LAYER:0
M107
G0 F6000 X133.757 Y136.769 Z0.2
;TYPE:SKIRT
G1 F2700 E0
G1 F1200 X134.343 Y136.239 E0.02628
G1 X134.979 Y135.772 E0.05252
G1 X135.659 Y135.371 E0.07878
G1 X136.377 Y135.041 E0.10506
G1 X137.124 Y134.786 E0.13132
G1 X137.893 Y134.607 E0.15758
G1 X138.677 Y134.507 E0.18386
G1 X139.272 Y134.484 E0.20367
G1 X147.808 Y134.484 E0.48758
G1 X151.941 Y129.91 E0.69261
G1 X152.499 Y129.351 E0.71888
G1 X153.111 Y128.852 E0.74515
G1 X153.77 Y128.418 E0.77139
G1 X154.47 Y128.052 E0.79767
G1 X155.203 Y127.759 E0.82392
G1 X155.963 Y127.541 E0.85022
G1 X156.74 Y127.402 E0.87647
G1 X157.728 Y127.339 E0.9094
G1 X161.632 Y127.339 E1.03925
G1 X162.326 Y127.37 E1.06235
G1 X162.673 Y127.401 E1.07394
G1 X163.455 Y127.511 E1.1002
G1 X163.986 Y127.633 E1.11833
G1 X164.324 Y127.723 E1.12996
G1 X165.076 Y127.964 E1.15622
G1 X165.651 Y128.209 E1.17701
G1 X165.964 Y128.357 E1.18853
G1 X166.66 Y128.73 E1.21479
G1 X167.115 Y129.026 E1.23285
G1 X167.401 Y129.227 E1.24447
G1 X168.023 Y129.714 E1.27075
G1 X168.443 Y130.105 E1.28983
G1 X168.688 Y130.351 E1.30138
G1 X169.216 Y130.938 E1.32764
G1 X169.56 Y131.395 E1.34666
G1 X169.76 Y131.682 E1.3583
G1 X170.179 Y132.352 E1.38458
G1 X170.429 Y132.843 E1.40291
G1 X170.576 Y133.158 E1.41447
G1 X170.874 Y133.89 E1.44076
G1 X171.045 Y134.45 E1.46023
G1 X171.135 Y134.788 E1.47186
G1 X171.3 Y135.56 E1.49812
G1 X171.369 Y136.117 E1.51679
G1 X171.399 Y136.461 E1.52827
G1 X171.428 Y137.139 E1.55084
G1 X171.429 Y151.635 E2.03298
G1 X171.437 Y151.674 E2.03431
G1 X171.518 Y152.459 E2.06056
G1 X171.528 Y152.861 E2.07393
G1 X171.528 Y164.861 E2.47305
G1 X171.488 Y165.65 E2.49933
G1 X171.369 Y166.43 E2.52557
G1 X171.171 Y167.195 E2.55185
G1 X170.897 Y167.935 E2.5781
G1 X170.549 Y168.644 E2.60437
G1 X170.131 Y169.315 E2.63066
G1 X169.648 Y169.939 E2.65691
G1 X169.105 Y170.512 E2.68316
G1 X168.506 Y171.027 E2.70944
G1 X167.858 Y171.478 E2.7357
G1 X167.167 Y171.862 E2.76199
G1 X166.442 Y172.174 E2.78824
G1 X165.689 Y172.411 E2.8145
G1 X164.915 Y172.57 E2.84078
G1 X164.13 Y172.651 E2.86703
G1 X163.728 Y172.661 E2.8804
G1 X157.728 Y172.661 E3.07996
G1 X156.939 Y172.621 E3.10624
G1 X156.159 Y172.502 E3.13248
G1 X155.394 Y172.304 E3.15876
G1 X154.654 Y172.03 E3.18501
G1 X153.945 Y171.682 E3.21128
G1 X153.274 Y171.264 E3.23757
G1 X152.65 Y170.781 E3.26382
G1 X152.077 Y170.238 E3.29007
G1 X151.562 Y169.639 E3.31635
G1 X151.111 Y168.991 E3.3426
G1 X150.727 Y168.3 E3.3689
G1 X150.415 Y167.575 E3.39515
G1 X150.178 Y166.822 E3.42141
G1 X150.019 Y166.048 E3.44769
G1 X149.938 Y165.263 E3.47393
G1 X149.928 Y164.861 E3.48731
G1 X149.928 Y164.487 E3.49975
G1 X149.632 Y164.545 E3.50978
G1 X149.18 Y164.619 E3.52501
G1 X148.892 Y164.658 E3.53468
G1 X148.488 Y164.702 E3.5482
G1 X148.198 Y164.726 E3.55788
G1 X147.775 Y164.75 E3.57197
G1 X147.492 Y164.758 E3.58138
G1 X147.273 Y164.761 E3.58867
G1 X136.273 Y164.762 E3.95453
G1 X135.484 Y164.722 E3.98081
G1 X134.703 Y164.603 E4.00708
G1 X133.939 Y164.405 E4.03333
G1 X133.198 Y164.131 E4.05961
G1 X132.489 Y163.783 E4.08588
G1 X131.819 Y163.366 E4.11213
G1 X131.194 Y162.883 E4.1384
G1 X130.622 Y162.339 E4.16465
G1 X130.107 Y161.74 E4.19093
G1 X129.655 Y161.092 E4.2172
G1 X129.272 Y160.402 E4.24345
G1 X128.96 Y159.677 E4.2697
G1 X128.723 Y158.923 E4.29599
G1 X128.563 Y158.15 E4.32225
G1 X128.482 Y157.364 E4.34853
G1 X128.472 Y156.962 E4.3619
G1 X128.472 Y145.284 E4.75031
G1 X128.512 Y144.495 E4.77659
G1 X128.631 Y143.715 E4.80283
G1 X128.829 Y142.95 E4.82911
G1 X129.103 Y142.21 E4.85536
G1 X129.451 Y141.501 E4.88163
G1 X129.869 Y140.83 E4.90792
G1 X130.352 Y140.206 E4.93417
G1 X130.757 Y139.769 E4.95399
G1 X133.757 Y136.769 E5.0951
G0 F6000 X134.039 Y137.051
G1 F1200 X134.611 Y136.537 E5.12067
G1 X135.233 Y136.084 E5.14627
G1 X135.898 Y135.698 E5.17184
G1 X136.6 Y135.383 E5.19743
G1 X137.331 Y135.143 E5.22302
G1 X138.082 Y134.98 E5.24858
G1 X138.847 Y134.896 E5.27418
G1 X139.272 Y134.884 E5.28832
G1 X147.985 Y134.884 E5.57812
G1 X152.237 Y130.178 E5.78906
G1 X152.782 Y129.635 E5.81465
G1 X153.38 Y129.151 E5.84024
G1 X154.025 Y128.732 E5.86582
G1 X154.71 Y128.382 E5.89141
G1 X155.428 Y128.106 E5.91699
G1 X156.17 Y127.905 E5.94256
G1 X156.93 Y127.782 E5.96817
G1 X157.728 Y127.739 E5.99475
G1 X161.632 Y127.739 E6.12459
G1 X162.29 Y127.768 E6.1465
G1 X162.637 Y127.799 E6.15809
G1 X163.399 Y127.908 E6.18369
G1 X163.883 Y128.019 E6.20021
G1 X164.221 Y128.109 E6.21184
G1 X164.953 Y128.345 E6.23742
G1 X165.48 Y128.57 E6.25648
G1 X165.793 Y128.718 E6.26799
G1 X166.471 Y129.083 E6.2936
G1 X166.885 Y129.354 E6.31006
G1 X167.171 Y129.555 E6.32169
G1 X167.776 Y130.029 E6.34725
G1 X168.159 Y130.387 E6.36469
G1 X168.404 Y130.633 E6.37624
G1 X168.918 Y131.206 E6.40184
G1 X169.232 Y131.624 E6.41923
G1 X169.432 Y131.911 E6.43086
G1 X169.839 Y132.564 E6.45645
G1 X170.067 Y133.013 E6.4732
G1 X170.214 Y133.328 E6.48476
G1 X170.502 Y134.041 E6.51034
G1 X170.659 Y134.553 E6.52815
G1 X170.749 Y134.891 E6.53979
G1 X170.908 Y135.643 E6.56535
G1 X170.97 Y136.152 E6.5824
G1 X171 Y136.496 E6.59389
G1 X171.028 Y137.139 E6.6153
G1 X171.029 Y151.715 E7.1001
G1 X171.079 Y152.012 E7.11011
G1 X171.128 Y152.861 E7.1384
G1 X171.128 Y164.861 E7.53752
G1 X171.088 Y165.629 E7.5631
G1 X170.969 Y166.389 E7.58868
G1 X170.771 Y167.132 E7.61426
G1 X170.497 Y167.851 E7.63985
G1 X170.15 Y168.537 E7.66542
G1 X169.734 Y169.184 E7.691
G1 X169.253 Y169.784 E7.71658
G1 X168.712 Y170.331 E7.74217
G1 X168.117 Y170.819 E7.76776
G1 X167.475 Y171.242 E7.79333
G1 X166.792 Y171.597 E7.81894
G1 X166.077 Y171.878 E7.84449
G1 X165.335 Y172.084 E7.8701
G1 X164.577 Y172.212 E7.89567
G1 X163.728 Y172.261 E7.92395
G1 X157.728 Y172.261 E8.12351
G1 X156.96 Y172.221 E8.14909
G1 X156.2 Y172.102 E8.17468
G1 X155.457 Y171.904 E8.20025
G1 X154.738 Y171.63 E8.22584
G1 X154.052 Y171.283 E8.25141
G1 X153.405 Y170.867 E8.277
G1 X152.805 Y170.386 E8.30257
G1 X152.258 Y169.845 E8.32816
G1 X151.77 Y169.25 E8.35376
G1 X151.347 Y168.608 E8.37933
G1 X150.992 Y167.925 E8.40493
G1 X150.711 Y167.21 E8.43048
G1 X150.505 Y166.468 E8.4561
G1 X150.377 Y165.71 E8.48166
G1 X150.328 Y164.861 E8.50995
G1 X150.328 Y163.985 E8.53908
G1 X150.232 Y164.009 E8.54238
G1 X149.841 Y164.096 E8.5557
G1 X149.555 Y164.152 E8.56539
G1 X149.126 Y164.223 E8.57985
G1 X148.838 Y164.262 E8.58952
G1 X148.455 Y164.304 E8.60234
G1 X148.165 Y164.328 E8.61201
G1 X147.764 Y164.35 E8.62537
G1 X147.481 Y164.358 E8.63479
G1 X147.273 Y164.361 E8.64171
G1 X136.273 Y164.362 E9.00757
G1 X135.505 Y164.322 E9.03315
G1 X134.745 Y164.203 E9.05873
G1 X134.001 Y164.005 E9.08434
G1 X133.283 Y163.731 E9.1099
G1 X132.596 Y163.384 E9.1355
G1 X131.949 Y162.968 E9.16108
G1 X131.349 Y162.487 E9.18666
G1 X130.802 Y161.946 E9.21225
G1 X130.314 Y161.352 E9.23782
G1 X129.891 Y160.709 E9.26342
G1 X129.537 Y160.027 E9.28897
G1 X129.255 Y159.311 E9.31457
G1 X129.049 Y158.57 E9.34015
G1 X128.921 Y157.812 E9.36572
G1 X128.872 Y156.962 E9.39403
G1 X128.872 Y145.284 E9.78245
G1 X128.912 Y144.516 E9.80802
G1 X129.031 Y143.756 E9.83361
G1 X129.229 Y143.013 E9.85918
G1 X129.503 Y142.294 E9.88478
G1 X129.85 Y141.608 E9.91035
G1 X130.266 Y140.961 E9.93593
G1 X130.747 Y140.361 E9.96151
G1 X131.039 Y140.051 E9.97567
G1 X134.039 Y137.051 E10.11678
G0 F6000 X134.322 Y137.334
G1 F1200 X134.879 Y136.834 E10.14168
G1 X135.485 Y136.397 E10.16653
G1 X136.135 Y136.026 E10.19142
G1 X136.821 Y135.727 E10.21631
G1 X137.535 Y135.503 E10.2412
G1 X138.268 Y135.356 E10.26606
G1 X139.272 Y135.284 E10.29954
G1 X148.163 Y135.284 E10.59526
G1 X152.534 Y130.446 E10.81212
G1 X153.065 Y129.919 E10.837
G1 X153.648 Y129.451 E10.86187
G1 X154.279 Y129.048 E10.88677
G1 X154.948 Y128.715 E10.91162
G1 X155.65 Y128.455 E10.93652
G1 X156.375 Y128.271 E10.9614
G1 X157.116 Y128.166 E10.98629
G1 X157.728 Y128.139 E11.00667
G1 X161.632 Y128.139 E11.13651
G1 X162.255 Y128.167 E11.15726
G1 X162.602 Y128.198 E11.16884
G1 X163.342 Y128.304 E11.19371
G1 X163.78 Y128.406 E11.20866
G1 X164.118 Y128.496 E11.2203
G1 X164.83 Y128.727 E11.24519
G1 X165.309 Y128.932 E11.26252
G1 X165.622 Y129.08 E11.27404
G1 X166.28 Y129.435 E11.29891
G1 X166.655 Y129.681 E11.31382
G1 X166.941 Y129.882 E11.32545
G1 X167.529 Y130.344 E11.35032
G1 X167.876 Y130.669 E11.36613
G1 X168.121 Y130.915 E11.37768
G1 X168.62 Y131.473 E11.40258
G1 X168.904 Y131.853 E11.41836
G1 X169.104 Y132.14 E11.42999
G1 X169.498 Y132.776 E11.45488
G1 X169.704 Y133.182 E11.47002
G1 X169.851 Y133.497 E11.48158
G1 X170.131 Y134.191 E11.50647
G1 X170.272 Y134.656 E11.52263
G1 X170.362 Y134.994 E11.53427
G1 X170.516 Y135.726 E11.55915
G1 X170.572 Y136.187 E11.57459
G1 X170.602 Y136.531 E11.58608
G1 X170.628 Y137.139 E11.60632
G1 X170.629 Y151.719 E12.09125
G1 X170.709 Y152.344 E12.11221
G1 X170.728 Y152.861 E12.12941
G1 X170.728 Y164.861 E12.52854
G1 X170.688 Y165.608 E12.55342
G1 X170.569 Y166.346 E12.57828
G1 X170.371 Y167.068 E12.60318
G1 X170.098 Y167.764 E12.62805
G1 X169.751 Y168.427 E12.65293
G1 X169.336 Y169.05 E12.67783
G1 X168.857 Y169.624 E12.7027
G1 X168.32 Y170.145 E12.72758
G1 X167.73 Y170.604 E12.75245
G1 X167.094 Y170.999 E12.77735
G1 X166.42 Y171.323 E12.80222
G1 X165.715 Y171.573 E12.8271
G1 X164.987 Y171.747 E12.85199
G1 X164.245 Y171.842 E12.87687
G1 X163.728 Y171.861 E12.89408
G1 X157.728 Y171.861 E13.09364
G1 X156.981 Y171.821 E13.11852
G1 X156.243 Y171.702 E13.14339
G1 X155.521 Y171.504 E13.16829
G1 X154.825 Y171.231 E13.19315
G1 X154.162 Y170.884 E13.21804
G1 X153.539 Y170.469 E13.24294
G1 X152.965 Y169.99 E13.26781
G1 X152.444 Y169.453 E13.29269
G1 X151.985 Y168.863 E13.31755
G1 X151.59 Y168.227 E13.34245
G1 X151.266 Y167.553 E13.36733
G1 X151.016 Y166.848 E13.39221
G1 X150.842 Y166.12 E13.4171
G1 X150.747 Y165.378 E13.44198
G1 X150.728 Y164.861 E13.45919
G1 X150.728 Y163.462 E13.50572
G1 X150.415 Y163.55 E13.51653
G1 X150.134 Y163.621 E13.52617
G1 X149.764 Y163.704 E13.53879
G1 X149.478 Y163.76 E13.54848
G1 X149.072 Y163.827 E13.56217
G1 X148.784 Y163.866 E13.57183
G1 X148.422 Y163.905 E13.58394
G1 X148.132 Y163.929 E13.59362
G1 X147.753 Y163.95 E13.60625
G1 X147.47 Y163.958 E13.61566
G1 X147.273 Y163.961 E13.62221
G1 X136.273 Y163.962 E13.98808
G1 X135.526 Y163.922 E14.01296
G1 X134.787 Y163.803 E14.03785
G1 X134.066 Y163.605 E14.06272
G1 X133.369 Y163.332 E14.08762
G1 X132.706 Y162.986 E14.11249
G1 X132.084 Y162.571 E14.13736
G1 X131.509 Y162.092 E14.16225
G1 X130.989 Y161.554 E14.18714
G1 X130.529 Y160.964 E14.21202
G1 X130.135 Y160.329 E14.23688
G1 X129.81 Y159.654 E14.26179
G1 X129.56 Y158.949 E14.28667
G1 X129.386 Y158.222 E14.31154
G1 X129.291 Y157.48 E14.33642
G1 X129.272 Y156.962 E14.35366
G1 X129.272 Y145.284 E14.74207
G1 X129.312 Y144.537 E14.76695
G1 X129.431 Y143.799 E14.79181
G1 X129.629 Y143.077 E14.81671
G1 X129.902 Y142.381 E14.84158
G1 X130.249 Y141.718 E14.86647
G1 X130.664 Y141.095 E14.89137
G1 X131.322 Y140.334 E14.92483
G1 X134.322 Y137.334 E15.06594
G0 F6000 X134.605 Y137.617
G1 F1200 X135.146 Y137.133 E15.09008
G1 X135.737 Y136.71 E15.11425
G1 X136.371 Y136.356 E15.13841
G1 X137.04 Y136.073 E15.16257
G1 X137.736 Y135.865 E15.18673
G1 X138.451 Y135.735 E15.2109
G1 X139.272 Y135.684 E15.23826
G1 X148.34 Y135.684 E15.53986
G1 X152.831 Y130.714 E15.76265
G1 X153.347 Y130.203 E15.78681
G1 X153.916 Y129.751 E15.81098
G1 X154.531 Y129.365 E15.83513
G1 X155.185 Y129.049 E15.85928
G1 X155.869 Y128.806 E15.88343
G1 X156.577 Y128.64 E15.90761
G1 X157.298 Y128.553 E15.93177
G1 X157.728 Y128.539 E15.94608
G1 X161.632 Y128.539 E16.07593
G1 X162.219 Y128.565 E16.09547
G1 X162.566 Y128.596 E16.10706
G1 X163.285 Y128.701 E16.13122
G1 X163.677 Y128.792 E16.14461
G1 X164.015 Y128.882 E16.15624
G1 X164.706 Y129.107 E16.18041
G1 X165.138 Y129.293 E16.19606
G1 X165.451 Y129.441 E16.20757
G1 X166.09 Y129.788 E16.23176
G1 X166.425 Y130.008 E16.24509
G1 X166.711 Y130.209 E16.25671
G1 X167.281 Y130.659 E16.28087
G1 X167.592 Y130.952 E16.29508
G1 X167.837 Y131.198 E16.30663
G1 X168.321 Y131.74 E16.33079
G1 X168.576 Y132.082 E16.34498
G1 X168.776 Y132.369 E16.35662
G1 X169.158 Y132.986 E16.38075
G1 X169.342 Y133.351 E16.39435
G1 X169.489 Y133.666 E16.40591
G1 X169.759 Y134.34 E16.43006
G1 X169.886 Y134.759 E16.44462
G1 X169.976 Y135.097 E16.45626
G1 X170.124 Y135.808 E16.48041
G1 X170.173 Y136.222 E16.49428
G1 X170.203 Y136.566 E16.50576
G1 X170.228 Y137.139 E16.52484
G1 X170.229 Y151.766 E17.01133
G1 X170.264 Y151.944 E17.01737
G1 X170.328 Y152.861 E17.04794
G1 X170.328 Y164.861 E17.44706
G1 X170.288 Y165.586 E17.47121
G1 X170.169 Y166.303 E17.49539
G1 X169.971 Y167.002 E17.51955
G1 X169.698 Y167.675 E17.54371
G1 X169.353 Y168.314 E17.56786
G1 X168.939 Y168.911 E17.59202
G1 X168.463 Y169.459 E17.61616
G1 X167.929 Y169.952 E17.64034
G1 X167.344 Y170.382 E17.66449
G1 X166.715 Y170.746 E17.68866
G1 X166.05 Y171.039 E17.71283
G1 X165.357 Y171.257 E17.73699
G1 X164.645 Y171.397 E17.76112
G1 X163.728 Y171.461 E17.7917
G1 X157.728 Y171.461 E17.99126
G1 X157.003 Y171.421 E18.01541
G1 X156.286 Y171.302 E18.03958
G1 X155.587 Y171.104 E18.06375
G1 X154.914 Y170.831 E18.0879
G1 X154.275 Y170.486 E18.11205
G1 X153.678 Y170.072 E18.13622
G1 X153.13 Y169.596 E18.16036
G1 X152.637 Y169.062 E18.18453
G1 X152.207 Y168.477 E18.20868
G1 X151.843 Y167.848 E18.23285
G1 X151.55 Y167.183 E18.25702
G1 X151.332 Y166.49 E18.28118
G1 X151.192 Y165.778 E18.30532
G1 X151.128 Y164.861 E18.33589
G1 X151.128 Y162.913 E18.40068
G1 X150.938 Y162.979 E18.40737
G1 X150.658 Y163.066 E18.41713
G1 X150.317 Y163.162 E18.42891
G1 X150.036 Y163.233 E18.43855
G1 X149.687 Y163.311 E18.45044
G1 X149.401 Y163.367 E18.46014
G1 X149.019 Y163.43 E18.47301
G1 X148.731 Y163.469 E18.48268
G1 X148.389 Y163.507 E18.49412
G1 X148.099 Y163.531 E18.5038
G1 X147.741 Y163.55 E18.51573
G1 X147.273 Y163.561 E18.5313
G1 X136.273 Y163.562 E18.89716
G1 X135.547 Y163.522 E18.92134
G1 X134.831 Y163.403 E18.94548
G1 X134.132 Y163.205 E18.96965
G1 X133.459 Y162.932 E18.9938
G1 X132.82 Y162.587 E19.01795
G1 X132.222 Y162.174 E19.04213
G1 X131.674 Y161.697 E19.06629
G1 X131.182 Y161.163 E19.09044
G1 X130.751 Y160.578 E19.11461
G1 X130.387 Y159.95 E19.13875
G1 X130.094 Y159.285 E19.16292
G1 X129.876 Y158.592 E19.18708
G1 X129.736 Y157.879 E19.21125
G1 X129.672 Y156.962 E19.24182
G1 X129.672 Y145.284 E19.63024
G1 X129.712 Y144.559 E19.65439
G1 X129.831 Y143.842 E19.67856
G1 X130.029 Y143.143 E19.70272
G1 X130.302 Y142.47 E19.72688
G1 X130.647 Y141.831 E19.75103
G1 X131.061 Y141.234 E19.7752
G1 X131.605 Y140.617 E19.80255
G1 X134.605 Y137.617 E19.94367
G0 F6000 X134.888 Y137.9
G1 F1200 X135.413 Y137.431 E19.96708
G1 X135.988 Y137.025 E19.99049
G1 X136.606 Y136.687 E20.01392
G1 X137.257 Y136.42 E20.03732
G1 X137.935 Y136.23 E20.06074
G1 X138.63 Y136.117 E20.08416
G1 X139.272 Y136.084 E20.10554
G1 X148.518 Y136.084 E20.41307
G1 X153.128 Y130.982 E20.64177
G1 X153.629 Y130.488 E20.66517
G1 X154.182 Y130.053 E20.68857
G1 X154.782 Y129.684 E20.712
G1 X155.419 Y129.385 E20.7354
G1 X156.086 Y129.16 E20.75882
G1 X156.775 Y129.013 E20.78225
G1 X157.728 Y128.939 E20.81404
G1 X161.632 Y128.939 E20.94389
