;FLAVOR:Marlin
;TIME:550
;Filament used: 0.357451m
;Layer height: 0.2
;MINX:132.152
;MINY:132.155
;MINZ:0.28
;MAXX:167.847
;MAXY:167.845
;MAXZ:4.08
;Generated with Cura_SteamEngine 5.2.1
M140 S90
M105
M190 S90
M82 ;absolute extrusion mode
M201 X500.00 Y500.00 Z100.00 E5000.00 ;Setup machine max acceleration
M203 X500.00 Y500.00 Z10.00 E50.00 ;Setup machine max feedrate
M204 P500.00 R1000.00 T500.00 ;Setup Print/Retract/Travel acceleration
M205 X8.00 Y8.00 Z0.40 E5.00 ;Setup Jerk
M220 S100 ;Reset Feedrate
M221 S100 ;Reset Flowrate
M140 S90 ; set bed temp
M190 S90 ; wait for bed temp
G28; home all
G29;
G92 E0 ;Reset Extruder
G1 Z2.0 F3000 ;Move Z Axis up
G1 X10.1 Y20 Z0.28 F5000.0 ;Move to start position
M104 S240.0 ; wait for extruder printing temp
M109 S240.0 ; wait for extruder printing temp
G1 X10.1 Y200.0 Z0.28 F1500.0 E15 ;Draw the first line
G1 X10.4 Y200.0 Z0.28 F5000.0 ;Move to side a little
G1 X10.4 Y20 Z0.28 F1500.0 E30 ;Draw the second line
G92 E0 ;Reset Extruder
G92 E0
G92 E0
G1 F4800 E-6
;LAYER_COUNT:20
;LAYER:0
M107
G0 F6000 X137.525 Y137.235 Z0.28
;TYPE:SKIRT
G1 F4800 E0
G1 F1200 X137.974 Y136.811 E0.02876
G1 X138.506 Y136.349 E0.06157
G1 X139.03 Y135.924 E0.09298
G1 X139.333 Y135.69 E0.11081
G1 X139.852 Y135.317 E0.14057
G1 X140.331 Y134.998 E0.16737
G1 X140.965 Y134.61 E0.20198
G1 X141.555 Y134.279 E0.23348
G1 X142.185 Y133.954 E0.26649
G1 X142.734 Y133.698 E0.29469
G1 X143.529 Y133.367 E0.33479
G1 X143.846 Y133.247 E0.35058
G1 X144.412 Y133.05 E0.37848
G1 X145.244 Y132.798 E0.41896
G1 X145.815 Y132.65 E0.44643
G1 X146.143 Y132.574 E0.46211
G1 X146.727 Y132.455 E0.48986
G1 X147.323 Y132.354 E0.51801
G1 X147.714 Y132.301 E0.53638
G1 X148.386 Y132.227 E0.56786
G1 X148.801 Y132.192 E0.58725
G1 X149.138 Y132.173 E0.60297
G1 X149.709 Y132.155 E0.62957
G1 X150.322 Y132.155 E0.65811
G1 X150.914 Y132.176 E0.6857
G1 X151.525 Y132.218 E0.71422
G1 X152.368 Y132.31 E0.7537
G1 X152.984 Y132.403 E0.78271
G1 X153.316 Y132.463 E0.79842
G1 X153.878 Y132.579 E0.82514
G1 X154.719 Y132.788 E0.86549
G1 X155.302 Y132.958 E0.89377
G1 X155.622 Y133.061 E0.90942
G1 X156.182 Y133.258 E0.93707
G1 X156.749 Y133.478 E0.96539
G1 X157.542 Y133.825 E1.00569
G1 X158.069 Y134.081 E1.03297
G1 X158.603 Y134.363 E1.06109
G1 X159.107 Y134.651 E1.08812
G1 X159.634 Y134.976 E1.11695
G1 X160.137 Y135.31 E1.14507
G1 X160.415 Y135.506 E1.16091
G1 X160.883 Y135.854 E1.18806
G1 X161.197 Y136.104 E1.20675
G1 X161.715 Y136.538 E1.23822
G1 X161.997 Y136.786 E1.25571
G1 X162.457 Y137.218 E1.28509
G1 X162.963 Y137.736 E1.31881
G1 X163.417 Y138.235 E1.35022
G1 X163.875 Y138.775 E1.38319
G1 X164.127 Y139.096 E1.4022
G1 X164.529 Y139.638 E1.43362
G1 X164.754 Y139.958 E1.45183
G1 X165.081 Y140.456 E1.47957
G1 X165.397 Y140.974 E1.50783
G1 X165.694 Y141.503 E1.53608
G1 X165.965 Y142.023 E1.56338
G1 X166.274 Y142.678 E1.59711
G1 X166.54 Y143.299 E1.62856
G1 X166.7 Y143.703 E1.6488
G1 X166.892 Y144.24 E1.67535
G1 X166.998 Y144.561 E1.69109
G1 X167.164 Y145.108 E1.71771
G1 X167.387 Y145.973 E1.7593
G1 X167.511 Y146.552 E1.78688
G1 X167.573 Y146.883 E1.80256
G1 X167.667 Y147.471 E1.83029
G1 X167.77 Y148.34 E1.87103
G1 X167.815 Y148.932 E1.89868
G1 X167.841 Y149.524 E1.92627
G1 X167.847 Y150.138 E1.95486
G1 X167.841 Y150.476 E1.9706
G1 X167.815 Y151.068 E1.9982
G1 X167.77 Y151.656 E2.02566
G1 X167.702 Y152.274 E2.05461
G1 X167.573 Y153.117 E2.09432
G1 X167.46 Y153.697 E2.12183
G1 X167.387 Y154.027 E2.13757
G1 X167.24 Y154.614 E2.16575
G1 X167.071 Y155.203 E2.19428
G1 X166.957 Y155.56 E2.21173
G1 X166.735 Y156.197 E2.24314
G1 X166.592 Y156.574 E2.26192
G1 X166.364 Y157.123 E2.2896
G1 X166.113 Y157.674 E2.31779
G1 X165.965 Y157.977 E2.33349
G1 X165.694 Y158.497 E2.3608
G1 X165.391 Y159.035 E2.38955
G1 X165.087 Y159.534 E2.41676
G1 X164.763 Y160.029 E2.4443
G1 X164.531 Y160.36 E2.46313
G1 X164.129 Y160.902 E2.49455
G1 X163.8 Y161.315 E2.51913
G1 X163.361 Y161.83 E2.55065
G1 X162.882 Y162.354 E2.5837
G1 X162.435 Y162.803 E2.6132
G1 X162.01 Y163.202 E2.64035
G1 X161.714 Y163.463 E2.65873
G1 X161.197 Y163.896 E2.69013
G1 X160.887 Y164.142 E2.70855
G1 X160.405 Y164.5 E2.73651
G1 X159.928 Y164.831 E2.76355
G1 X159.391 Y165.177 E2.79329
G1 X159.101 Y165.352 E2.80906
G1 X158.605 Y165.635 E2.83566
G1 X158.069 Y165.919 E2.8639
G1 X157.542 Y166.175 E2.89118
G1 X157.174 Y166.34 E2.90996
G1 X156.55 Y166.6 E2.94144
G1 X155.873 Y166.854 E2.97511
G1 X155.295 Y167.044 E3.00344
G1 X154.92 Y167.154 E3.02164
G1 X154.267 Y167.328 E3.0531
G1 X153.878 Y167.421 E3.07173
G1 X153.316 Y167.537 E3.09845
G1 X152.984 Y167.597 E3.11416
G1 X152.368 Y167.69 E3.14317
G1 X151.525 Y167.782 E3.18265
G1 X150.914 Y167.824 E3.21117
G1 X150.322 Y167.845 E3.23875
G1 X149.709 Y167.845 E3.2673
G1 X149.137 Y167.827 E3.29395
G1 X148.801 Y167.808 E3.30962
G1 X148.388 Y167.773 E3.32892
G1 X147.715 Y167.699 E3.36044
G1 X147.319 Y167.645 E3.37905
G1 X146.759 Y167.551 E3.40549
G1 X146.12 Y167.422 E3.43585
G1 X145.447 Y167.255 E3.46814
G1 X144.798 Y167.071 E3.49955
G1 X144.29 Y166.908 E3.52439
G1 X143.655 Y166.68 E3.55581
G1 X143.28 Y166.534 E3.57455
G1 X142.733 Y166.301 E3.60223
G1 X142.427 Y166.161 E3.6179
G1 X141.892 Y165.899 E3.64564
G1 X141.265 Y165.563 E3.67876
G1 X140.933 Y165.37 E3.69664
G1 X140.422 Y165.057 E3.72455
G1 X139.868 Y164.694 E3.75539
G1 X139.323 Y164.302 E3.78665
G1 X139.043 Y164.086 E3.80311
G1 X138.518 Y163.662 E3.83454
G1 X138.213 Y163.402 E3.8532
G1 X137.769 Y162.998 E3.88115
G1 X137.316 Y162.556 E3.91062
G1 X136.847 Y162.061 E3.94238
G1 X136.4 Y161.556 E3.97378
G1 X135.925 Y160.976 E4.00869
G1 X135.566 Y160.499 E4.03649
G1 X135.348 Y160.189 E4.05413
G1 X134.972 Y159.627 E4.08562
G1 X134.688 Y159.17 E4.11067
G1 X134.352 Y158.584 E4.14213
G1 X134.152 Y158.211 E4.16183
G1 X133.897 Y157.697 E4.18855
G1 X133.754 Y157.39 E4.20432
G1 X133.524 Y156.862 E4.23114
G1 X133.296 Y156.289 E4.25985
G1 X133.095 Y155.725 E4.28773
G1 X132.913 Y155.159 E4.31542
G1 X132.746 Y154.566 E4.34411
G1 X132.656 Y154.204 E4.36148
G1 X132.509 Y153.545 E4.39292
G1 X132.412 Y153.026 E4.4175
G1 X132.31 Y152.359 E4.44892
G1 X132.259 Y151.963 E4.46751
G1 X132.203 Y151.353 E4.49604
G1 X132.169 Y150.785 E4.52253
G1 X132.152 Y150.17 E4.55118
G1 X132.157 Y149.554 E4.57986
G1 X132.169 Y149.216 E4.59561
G1 X132.203 Y148.648 E4.62211
G1 X132.26 Y148.033 E4.65087
G1 X132.375 Y147.189 E4.69053
G1 X132.482 Y146.584 E4.71914
G1 X132.604 Y146.007 E4.7466
G1 X132.683 Y145.677 E4.7624
G1 X132.835 Y145.108 E4.78983
G1 X133.092 Y144.284 E4.83002
G1 X133.296 Y143.711 E4.85834
G1 X133.418 Y143.396 E4.87407
G1 X133.653 Y142.835 E4.90239
G1 X133.812 Y142.488 E4.92016
G1 X134.107 Y141.882 E4.95155
G1 X134.44 Y141.255 E4.98461
G1 X134.653 Y140.889 E5.00432
G1 X135.009 Y140.315 E5.03577
G1 X135.231 Y139.978 E5.05457
G1 X135.566 Y139.501 E5.08171
G1 X135.767 Y139.23 E5.09742
G1 X136.138 Y138.757 E5.12541
G1 X136.524 Y138.297 E5.15337
G1 X137.104 Y137.661 E5.19345
G1 X137.525 Y137.235 E5.22134
G0 F6000 X137.626 Y137.698
G1 F1200 X138.046 Y137.29 E5.24861
G1 X138.492 Y136.886 E5.27663
G1 X138.758 Y136.66 E5.29288
G1 X139.282 Y136.235 E5.3243
G1 X139.57 Y136.013 E5.34123
G1 X140.076 Y135.649 E5.37025
G1 X140.544 Y135.336 E5.39647
G1 X141.16 Y134.959 E5.4301
G1 X141.75 Y134.628 E5.4616
G1 X142.062 Y134.463 E5.47803
G1 X142.594 Y134.202 E5.50563
G1 X143.144 Y133.956 E5.53368
G1 X143.67 Y133.741 E5.56014
G1 X143.987 Y133.621 E5.57592
G1 X144.541 Y133.428 E5.60324
G1 X145.346 Y133.185 E5.6424
G1 X145.906 Y133.04 E5.66933
G1 X146.234 Y132.964 E5.68501
G1 X146.804 Y132.848 E5.7121
G1 X147.387 Y132.749 E5.73963
G1 X147.758 Y132.698 E5.75707
G1 X148.43 Y132.624 E5.78855
G1 X149.16 Y132.573 E5.82262
G1 X149.982 Y132.552 E5.86091
G1 X150.561 Y132.561 E5.88788
G1 X151.157 Y132.591 E5.91566
G1 X151.718 Y132.637 E5.94187
G1 X152.053 Y132.673 E5.95756
G1 X152.647 Y132.754 E5.98548
G1 X153.465 Y132.9 E6.02417
G1 X154.049 Y133.029 E6.05202
G1 X154.609 Y133.172 E6.07893
G1 X155.179 Y133.339 E6.10659
G1 X155.729 Y133.52 E6.13355
G1 X156.287 Y133.725 E6.16123
G1 X156.819 Y133.94 E6.18795
G1 X157.369 Y134.185 E6.21599
G1 X157.885 Y134.436 E6.2427
G1 X158.407 Y134.712 E6.2702
G1 X158.9 Y134.993 E6.29662
G1 X159.188 Y135.167 E6.31229
G1 X159.696 Y135.494 E6.34042
G1 X160.184 Y135.833 E6.36809
G1 X160.642 Y136.174 E6.39468
G1 X160.94 Y136.411 E6.41241
G1 X161.458 Y136.845 E6.44388
G1 X161.972 Y137.307 E6.47606
G1 X162.416 Y137.742 E6.505
G1 X162.668 Y138.005 E6.52196
G1 X163.122 Y138.504 E6.55337
G1 X163.567 Y139.03 E6.58546
G1 X163.806 Y139.335 E6.6035
G1 X164.208 Y139.877 E6.63492
G1 X164.421 Y140.18 E6.65217
G1 X164.741 Y140.667 E6.6793
G1 X165.05 Y141.173 E6.70691
G1 X165.218 Y141.466 E6.72264
G1 X165.499 Y141.989 E6.75028
G1 X165.753 Y142.501 E6.77689
G1 X165.906 Y142.835 E6.794
G1 X166.172 Y143.456 E6.82546
G1 X166.324 Y143.839 E6.84465
G1 X166.439 Y144.155 E6.8603
G1 X166.618 Y144.687 E6.88644
G1 X166.78 Y145.222 E6.91247
G1 X166.94 Y145.822 E6.94138
G1 X167.069 Y146.39 E6.96851
G1 X167.18 Y146.957 E6.99541
G1 X167.272 Y147.532 E7.02252
G1 X167.345 Y148.113 E7.04979
G1 X167.416 Y148.952 E7.089
G1 X167.433 Y149.29 E7.10476
G1 X167.447 Y149.869 E7.13173
G1 X167.433 Y150.712 E7.17098
G1 X167.416 Y151.048 E7.18665
G1 X167.372 Y151.623 E7.2135
G1 X167.273 Y152.46 E7.25275
G1 X167.18 Y153.043 E7.28024
G1 X167.118 Y153.374 E7.29592
G1 X166.937 Y154.188 E7.33475
G1 X166.784 Y154.764 E7.3625
G1 X166.579 Y155.428 E7.39486
G1 X166.357 Y156.065 E7.42627
G1 X166.222 Y156.423 E7.44409
G1 X165.999 Y156.96 E7.47116
G1 X165.862 Y157.267 E7.48681
G1 X165.605 Y157.802 E7.51445
G1 X165.341 Y158.31 E7.54111
G1 X164.925 Y159.036 E7.58007
G1 X164.747 Y159.324 E7.59584
G1 X164.43 Y159.808 E7.62278
G1 X164.21 Y160.121 E7.64059
G1 X163.808 Y160.663 E7.67201
G1 X163.496 Y161.056 E7.69538
G1 X163.057 Y161.571 E7.72689
G1 X162.82 Y161.835 E7.74341
G1 X162.395 Y162.28 E7.77206
G1 X161.986 Y162.679 E7.79867
G1 X161.457 Y163.156 E7.83184
G1 X160.94 Y163.589 E7.86324
G1 X160.378 Y164.026 E7.89639
G1 X159.899 Y164.367 E7.92377
G1 X159.184 Y164.835 E7.96356
G1 X158.702 Y165.122 E7.98968
G1 X158.184 Y165.409 E8.01725
G1 X157.885 Y165.564 E8.03294
G1 X157.369 Y165.815 E8.05966
G1 X157.02 Y165.971 E8.07746
G1 X156.396 Y166.231 E8.10893
G1 X156.054 Y166.363 E8.126
G1 X155.494 Y166.56 E8.15365
G1 X154.817 Y166.768 E8.18662
G1 X154.164 Y166.942 E8.21809
G1 X153.465 Y167.1 E8.25146
G1 X152.647 Y167.246 E8.29015
G1 X152.053 Y167.327 E8.31807
G1 X151.718 Y167.363 E8.33376
G1 X150.897 Y167.425 E8.37209
G1 X150.319 Y167.445 E8.39902
G1 X149.72 Y167.445 E8.42692
G1 X149.159 Y167.427 E8.45305
G1 X148.432 Y167.376 E8.48699
G1 X147.759 Y167.302 E8.51851
G1 X147.05 Y167.197 E8.55189
G1 X146.502 Y167.094 E8.57785
G1 X145.884 Y166.955 E8.60735
G1 X144.908 Y166.686 E8.65449
G1 X144.425 Y166.532 E8.6781
G1 X143.79 Y166.304 E8.70951
G1 X143.434 Y166.165 E8.72731
G1 X142.899 Y165.937 E8.75439
G1 X142.371 Y165.691 E8.78151
G1 X141.821 Y165.411 E8.81025
G1 X141.457 Y165.212 E8.82957
G1 X141.142 Y165.029 E8.84653
G1 X140.371 Y164.55 E8.88879
G1 X139.832 Y164.18 E8.91924
G1 X139.295 Y163.775 E8.95056
G1 X138.77 Y163.351 E8.98198
G1 X138.229 Y162.879 E9.01541
G1 X137.801 Y162.474 E9.04285
G1 X137.369 Y162.035 E9.07153
G1 X137.147 Y161.796 E9.08672
G1 X136.7 Y161.291 E9.11812
G1 X136.448 Y160.99 E9.1364
G1 X136.088 Y160.531 E9.16356
G1 X135.681 Y159.967 E9.19595
G1 X135.305 Y159.405 E9.22743
G1 X135.035 Y158.971 E9.25123
G1 X134.699 Y158.385 E9.28269
G1 X134.509 Y158.031 E9.3014
G1 X134.26 Y157.529 E9.32749
G1 X134.024 Y157.015 E9.35383
G1 X133.791 Y156.46 E9.38185
G1 X133.669 Y156.145 E9.39758
G1 X133.472 Y155.593 E9.42487
G1 X133.295 Y155.039 E9.45196
G1 X133.132 Y154.461 E9.47992
G1 X133.047 Y154.117 E9.49642
G1 X132.9 Y153.458 E9.52786
G1 X132.807 Y152.966 E9.55117
G1 X132.705 Y152.299 E9.58259
G1 X132.623 Y151.586 E9.61601
G1 X132.58 Y150.99 E9.64384
G1 X132.557 Y150.433 E9.6698
G1 X132.552 Y149.831 E9.69783
G1 X132.58 Y149.011 E9.73603
G1 X132.624 Y148.409 E9.76414
G1 X132.689 Y147.814 E9.79201
G1 X132.769 Y147.255 E9.8183
G1 X132.873 Y146.665 E9.8462
G1 X132.993 Y146.1 E9.8731
G1 X133.072 Y145.77 E9.8889
G1 X133.221 Y145.213 E9.91574
G1 X133.4 Y144.626 E9.94432
G1 X133.581 Y144.096 E9.9704
G1 X133.791 Y143.54 E9.99807
G1 X134.021 Y142.992 E10.02575
G1 X134.171 Y142.663 E10.04258
G1 X134.466 Y142.057 E10.07397
G1 X134.791 Y141.447 E10.10615
G1 X134.993 Y141.1 E10.12485
G1 X135.349 Y140.526 E10.1563
G1 X135.559 Y140.206 E10.17412
G1 X135.887 Y139.74 E10.20066
G1 X136.088 Y139.469 E10.21637
G1 X136.451 Y139.006 E10.24376
G1 X136.992 Y138.371 E10.28261
G1 X137.39 Y137.94 E10.30992
G1 X137.626 Y137.698 E10.32566
G0 F6000 X138.079 Y137.813
G1 F1200 X138.507 Y137.408 E10.3531
G1 X139.01 Y136.97 E10.38416
G1 X139.534 Y136.545 E10.41558
G1 X140.079 Y136.135 E10.44733
G1 X140.58 Y135.791 E10.47563
G1 X141.043 Y135.495 E10.50122
G1 X141.356 Y135.308 E10.5182
G1 X141.946 Y134.977 E10.5497
G1 X142.241 Y134.821 E10.56524
G1 X142.761 Y134.566 E10.5922
G1 X143.297 Y134.325 E10.61957
G1 X143.812 Y134.115 E10.64547
G1 X144.129 Y133.995 E10.66125
G1 X144.67 Y133.807 E10.68792
G1 X145.449 Y133.571 E10.72582
G1 X145.776 Y133.484 E10.74158
G1 X146.324 Y133.354 E10.7678
G1 X146.881 Y133.24 E10.79428
G1 X147.451 Y133.144 E10.82119
G1 X147.802 Y133.096 E10.83769
G1 X148.474 Y133.022 E10.86917
G1 X148.846 Y132.991 E10.88655
G1 X149.391 Y132.963 E10.91196
G1 X149.73 Y132.954 E10.92775
G1 X150.315 Y132.955 E10.95499
G1 X150.88 Y132.975 E10.98132
G1 X151.675 Y133.035 E11.01844
G1 X152.01 Y133.071 E11.03413
G1 X152.59 Y133.15 E11.06139
G1 X153.382 Y133.291 E11.09885
G1 X153.952 Y133.417 E11.12603
G1 X154.5 Y133.557 E11.15236
G1 X154.824 Y133.649 E11.16805
G1 X155.377 Y133.823 E11.19504
G1 X156.139 Y134.096 E11.23273
G1 X156.659 Y134.307 E11.25886
G1 X157.196 Y134.546 E11.28623
G1 X157.701 Y134.791 E11.31237
G1 X158 Y134.946 E11.32805
G1 X158.506 Y135.227 E11.355
G1 X159.196 Y135.645 E11.39257
G1 X159.676 Y135.964 E11.4194
G1 X159.954 Y136.16 E11.43524
G1 X160.401 Y136.493 E11.4612
G1 X160.684 Y136.717 E11.478
G1 X161.202 Y137.151 E11.50947
G1 X161.701 Y137.601 E11.54076
G1 X162.133 Y138.025 E11.56894
G1 X162.372 Y138.274 E11.58502
G1 X162.826 Y138.773 E11.61643
G1 X163.258 Y139.284 E11.64759
G1 X163.484 Y139.573 E11.66467
G1 X163.886 Y140.115 E11.69609
G1 X164.088 Y140.402 E11.71243
G1 X164.401 Y140.878 E11.73896
G1 X164.703 Y141.372 E11.76592
G1 X164.987 Y141.877 E11.7929
G1 X165.246 Y142.374 E11.819
G1 X165.539 Y142.993 E11.85089
G1 X165.805 Y143.614 E11.88234
G1 X165.948 Y143.976 E11.90047
G1 X166.132 Y144.491 E11.92593
G1 X166.301 Y145.013 E11.95148
G1 X166.468 Y145.593 E11.97959
G1 X166.606 Y146.146 E12.00613
G1 X166.679 Y146.476 E12.02186
G1 X166.825 Y147.259 E12.05895
G1 X166.908 Y147.825 E12.08559
G1 X166.973 Y148.407 E12.11286
G1 X167.001 Y148.743 E12.12856
G1 X167.033 Y149.31 E12.155
G1 X167.047 Y149.876 E12.18136
G1 X167.041 Y150.462 E12.20865
G1 X167.016 Y151.028 E12.23503
G1 X166.973 Y151.59 E12.26128
G1 X166.877 Y152.4 E12.29926
G1 X166.786 Y152.97 E12.32614
G1 X166.679 Y153.524 E12.35241
G1 X166.55 Y154.089 E12.3794
G1 X166.466 Y154.415 E12.39507
G1 X166.304 Y154.976 E12.42226
G1 X166.201 Y155.297 E12.43796
G1 X165.979 Y155.934 E12.46937
G1 X165.851 Y156.272 E12.4862
G1 X165.633 Y156.797 E12.51267
G1 X165.394 Y157.323 E12.53957
G1 X165.246 Y157.626 E12.55527
G1 X164.987 Y158.123 E12.58137
G1 X164.697 Y158.636 E12.60881
G1 X164.406 Y159.113 E12.63483
G1 X164.097 Y159.586 E12.66114
G1 X163.888 Y159.883 E12.67805
G1 X163.486 Y160.425 E12.70947
G1 X163.191 Y160.796 E12.73154
G1 X162.752 Y161.311 E12.76305
G1 X162.529 Y161.561 E12.77865
G1 X162.114 Y161.996 E12.80665
G1 X161.714 Y162.386 E12.83266
G1 X161.201 Y162.849 E12.86484
G1 X160.684 Y163.282 E12.89624
G1 X160.137 Y163.707 E12.92849
G1 X159.669 Y164.04 E12.95524
G1 X159.206 Y164.349 E12.98116
G1 X158.688 Y164.667 E13.00946
G1 X158.213 Y164.938 E13.03493
G1 X157.701 Y165.209 E13.0619
G1 X157.196 Y165.454 E13.08804
G1 X156.866 Y165.602 E13.10488
G1 X156.242 Y165.862 E13.13635
G1 X155.602 Y166.101 E13.16817
G1 X155.051 Y166.282 E13.19517
