;FLAVOR:Marlin
;TIME:1956
;Filament used: 1.12945m
;Layer height: 0.2
;MINX:130.629
;MINY:130.58
;MINZ:0.28
;MAXX:169.552
;MAXY:169.557
;MAXZ:13.08
;POSTPROCESSED
;Generated with Cura_SteamEngine 4.12.1
M140 S80
M105
M190 S80
M82 ;absolute extrusion mode
M201 X500.00 Y500.00 Z100.00 E5000.00 ;Setup machine max acceleration
M203 X500.00 Y500.00 Z10.00 E50.00 ;Setup machine max feedrate
M204 P500.00 R1000.00 T500.00 ;Setup Print/Retract/Travel acceleration
M205 X8.00 Y8.00 Z0.40 E5.00 ;Setup Jerk
M220 S100 ;Reset Feedrate
M221 S100 ;Reset Flowrate
M140 S80 ; set bed temp
M190 S80 ; wait for bed temp
G28; home all 
G29;
G92 E0 ;Reset Extruder
;G1 Z2.0 F3000 ;Move Z Axis up
G1 X10.1 Y20 Z0.28 F5000.0 ;Move to start position
M104 S240.0 ; wait for extruder printing temp
M109 S240.0 ; wait for extruder printing temp
G1 X10.1 Y200.0 Z0.28 F1500.0 E15 ;Draw the first line
G1 X10.4 Y200.0 Z0.28 F5000.0 ;Move to side a little
G1 X10.4 Y20 Z0.28 F1500.0 E30 ;Draw the second line
G92 E0 ;Reset Extruder
G1 Z2.0 F3000 ;Move Z Axis up
G92 E0
G92 E0
G1 F1800 E-3
;LAYER_COUNT:65
;LAYER:0
M107
G0 F6000 X136.119 Y136.111 Z0.28
;TYPE:SKIRT
G1 F1800 E0
G1 F1200 X136.7 Y135.584 E0.03653
G1 X137.218 Y135.161 E0.06767
G1 X137.843 Y134.701 E0.1038
G1 X138.504 Y134.306 E0.13966
G1 X139.103 Y133.987 E0.17126
G1 X139.817 Y133.652 E0.20798
G1 X140.504 Y133.408 E0.24193
G1 X141.14 Y133.215 E0.27288
G1 X141.698 Y133.068 E0.29975
G1 X142.668 Y132.911 E0.3455
G1 X143.333 Y132.846 E0.37661
G1 X144.11 Y132.809 E0.41284
G1 X144.869 Y132.846 E0.44822
G1 X145.461 Y132.904 E0.47592
G1 X146.046 Y132.471 E0.50981
G1 X146.702 Y132.079 E0.54539
G1 X147.302 Y131.759 E0.57706
G1 X148.017 Y131.423 E0.61384
G1 X148.726 Y131.172 E0.64886
G1 X149.361 Y130.981 E0.67974
G1 X149.901 Y130.839 E0.70574
G1 X150.871 Y130.682 E0.7515
G1 X151.536 Y130.617 E0.78261
G1 X152.313 Y130.58 E0.81883
G1 X153.072 Y130.617 E0.85421
G1 X153.737 Y130.682 E0.88533
G1 X154.729 Y130.844 E0.93213
G1 X155.247 Y130.981 E0.95708
G1 X155.882 Y131.172 E0.98796
G1 X156.625 Y131.437 E1.02469
G1 X157.306 Y131.759 E1.05977
G1 X157.906 Y132.079 E1.09143
G1 X158.58 Y132.483 E1.12802
G1 X159.199 Y132.942 E1.1639
G1 X159.716 Y133.366 E1.19504
G1 X160.3 Y133.897 E1.23179
G1 X160.816 Y134.466 E1.26756
G1 X161.24 Y134.983 E1.29869
G1 X161.648 Y135.526 E1.33032
G1 X162.09 Y136.251 E1.36986
G1 X162.404 Y136.835 E1.40073
G1 X162.67 Y137.379 E1.42893
G1 X162.786 Y137.692 E1.44447
G1 X163.25 Y137.911 E1.46836
G1 X163.853 Y138.232 E1.50017
G1 X164.372 Y138.534 E1.52813
G1 X165.169 Y139.111 E1.57395
G1 X165.682 Y139.534 E1.60491
G1 X166.249 Y140.051 E1.64064
G1 X166.751 Y140.603 E1.67538
G1 X167.175 Y141.117 E1.70641
G1 X167.718 Y141.86 E1.74926
G1 X168.055 Y142.432 E1.78017
G1 X168.377 Y143.037 E1.81209
G1 X168.712 Y143.752 E1.84885
G1 X168.965 Y144.469 E1.88426
G1 X169.161 Y145.125 E1.91614
G1 X169.348 Y145.892 E1.9529
G1 X169.45 Y146.599 E1.98616
G1 X169.515 Y147.264 E2.01727
G1 X169.552 Y148.043 E2.05359
G1 X169.515 Y148.803 E2.08902
G1 X169.45 Y149.467 E2.12008
G1 X169.288 Y150.458 E2.16684
G1 X169.154 Y150.968 E2.1914
G1 X168.964 Y151.602 E2.22221
G1 X168.596 Y152.584 E2.27105
G1 X168.36 Y153.063 E2.29591
G1 X168.047 Y153.648 E2.3268
G1 X167.753 Y154.152 E2.35397
G1 X167.434 Y154.593 E2.37932
G1 X167.467 Y154.823 E2.39014
G1 X167.533 Y155.487 E2.42121
G1 X167.571 Y156.278 E2.45808
G1 X167.533 Y157.048 E2.49398
G1 X167.467 Y157.713 E2.5251
G1 X167.306 Y158.694 E2.57139
G1 X167.172 Y159.204 E2.59594
G1 X166.982 Y159.838 E2.62676
G1 X166.614 Y160.82 E2.67559
G1 X166.375 Y161.304 E2.70073
G1 X166.063 Y161.886 E2.73148
G1 X165.667 Y162.546 E2.76732
G1 X165.209 Y163.164 E2.80313
G1 X164.786 Y163.68 E2.8342
G1 X164.254 Y164.265 E2.87102
G1 X163.686 Y164.78 E2.90672
G1 X163.168 Y165.205 E2.93792
G1 X162.624 Y165.614 E2.96961
G1 X161.875 Y166.069 E3.01042
G1 X161.273 Y166.39 E3.04219
G1 X160.558 Y166.725 E3.07896
G1 X159.85 Y166.976 E3.11393
G1 X159.215 Y167.167 E3.14481
G1 X158.675 Y167.309 E3.17081
G1 X157.705 Y167.466 E3.21657
G1 X157.04 Y167.531 E3.24768
G1 X156.263 Y167.568 E3.2839
G1 X155.504 Y167.531 E3.31928
G1 X154.839 Y167.466 E3.3504
G1 X154.618 Y167.43 E3.36082
G1 X154.389 Y167.602 E3.37416
G1 X153.64 Y168.057 E3.41497
G1 X153.038 Y168.378 E3.44673
G1 X152.323 Y168.713 E3.4835
G1 X151.615 Y168.964 E3.51848
G1 X150.98 Y169.155 E3.54936
G1 X150.44 Y169.297 E3.57536
G1 X149.481 Y169.453 E3.6206
G1 X148.816 Y169.519 E3.65171
G1 X148.028 Y169.557 E3.68845
G1 X147.258 Y169.519 E3.72435
G1 X146.593 Y169.453 E3.75547
G1 X145.612 Y169.292 E3.80176
G1 X145.094 Y169.155 E3.82671
G1 X144.459 Y168.964 E3.85758
G1 X143.716 Y168.699 E3.89431
G1 X143.037 Y168.378 E3.92929
G1 X142.431 Y168.055 E3.96126
G1 X141.665 Y167.589 E4.00301
G1 X141.143 Y167.196 E4.03344
G1 X140.63 Y166.776 E4.06431
G1 X140.045 Y166.246 E4.10107
G1 X139.546 Y165.694 E4.13572
G1 X139.107 Y165.16 E4.1679
G1 X138.63 Y164.516 E4.20522
G1 X138.25 Y163.883 E4.2396
G1 X137.937 Y163.301 E4.27037
G1 X137.705 Y162.828 E4.2949
G1 X137.607 Y162.793 E4.29975
G1 X136.927 Y162.472 E4.33476
G1 X136.325 Y162.151 E4.36653
G1 X135.56 Y161.685 E4.40824
G1 X135.032 Y161.287 E4.43903
G1 X134.514 Y160.862 E4.47023
G1 X133.931 Y160.332 E4.50692
G1 X133.414 Y159.762 E4.54275
G1 X132.991 Y159.246 E4.57382
G1 X132.521 Y158.61 E4.61064
G1 X132.141 Y157.977 E4.64502
G1 X131.828 Y157.395 E4.67579
G1 X131.576 Y156.882 E4.70241
G1 X131.217 Y155.92 E4.75022
G1 X131.027 Y155.286 E4.78104
G1 X130.888 Y154.754 E4.80664
G1 X130.731 Y153.786 E4.8523
G1 X130.666 Y153.123 E4.88332
G1 X130.629 Y152.342 E4.91973
G1 X130.666 Y151.582 E4.95516
G1 X130.731 Y150.918 E4.98623
G1 X130.893 Y149.927 E5.03299
G1 X131.027 Y149.417 E5.05754
G1 X131.217 Y148.783 E5.08836
G1 X131.585 Y147.801 E5.13719
G1 X131.828 Y147.308 E5.16278
G1 X132.141 Y146.726 E5.19355
G1 X132.533 Y146.075 E5.22894
G1 X132.908 Y145.569 E5.25826
G1 X132.84 Y144.892 E5.28995
G1 X132.802 Y144.099 E5.32692
G1 X132.84 Y143.329 E5.36281
G1 X132.906 Y142.664 E5.39393
G1 X133.067 Y141.683 E5.44022
G1 X133.204 Y141.165 E5.46517
G1 X133.395 Y140.53 E5.49605
G1 X133.66 Y139.787 E5.53278
G1 X133.982 Y139.106 E5.56786
G1 X134.302 Y138.506 E5.59952
G1 X134.706 Y137.832 E5.63611
G1 X135.153 Y137.227 E5.67114
G1 X135.575 Y136.71 E5.70221
G1 X136.119 Y136.111 E5.73989
G0 F6000 X136.401 Y136.393
G1 F1200 X136.953 Y135.894 E5.77454
G1 X137.471 Y135.471 E5.80568
G1 X138.065 Y135.034 E5.84002
G1 X138.692 Y134.659 E5.87404
G1 X139.291 Y134.34 E5.90564
G1 X139.987 Y134.015 E5.9414
G1 X140.62 Y133.791 E5.97267
G1 X141.256 Y133.598 E6.00362
G1 X141.787 Y133.458 E6.02919
G1 X142.707 Y133.309 E6.07259
G1 X143.372 Y133.244 E6.1037
G1 X144.11 Y133.209 E6.1381
G1 X144.83 Y133.244 E6.17167
G1 X145.495 Y133.309 E6.20278
G1 X145.576 Y133.322 E6.2066
G1 X145.661 Y133.252 E6.21173
G1 X146.268 Y132.804 E6.24686
G1 X146.891 Y132.432 E6.28065
G1 X147.491 Y132.112 E6.31231
G1 X148.187 Y131.785 E6.34812
G1 X148.842 Y131.555 E6.38044
G1 X149.477 Y131.364 E6.41132
G1 X149.99 Y131.229 E6.43602
G1 X150.91 Y131.08 E6.47942
G1 X151.575 Y131.015 E6.51053
G1 X152.313 Y130.98 E6.54493
G1 X153.033 Y131.015 E6.5785
G1 X153.698 Y131.08 E6.60961
G1 X154.64 Y131.234 E6.65406
G1 X155.131 Y131.364 E6.67771
G1 X155.766 Y131.555 E6.70858
G1 X156.491 Y131.814 E6.74443
G1 X157.117 Y132.112 E6.77672
G1 X157.717 Y132.432 E6.80838
G1 X158.358 Y132.816 E6.84317
G1 X158.946 Y133.251 E6.87723
G1 X159.463 Y133.675 E6.90837
G1 X160.018 Y134.179 E6.94327
G1 X160.507 Y134.719 E6.9772
G1 X160.931 Y135.236 E7.00833
G1 X161.318 Y135.753 E7.0384
G1 X161.738 Y136.441 E7.07594
G1 X162.052 Y137.025 E7.10681
G1 X162.304 Y137.542 E7.13359
G1 X162.467 Y137.982 E7.15544
G1 X163.062 Y138.264 E7.1861
G1 X163.665 Y138.585 E7.21791
G1 X164.159 Y138.872 E7.24451
G1 X164.915 Y139.42 E7.28799
G1 X165.428 Y139.843 E7.31895
G1 X165.967 Y140.333 E7.35287
G1 X166.442 Y140.857 E7.3858
G1 X166.866 Y141.371 E7.41683
G1 X167.382 Y142.077 E7.45755
G1 X167.701 Y142.62 E7.48687
G1 X168.023 Y143.225 E7.51879
G1 X168.349 Y143.922 E7.55462
G1 X168.581 Y144.584 E7.58728
G1 X168.777 Y145.24 E7.61916
G1 X168.959 Y145.987 E7.65496
G1 X169.052 Y146.638 E7.68558
G1 X169.117 Y147.303 E7.71669
G1 X169.152 Y148.043 E7.75119
G1 X169.117 Y148.764 E7.7848
G1 X169.052 Y149.428 E7.81587
G1 X168.898 Y150.369 E7.86027
G1 X168.771 Y150.853 E7.88357
G1 X168.581 Y151.487 E7.91439
G1 X168.231 Y152.42 E7.96079
G1 X168.008 Y152.874 E7.98434
G1 X167.695 Y153.459 E8.01524
G1 X167.415 Y153.939 E8.04111
G1 X167.015 Y154.49 E8.07282
G1 X167.069 Y154.862 E8.09032
G1 X167.135 Y155.526 E8.12139
G1 X167.171 Y156.278 E8.15645
G1 X167.135 Y157.009 E8.19053
G1 X167.069 Y157.674 E8.22164
G1 X166.916 Y158.605 E8.26558
G1 X166.789 Y159.089 E8.28888
G1 X166.599 Y159.723 E8.31969
G1 X166.249 Y160.656 E8.3661
G1 X166.023 Y161.115 E8.38992
G1 X165.711 Y161.697 E8.42067
G1 X165.334 Y162.324 E8.45473
G1 X164.9 Y162.91 E8.48869
G1 X164.477 Y163.426 E8.51976
G1 X163.972 Y163.983 E8.55477
G1 X163.433 Y164.471 E8.58862
G1 X162.915 Y164.896 E8.61982
G1 X162.397 Y165.284 E8.64996
G1 X161.687 Y165.716 E8.68866
G1 X161.085 Y166.037 E8.72043
G1 X160.388 Y166.363 E8.75626
G1 X159.734 Y166.593 E8.78854
G1 X159.099 Y166.784 E8.81942
G1 X158.586 Y166.919 E8.84412
G1 X157.666 Y167.068 E8.88751
G1 X157.001 Y167.133 E8.91863
G1 X156.263 Y167.168 E8.95303
G1 X155.543 Y167.133 E8.98659
G1 X154.878 Y167.068 E9.01771
G1 X154.514 Y167.009 E9.03488
G1 X154.162 Y167.272 E9.05534
G1 X153.452 Y167.704 E9.09404
G1 X152.85 Y168.025 E9.12581
G1 X152.153 Y168.351 E9.16164
G1 X151.499 Y168.581 E9.19392
G1 X150.864 Y168.772 E9.22479
G1 X150.351 Y168.907 E9.24949
G1 X149.442 Y169.055 E9.29238
G1 X148.777 Y169.121 E9.3235
G1 X148.028 Y169.157 E9.35841
G1 X147.297 Y169.121 E9.39249
G1 X146.632 Y169.055 E9.42361
G1 X145.701 Y168.902 E9.46754
G1 X145.21 Y168.772 E9.49119
G1 X144.575 Y168.581 E9.52207
G1 X143.85 Y168.322 E9.55792
G1 X143.225 Y168.025 E9.59014
G1 X142.619 Y167.702 E9.62212
G1 X141.892 Y167.259 E9.66176
G1 X141.396 Y166.887 E9.69063
G1 X140.883 Y166.467 E9.7215
G1 X140.314 Y165.949 E9.75733
G1 X139.855 Y165.44 E9.78924
G1 X139.416 Y164.906 E9.82143
G1 X138.963 Y164.294 E9.85689
G1 X138.603 Y163.694 E9.88947
G1 X138.29 Y163.112 E9.92024
G1 X138.037 Y162.594 E9.94708
G1 X138.006 Y162.511 E9.95121
G1 X137.741 Y162.416 E9.96432
G1 X137.115 Y162.119 E9.99658
G1 X136.513 Y161.798 E10.02835
G1 X135.787 Y161.355 E10.06795
G1 X135.285 Y160.978 E10.09718
G1 X134.767 Y160.553 E10.12838
G1 X134.213 Y160.05 E10.16323
G1 X133.723 Y159.508 E10.19725
G1 X133.3 Y158.992 E10.22832
G1 X132.854 Y158.388 E10.26328
G1 X132.494 Y157.788 E10.29586
G1 X132.181 Y157.206 E10.32663
G1 X131.941 Y156.718 E10.35196
G1 X131.6 Y155.805 E10.39734
G1 X131.41 Y155.171 E10.42816
G1 X131.278 Y154.665 E10.45251
G1 X131.129 Y153.747 E10.49581
G1 X131.064 Y153.084 E10.52683
G1 X131.029 Y152.342 E10.56142
G1 X131.064 Y151.621 E10.59503
G1 X131.129 Y150.957 E10.6261
G1 X131.283 Y150.016 E10.6705
G1 X131.41 Y149.532 E10.6938
G1 X131.6 Y148.898 E10.72462
G1 X131.95 Y147.965 E10.77102
G1 X132.181 Y147.497 E10.79532
G1 X132.494 Y146.915 E10.82609
G1 X132.866 Y146.297 E10.85968
G1 X133.3 Y145.711 E10.89363
G1 X133.33 Y145.674 E10.89585
G1 X133.304 Y145.515 E10.90335
G1 X133.238 Y144.852 E10.93438
G1 X133.202 Y144.099 E10.96948
G1 X133.238 Y143.368 E11.00356
G1 X133.304 Y142.703 E11.03468
G1 X133.457 Y141.772 E11.07861
G1 X133.587 Y141.281 E11.10226
G1 X133.778 Y140.646 E11.13314
G1 X134.037 Y139.921 E11.16899
G1 X134.335 Y139.295 E11.20127
G1 X134.655 Y138.695 E11.23293
G1 X135.039 Y138.054 E11.26773
G1 X135.463 Y137.48 E11.30096
G1 X135.885 Y136.963 E11.33203
G1 X136.401 Y136.393 E11.36783
G0 F6000 X136.684 Y136.676
G1 F1200 X137.206 Y136.204 E11.4006
G1 X137.724 Y135.781 E11.43175
G1 X138.287 Y135.367 E11.46429
G1 X138.88 Y135.013 E11.49644
G1 X139.479 Y134.694 E11.52804
G1 X140.157 Y134.378 E11.56288
G1 X140.736 Y134.174 E11.59146
G1 X141.372 Y133.981 E11.62241
G1 X141.876 Y133.848 E11.64668
G1 X142.746 Y133.707 E11.68772
G1 X143.411 Y133.642 E11.71883
G1 X144.11 Y133.609 E11.75142
G1 X144.791 Y133.642 E11.78317
G1 X145.456 Y133.707 E11.81428
G1 X145.691 Y133.745 E11.82536
G1 X145.915 Y133.561 E11.83886
G1 X146.49 Y133.137 E11.87213
G1 X147.079 Y132.785 E11.90408
G1 X147.679 Y132.465 E11.93574
G1 X148.357 Y132.148 E11.97059
G1 X148.957 Y131.938 E12.00019
G1 X149.592 Y131.747 E12.03107
G1 X150.079 Y131.619 E12.05452
G1 X150.949 Y131.478 E12.09556
G1 X151.614 Y131.413 E12.12667
G1 X152.313 Y131.38 E12.15925
G1 X152.994 Y131.413 E12.191
G1 X153.659 Y131.478 E12.22211
G1 X154.551 Y131.624 E12.2642
G1 X155.016 Y131.747 E12.2866
G1 X155.651 Y131.938 E12.31748
G1 X156.355 Y132.191 E12.35231
G1 X156.929 Y132.465 E12.38193
G1 X157.529 Y132.785 E12.41359
G1 X158.136 Y133.149 E12.44655
G1 X158.692 Y133.56 E12.47874
G1 X159.209 Y133.984 E12.50988
G1 X159.735 Y134.462 E12.54297
G1 X160.198 Y134.973 E12.57508
G1 X160.622 Y135.49 E12.60621
G1 X160.988 Y135.979 E12.63466
G1 X161.385 Y136.63 E12.67016
G1 X161.699 Y137.214 E12.70104
G1 X161.939 Y137.704 E12.72644
G1 X162.157 Y138.293 E12.75569
G1 X162.302 Y138.345 E12.76286
G1 X162.874 Y138.617 E12.79235
G1 X163.477 Y138.938 E12.82416
G1 X163.945 Y139.211 E12.84939
G1 X164.66 Y139.728 E12.89048
G1 X165.173 Y140.151 E12.92144
G1 X165.684 Y140.616 E12.95361
G1 X166.134 Y141.112 E12.98479
G1 X166.558 Y141.626 E13.01582
G1 X167.046 Y142.294 E13.05434
G1 X167.348 Y142.808 E13.0821
G1 X167.67 Y143.413 E13.11401
G1 X167.986 Y144.091 E13.14884
G1 X168.198 Y144.698 E13.17878
G1 X168.394 Y145.354 E13.21066
G1 X168.57 Y146.081 E13.24549
G1 X168.654 Y146.677 E13.27352
G1 X168.719 Y147.342 E13.30463
G1 X168.752 Y148.043 E13.33731
G1 X168.719 Y148.725 E13.3691
G1 X168.654 Y149.389 E13.40017
G1 X168.508 Y150.28 E13.44221
G1 X168.387 Y150.738 E13.46427
G1 X168.197 Y151.372 E13.49509
G1 X167.875 Y152.236 E13.53802
G1 X167.655 Y152.685 E13.56131
G1 X167.342 Y153.27 E13.5922
G1 X167.076 Y153.725 E13.61674
G1 X166.598 Y154.386 E13.65472
G1 X166.671 Y154.902 E13.67899
G1 X166.737 Y155.566 E13.71006
G1 X166.771 Y156.278 E13.74325
G1 X166.737 Y156.969 E13.77547
G1 X166.671 Y157.634 E13.80659
G1 X166.526 Y158.516 E13.84821
G1 X166.405 Y158.974 E13.87026
G1 X166.215 Y159.608 E13.90108
G1 X165.893 Y160.472 E13.94402
G1 X165.67 Y160.926 E13.96757
G1 X165.358 Y161.508 E13.99832
G1 X165.001 Y162.102 E14.03059
G1 X164.59 Y162.657 E14.06275
G1 X164.167 Y163.173 E14.09382
G1 X163.689 Y163.7 E14.12695
G1 X163.179 Y164.162 E14.15899
G1 X162.661 Y164.587 E14.19019
G1 X162.171 Y164.954 E14.21869
G1 X161.499 Y165.363 E14.25533
G1 X160.897 Y165.684 E14.28709
G1 X160.219 Y166 E14.32192
G1 X159.619 Y166.21 E14.35153
G1 X158.984 Y166.401 E14.3824
G1 X158.497 Y166.529 E14.40585
G1 X157.627 Y166.67 E14.44689
G1 X156.962 Y166.735 E14.478
G1 X156.263 Y166.768 E14.51059
G1 X155.582 Y166.735 E14.54233
G1 X154.917 Y166.67 E14.57345
G1 X154.409 Y166.588 E14.59741
G1 X153.936 Y166.942 E14.62492
G1 X153.264 Y167.351 E14.66155
G1 X152.662 Y167.672 E14.69332
G1 X151.984 Y167.988 E14.72815
G1 X151.384 Y168.198 E14.75775
G1 X150.749 Y168.389 E14.78862
G1 X150.262 Y168.517 E14.81207
G1 X149.402 Y168.657 E14.85264
G1 X148.737 Y168.723 E14.88376
G1 X148.028 Y168.757 E14.91681
G1 X147.337 Y168.723 E14.94903
G1 X146.672 Y168.657 E14.98014
G1 X145.79 Y168.512 E15.02177
G1 X145.325 Y168.389 E15.04416
G1 X144.69 Y168.198 E15.07504
G1 X143.986 Y167.945 E15.10987
G1 X143.413 Y167.672 E15.13943
G1 X142.807 Y167.349 E15.1714
G1 X142.118 Y166.929 E15.20898
G1 X141.65 Y166.577 E15.23625
G1 X141.137 Y166.157 E15.26712
G1 X140.584 Y165.653 E15.30196
G1 X140.164 Y165.186 E15.3312
G1 X139.725 Y164.652 E15.36339
G1 X139.296 Y164.072 E15.39699
G1 X138.955 Y163.505 E15.42779
G1 X138.642 Y162.923 E15.45857
G1 X138.402 Y162.432 E15.48401
G1 X138.315 Y162.196 E15.49573
G1 X137.877 Y162.039 E15.51739
G1 X137.303 Y161.766 E15.54699
G1 X136.701 Y161.445 E15.57876
G1 X136.013 Y161.025 E15.61629
G1 X135.539 Y160.669 E15.64389
G1 X135.021 Y160.244 E15.67509
G1 X134.496 Y159.767 E15.70812
G1 X134.033 Y159.255 E15.74027
G1 X133.61 Y158.739 E15.77133
