;FLAVOR:Marlin
;TIME:514
;Filament used: 0.263965m
;Layer height: 0.2
;MINX:128.748
;MINY:128.748
;MINZ:0.2
;MAXX:171.252
;MAXY:171.252
;MAXZ:3
;Generated with Cura_SteamEngine 4.12.1
M140 S95
M105
M190 S95
M82 ;absolute extrusion mode
M201 X500.00 Y500.00 Z100.00 E5000.00 ;Setup machine max acceleration
M203 X500.00 Y500.00 Z10.00 E50.00 ;Setup machine max feedrate
M204 P500.00 R1000.00 T500.00 ;Setup Print/Retract/Travel acceleration
M205 X8.00 Y8.00 Z0.40 E5.00 ;Setup Jerk
M220 S100 ;Reset Feedrate
M221 S100 ;Reset Flowrate
M140 S95 ; set bed temp
M190 S95 ; wait for bed temp
G28; home all 
G29;
G92 E0 ;Reset Extruder
G1 Z2.0 F3000 ;Move Z Axis up
G1 X10.1 Y20 Z0.28 F5000.0 ;Move to start position
M104 S230 ; wait for extruder printing temp
M109 S230 ; wait for extruder printing temp
G1 X10.1 Y200.0 Z0.28 F1500.0 E15 ;Draw the first line
G1 X10.4 Y200.0 Z0.28 F5000.0 ;Move to side a little
G1 X10.4 Y20 Z0.28 F1500.0 E30 ;Draw the second line
G92 E0 ;Reset Extruder
G1 Z2.0 F3000 ;Move Z Axis up
G92 E0
G92 E0
;LAYER_COUNT:15
;LAYER:0
M107
G0 F6000 X131.714 Y139.922 Z0.2
;TYPE:SKIRT
G1 F1200 X132.247 Y139.439 E0.02392
G1 X132.587 Y139.159 E0.03857
G1 X133.222 Y138.688 E0.06487
G1 X133.863 Y138.304 E0.08972
G1 X134.255 Y138.094 E0.10451
G1 X134.969 Y137.757 E0.13077
G1 X135.68 Y137.504 E0.15587
G1 X136.1 Y137.377 E0.17047
G1 X136.806 Y137.202 E0.19466
G1 X137.016 Y136.972 E0.20502
G1 X137.549 Y136.489 E0.22894
G1 X137.889 Y136.209 E0.24359
G1 X138.524 Y135.738 E0.26989
G1 X139.165 Y135.354 E0.29474
G1 X139.557 Y135.144 E0.30953
G1 X140.271 Y134.807 E0.33579
G1 X140.982 Y134.554 E0.36089
G1 X141.402 Y134.427 E0.37549
G1 X142.169 Y134.237 E0.40177
G1 X142.901 Y134.13 E0.42637
G1 X143.341 Y134.087 E0.44108
G1 X144.103 Y134.051 E0.46645
G1 X144.204 Y133.863 E0.47355
G1 X144.612 Y133.186 E0.49984
G1 X145.056 Y132.591 E0.52453
G1 X145.334 Y132.253 E0.53909
G1 X145.866 Y131.67 E0.56534
G1 X146.399 Y131.187 E0.58926
G1 X146.739 Y130.907 E0.60391
G1 X147.374 Y130.436 E0.6302
G1 X148.015 Y130.052 E0.65506
G1 X148.407 Y129.842 E0.66985
G1 X149.121 Y129.505 E0.69611
G1 X149.832 Y129.252 E0.72121
G1 X150.252 Y129.125 E0.7358
G1 X151.019 Y128.935 E0.76208
G1 X151.751 Y128.828 E0.78669
G1 X152.191 Y128.785 E0.80139
G1 X152.98 Y128.748 E0.82767
G1 X153.709 Y128.785 E0.85194
G1 X154.149 Y128.828 E0.86665
G1 X154.93 Y128.944 E0.89291
G1 X155.648 Y129.125 E0.91754
G1 X156.068 Y129.252 E0.93213
G1 X156.811 Y129.518 E0.95838
G1 X157.493 Y129.842 E0.98349
G1 X157.885 Y130.052 E0.99828
G1 X158.562 Y130.46 E1.02457
G1 X159.157 Y130.904 E1.04926
G1 X159.495 Y131.182 E1.06382
G1 X160.078 Y131.714 E1.09007
G1 X160.561 Y132.247 E1.11399
G1 X160.841 Y132.587 E1.12864
G1 X161.312 Y133.222 E1.15494
G1 X161.696 Y133.863 E1.17979
G1 X161.906 Y134.255 E1.19458
G1 X162.243 Y134.969 E1.22084
G1 X162.495 Y135.675 E1.24578
G1 X162.622 Y136.094 E1.26034
G1 X162.799 Y136.807 E1.28477
G1 X163.028 Y137.016 E1.29508
G1 X163.511 Y137.549 E1.31901
G1 X163.791 Y137.889 E1.33366
G1 X164.262 Y138.524 E1.35995
G1 X164.646 Y139.165 E1.38481
G1 X164.856 Y139.557 E1.3996
G1 X165.193 Y140.271 E1.42586
G1 X165.445 Y140.977 E1.45079
G1 X165.572 Y141.396 E1.46535
G1 X165.762 Y142.163 E1.49163
G1 X165.87 Y142.899 E1.51638
G1 X165.913 Y143.338 E1.53105
G1 X165.949 Y144.103 E1.55652
G1 X166.137 Y144.204 E1.56362
G1 X166.814 Y144.612 E1.58991
G1 X167.409 Y145.056 E1.6146
G1 X167.747 Y145.334 E1.62916
G1 X168.33 Y145.866 E1.65541
G1 X168.813 Y146.399 E1.67933
G1 X169.093 Y146.739 E1.69398
G1 X169.564 Y147.374 E1.72027
G1 X169.948 Y148.015 E1.74513
G1 X170.158 Y148.407 E1.75992
G1 X170.495 Y149.121 E1.78618
G1 X170.747 Y149.827 E1.81111
G1 X170.874 Y150.246 E1.82567
G1 X171.064 Y151.013 E1.85195
G1 X171.172 Y151.749 E1.8767
G1 X171.215 Y152.188 E1.89137
G1 X171.252 Y152.976 E1.91761
G1 X171.215 Y153.703 E1.94182
G1 X171.172 Y154.145 E1.95659
G1 X171.056 Y154.926 E1.98285
G1 X170.875 Y155.648 E2.00761
G1 X170.748 Y156.068 E2.0222
G1 X170.482 Y156.811 E2.04845
G1 X170.161 Y157.487 E2.07334
G1 X169.952 Y157.878 E2.08808
G1 X169.545 Y158.555 E2.11436
G1 X169.096 Y159.158 E2.13936
G1 X168.817 Y159.497 E2.15396
G1 X168.285 Y160.08 E2.18021
G1 X167.753 Y160.561 E2.20407
G1 X167.413 Y160.841 E2.21872
G1 X166.778 Y161.312 E2.24501
G1 X166.137 Y161.696 E2.26987
G1 X165.745 Y161.906 E2.28466
G1 X165.031 Y162.243 E2.31092
G1 X164.32 Y162.496 E2.33602
G1 X163.9 Y162.623 E2.35061
G1 X163.195 Y162.798 E2.37477
G1 X162.983 Y163.03 E2.38523
G1 X162.451 Y163.511 E2.40908
G1 X162.111 Y163.791 E2.42373
G1 X161.476 Y164.262 E2.45003
G1 X160.835 Y164.646 E2.47488
G1 X160.443 Y164.856 E2.48967
G1 X159.729 Y165.193 E2.51593
G1 X159.018 Y165.446 E2.54103
G1 X158.598 Y165.573 E2.55562
G1 X157.831 Y165.763 E2.5819
G1 X157.099 Y165.87 E2.60651
G1 X156.659 Y165.913 E2.62121
G1 X155.897 Y165.949 E2.64659
G1 X155.8 Y166.13 E2.65342
G1 X155.393 Y166.807 E2.67969
G1 X154.944 Y167.41 E2.70469
G1 X154.665 Y167.749 E2.7193
G1 X154.133 Y168.332 E2.74555
G1 X153.601 Y168.813 E2.7694
G1 X153.261 Y169.093 E2.78405
G1 X152.626 Y169.564 E2.81035
G1 X151.985 Y169.948 E2.8352
G1 X151.593 Y170.158 E2.84999
G1 X150.879 Y170.495 E2.87625
G1 X150.168 Y170.748 E2.90135
G1 X149.748 Y170.875 E2.91595
G1 X148.981 Y171.065 E2.94223
G1 X148.249 Y171.172 E2.96683
G1 X147.809 Y171.215 E2.98154
G1 X147.02 Y171.252 E3.00781
G1 X146.291 Y171.215 E3.03209
G1 X145.851 Y171.172 E3.04679
G1 X145.07 Y171.056 E3.07305
G1 X144.352 Y170.875 E3.09768
G1 X143.932 Y170.748 E3.11227
G1 X143.189 Y170.482 E3.13852
G1 X142.507 Y170.158 E3.16363
G1 X142.115 Y169.948 E3.17843
G1 X141.438 Y169.54 E3.20472
G1 X140.839 Y169.093 E3.22957
G1 X140.499 Y168.813 E3.24422
G1 X139.916 Y168.281 E3.27047
G1 X139.435 Y167.749 E3.29433
G1 X139.156 Y167.41 E3.30893
G1 X138.686 Y166.775 E3.33521
G1 X138.3 Y166.13 E3.36021
G1 X138.091 Y165.739 E3.37495
G1 X137.755 Y165.025 E3.4012
G1 X137.504 Y164.32 E3.42609
G1 X137.377 Y163.9 E3.44068
G1 X137.202 Y163.195 E3.46484
G1 X136.966 Y162.979 E3.47548
G1 X136.485 Y162.447 E3.49934
G1 X136.206 Y162.108 E3.51394
G1 X135.736 Y161.473 E3.54022
G1 X135.35 Y160.828 E3.56522
G1 X135.141 Y160.437 E3.57996
G1 X134.805 Y159.723 E3.60621
G1 X134.554 Y159.018 E3.6311
G1 X134.427 Y158.598 E3.64569
G1 X134.237 Y157.831 E3.67198
G1 X134.13 Y157.102 E3.69648
G1 X134.087 Y156.664 E3.71112
G1 X134.051 Y155.897 E3.73666
G1 X133.863 Y155.796 E3.74376
G1 X133.186 Y155.388 E3.77005
G1 X132.587 Y154.941 E3.79491
G1 X132.247 Y154.661 E3.80956
G1 X131.664 Y154.129 E3.83581
G1 X131.183 Y153.597 E3.85966
G1 X130.904 Y153.258 E3.87426
G1 X130.434 Y152.623 E3.90054
G1 X130.048 Y151.978 E3.92554
G1 X129.839 Y151.587 E3.94029
G1 X129.503 Y150.873 E3.96653
G1 X129.252 Y150.168 E3.99142
G1 X129.125 Y149.748 E4.00602
G1 X128.935 Y148.981 E4.0323
G1 X128.828 Y148.252 E4.0568
G1 X128.785 Y147.814 E4.07144
G1 X128.748 Y147.025 E4.09771
G1 X128.784 Y146.298 E4.12192
G1 X128.827 Y145.855 E4.13673
G1 X128.943 Y145.074 E4.16299
G1 X129.126 Y144.346 E4.18795
G1 X129.253 Y143.927 E4.20252
G1 X129.52 Y143.184 E4.22878
G1 X129.842 Y142.507 E4.25371
G1 X130.052 Y142.115 E4.2685
G1 X130.46 Y141.438 E4.29479
G1 X130.904 Y140.843 E4.31948
G1 X131.182 Y140.505 E4.33404
G1 X131.714 Y139.922 E4.36029
G0 F6000 X132.01 Y140.191
G1 F1200 X132.502 Y139.748 E4.38231
G1 X132.842 Y139.468 E4.39696
G1 X133.46 Y139.01 E4.42254
G1 X134.052 Y138.657 E4.44547
G1 X134.444 Y138.447 E4.46026
G1 X135.14 Y138.12 E4.48584
G1 X135.796 Y137.887 E4.50899
G1 X136.216 Y137.76 E4.52358
G1 X136.963 Y137.576 E4.54917
G1 X137.012 Y137.569 E4.55082
G1 X137.312 Y137.241 E4.5656
G1 X137.804 Y136.798 E4.58762
G1 X138.144 Y136.518 E4.60227
G1 X138.762 Y136.06 E4.62786
G1 X139.354 Y135.707 E4.65078
G1 X139.746 Y135.497 E4.66557
G1 X140.442 Y135.17 E4.69115
G1 X141.098 Y134.937 E4.7143
G1 X141.518 Y134.81 E4.7289
G1 X142.265 Y134.626 E4.75448
G1 X142.94 Y134.528 E4.77717
G1 X143.38 Y134.485 E4.79188
G1 X144.149 Y134.45 E4.81748
G1 X144.347 Y134.444 E4.82407
G1 X144.557 Y134.052 E4.83886
G1 X144.955 Y133.393 E4.86446
G1 X145.365 Y132.845 E4.88723
G1 X145.643 Y132.507 E4.90178
G1 X146.162 Y131.939 E4.92737
G1 X146.654 Y131.496 E4.94939
G1 X146.994 Y131.216 E4.96404
G1 X147.612 Y130.758 E4.98963
G1 X148.204 Y130.405 E5.01255
G1 X148.596 Y130.195 E5.02734
G1 X149.292 Y129.868 E5.05292
G1 X149.948 Y129.635 E5.07607
G1 X150.368 Y129.508 E5.09067
G1 X151.115 Y129.324 E5.11626
G1 X151.79 Y129.226 E5.13894
G1 X152.23 Y129.183 E5.15365
G1 X152.999 Y129.148 E5.17925
G1 X153.67 Y129.183 E5.2016
G1 X154.11 Y129.226 E5.2163
G1 X154.87 Y129.341 E5.24187
G1 X155.532 Y129.508 E5.26457
G1 X155.952 Y129.635 E5.27917
G1 X156.676 Y129.895 E5.30475
G1 X157.304 Y130.195 E5.3279
G1 X157.696 Y130.405 E5.34269
G1 X158.355 Y130.803 E5.3683
G1 X158.903 Y131.213 E5.39106
G1 X159.241 Y131.491 E5.40562
G1 X159.809 Y132.01 E5.43121
G1 X160.252 Y132.502 E5.45323
G1 X160.532 Y132.842 E5.46788
G1 X160.99 Y133.46 E5.49346
G1 X161.343 Y134.052 E5.51639
G1 X161.553 Y134.444 E5.53118
G1 X161.88 Y135.14 E5.55676
G1 X162.112 Y135.791 E5.57974
G1 X162.239 Y136.21 E5.5943
G1 X162.423 Y136.957 E5.61989
G1 X162.431 Y137.012 E5.62174
G1 X162.759 Y137.312 E5.63652
G1 X163.202 Y137.804 E5.65854
G1 X163.482 Y138.144 E5.67319
G1 X163.94 Y138.762 E5.69878
G1 X164.293 Y139.354 E5.7217
G1 X164.503 Y139.746 E5.73649
G1 X164.83 Y140.442 E5.76207
G1 X165.062 Y141.093 E5.78506
G1 X165.189 Y141.512 E5.79962
G1 X165.373 Y142.259 E5.82521
G1 X165.472 Y142.938 E5.84803
G1 X165.515 Y143.377 E5.8627
G1 X165.55 Y144.145 E5.88827
G1 X165.556 Y144.347 E5.89499
G1 X165.948 Y144.557 E5.90978
G1 X166.607 Y144.955 E5.93539
G1 X167.155 Y145.365 E5.95815
G1 X167.493 Y145.643 E5.97271
G1 X168.061 Y146.162 E5.9983
G1 X168.504 Y146.654 E6.02032
G1 X168.784 Y146.994 E6.03497
G1 X169.242 Y147.612 E6.06055
G1 X169.595 Y148.204 E6.08348
G1 X169.805 Y148.596 E6.09827
G1 X170.132 Y149.292 E6.12384
G1 X170.364 Y149.943 E6.14683
G1 X170.491 Y150.362 E6.16139
G1 X170.675 Y151.109 E6.18698
G1 X170.774 Y151.788 E6.2098
G1 X170.817 Y152.227 E6.22447
G1 X170.852 Y152.995 E6.25004
G1 X170.817 Y153.665 E6.27236
G1 X170.774 Y154.107 E6.28713
G1 X170.66 Y154.867 E6.31269
G1 X170.492 Y155.532 E6.3355
G1 X170.365 Y155.952 E6.3501
G1 X170.105 Y156.676 E6.37568
G1 X169.808 Y157.298 E6.39861
G1 X169.599 Y157.689 E6.41335
G1 X169.202 Y158.348 E6.43894
G1 X168.787 Y158.903 E6.46199
G1 X168.508 Y159.242 E6.47659
G1 X167.989 Y159.81 E6.50219
G1 X167.498 Y160.252 E6.52416
G1 X167.158 Y160.532 E6.53881
G1 X166.54 Y160.99 E6.56439
G1 X165.948 Y161.343 E6.58732
G1 X165.556 Y161.553 E6.60211
G1 X164.86 Y161.88 E6.62768
G1 X164.204 Y162.113 E6.65084
G1 X163.784 Y162.24 E6.66543
G1 X163.037 Y162.424 E6.69102
G1 X162.987 Y162.431 E6.6927
G1 X162.687 Y162.76 E6.70751
G1 X162.196 Y163.202 E6.72948
G1 X161.856 Y163.482 E6.74413
G1 X161.238 Y163.94 E6.76971
G1 X160.646 Y164.293 E6.79264
G1 X160.254 Y164.503 E6.80743
G1 X159.558 Y164.83 E6.83301
G1 X158.902 Y165.063 E6.85616
G1 X158.482 Y165.19 E6.87076
G1 X157.735 Y165.374 E6.89634
G1 X157.06 Y165.472 E6.91903
G1 X156.62 Y165.515 E6.93373
G1 X155.851 Y165.55 E6.95934
G1 X155.656 Y165.55 E6.96582
G1 X155.447 Y165.941 E6.98057
G1 X155.05 Y166.6 E7.00616
G1 X154.635 Y167.155 E7.02921
G1 X154.356 Y167.494 E7.04381
G1 X153.837 Y168.062 E7.0694
G1 X153.346 Y168.504 E7.09137
G1 X153.006 Y168.784 E7.10602
G1 X152.388 Y169.242 E7.13161
G1 X151.796 Y169.595 E7.15453
G1 X151.404 Y169.805 E7.16932
G1 X150.708 Y170.132 E7.1949
G1 X150.052 Y170.365 E7.21805
G1 X149.632 Y170.492 E7.23265
G1 X148.885 Y170.676 E7.25823
G1 X148.21 Y170.774 E7.28092
G1 X147.77 Y170.817 E7.29562
G1 X147.001 Y170.852 E7.32123
G1 X146.33 Y170.817 E7.34358
G1 X145.89 Y170.774 E7.35828
G1 X145.13 Y170.659 E7.38385
G1 X144.468 Y170.492 E7.40655
G1 X144.048 Y170.365 E7.42115
G1 X143.324 Y170.105 E7.44673
G1 X142.696 Y169.805 E7.46988
G1 X142.304 Y169.595 E7.48467
G1 X141.645 Y169.197 E7.51028
G1 X141.094 Y168.784 E7.53318
G1 X140.754 Y168.504 E7.54783
G1 X140.186 Y167.985 E7.57342
G1 X139.744 Y167.494 E7.59539
G1 X139.465 Y167.155 E7.61
G1 X139.008 Y166.537 E7.63556
G1 X138.653 Y165.941 E7.65863
G1 X138.444 Y165.55 E7.67338
G1 X138.117 Y164.854 E7.69896
G1 X137.887 Y164.204 E7.72189
G1 X137.76 Y163.784 E7.73648
G1 X137.576 Y163.037 E7.76207
G1 X137.569 Y162.987 E7.76375
G1 X137.236 Y162.683 E7.77875
G1 X136.794 Y162.192 E7.80072
G1 X136.515 Y161.853 E7.81532
G1 X136.058 Y161.235 E7.84089
G1 X135.703 Y160.639 E7.86396
G1 X135.494 Y160.248 E7.87871
G1 X135.167 Y159.552 E7.90428
G1 X134.937 Y158.902 E7.92722
G1 X134.81 Y158.482 E7.94181
G1 X134.626 Y157.735 E7.9674
G1 X134.528 Y157.063 E7.98999
G1 X134.485 Y156.625 E8.00462
G1 X134.45 Y155.857 E8.03019
G1 X134.444 Y155.653 E8.03698
G1 X134.052 Y155.443 E8.05177
G1 X133.393 Y155.045 E8.07738
G1 X132.842 Y154.632 E8.10028
G1 X132.502 Y154.352 E8.11493
G1 X131.934 Y153.833 E8.14052
G1 X131.492 Y153.342 E8.16249
G1 X131.213 Y153.003 E8.1771
G1 X130.756 Y152.385 E8.20266
G1 X130.401 Y151.789 E8.22573
G1 X130.192 Y151.398 E8.24048
G1 X129.865 Y150.702 E8.26606
G1 X129.635 Y150.052 E8.28899
G1 X129.508 Y149.632 E8.30358
G1 X129.324 Y148.885 E8.32917
G1 X129.226 Y148.213 E8.35176
G1 X129.183 Y147.775 E8.3664
G1 X129.148 Y147.007 E8.39197
G1 X129.183 Y146.337 E8.41428
G1 X129.226 Y145.894 E8.42909
G1 X129.34 Y145.133 E8.45468
G1 X129.509 Y144.462 E8.47769
G1 X129.636 Y144.043 E8.49226
G1 X129.897 Y143.32 E8.51782
G1 X130.195 Y142.696 E8.54082
G1 X130.405 Y142.304 E8.55561
G1 X130.803 Y141.645 E8.58122
G1 X131.213 Y141.097 E8.60398
G1 X131.491 Y140.759 E8.61854
G1 X132.01 Y140.191 E8.64413
G0 F6000 X132.305 Y140.462
G1 F1200 X132.756 Y140.056 E8.66431
G1 X133.096 Y139.776 E8.67896
G1 X133.698 Y139.332 E8.70384
G1 X134.24 Y139.01 E8.72481
G1 X134.632 Y138.8 E8.7396
G1 X135.31 Y138.482 E8.76451
G1 X135.912 Y138.27 E8.78573
G1 X136.332 Y138.143 E8.80033
G1 X137.059 Y137.965 E8.82522
G1 X137.212 Y137.943 E8.83036
G1 X137.607 Y137.512 E8.84981
G1 X138.058 Y137.106 E8.86999
G1 X138.398 Y136.826 E8.88464
G1 X139 Y136.382 E8.90952
G1 X139.542 Y136.06 E8.93049
G1 X139.934 Y135.85 E8.94528
G1 X140.612 Y135.532 E8.97019
G1 X141.214 Y135.32 E8.99142
G1 X141.634 Y135.193 E9.00601
G1 X142.361 Y135.015 E9.0309
G1 X142.979 Y134.926 E9.05167
G1 X143.419 Y134.883 E9.06637
G1 X144.166 Y134.85 E9.09124
G1 X144.585 Y134.872 E9.1052
G1 X144.7 Y134.632 E9.11405
G1 X144.91 Y134.24 E9.12884
G1 X145.298 Y133.601 E9.15371
G1 X145.674 Y133.099 E9.17457
G1 X145.952 Y132.761 E9.18912
G1 X146.457 Y132.21 E9.21398
G1 X146.908 Y131.804 E9.23416
G1 X147.248 Y131.524 E9.24881
G1 X147.85 Y131.08 E9.27369
G1 X148.392 Y130.758 E9.29466
G1 X148.784 Y130.548 E9.30945
G1 X149.462 Y130.23 E9.33436
G1 X150.064 Y130.018 E9.35559
G1 X150.484 Y129.891 E9.37018
G1 X151.211 Y129.713 E9.39508
G1 X151.829 Y129.624 E9.41584
G1 X152.269 Y129.581 E9.43055
G1 X153.016 Y129.548 E9.45542
G1 X153.631 Y129.581 E9.4759
G1 X154.071 Y129.624 E9.49061
G1 X154.81 Y129.737 E9.51547
G1 X155.416 Y129.891 E9.53627
G1 X155.836 Y130.018 E9.55086
G1 X156.54 Y130.272 E9.57575
G1 X157.116 Y130.548 E9.597
G1 X157.508 Y130.758 E9.61179
G1 X158.147 Y131.146 E9.63665
G1 X158.649 Y131.522 E9.65751
G1 X158.987 Y131.8 E9.67207
G1 X159.538 Y132.305 E9.69693
G1 X159.944 Y132.756 E9.71711
G1 X160.224 Y133.096 E9.73176
G1 X160.668 Y133.698 E9.75664
G1 X160.99 Y134.24 E9.77761
G1 X161.2 Y134.632 E9.7924
G1 X161.518 Y135.31 E9.81731
G1 X161.729 Y135.908 E9.8384
G1 X161.856 Y136.327 E9.85296
G1 X162.034 Y137.053 E9.87782
G1 X162.057 Y137.212 E9.88317
G1 X162.488 Y137.607 E9.90261
G1 X162.894 Y138.058 E9.92279
G1 X163.174 Y138.398 E9.93744
G1 X163.618 Y139 E9.96232
G1 X163.94 Y139.542 E9.98329
G1 X164.15 Y139.934 E9.99808
G1 X164.468 Y140.612 E10.02299
G1 X164.679 Y141.21 E10.04408
G1 X164.806 Y141.629 E10.05864
G1 X164.984 Y142.355 E10.08351
G1 X165.074 Y142.977 E10.10441
G1 X165.117 Y143.416 E10.11908
G1 X165.15 Y144.163 E10.14395
G1 X165.127 Y144.585 E10.15801
G1 X165.368 Y144.7 E10.16689
G1 X165.76 Y144.91 E10.18168
G1 X166.399 Y145.298 E10.20654
G1 X166.901 Y145.674 E10.2274
G1 X167.239 Y145.952 E10.24196
