;FLAVOR:Marlin
;TIME:1323
;Filament used: 0.699029m
;Layer height: 0.2
;MINX:128.472
;MINY:127.339
;MINZ:0.2
;MAXX:171.528
;MAXY:172.661
;MAXZ:4
;Generated with Cura_SteamEngine 4.12.1
M140 S95
M105
M190 S95
M82 ;absolute extrusion mode
M201 X500.00 Y500.00 Z100.00 E5000.00 ;Setup machine max acceleration
M203 X500.00 Y500.00 Z10.00 E50.00 ;Setup machine max feedrate
M204 P500.00 R1000.00 T500.00 ;Setup Print/Retract/Travel acceleration
M205 X8.00 Y8.00 Z0.40 E5.00 ;Setup Jerk
M220 S100 ;Reset Feedrate
M221 S100 ;Reset Flowrate
M140 S95 ; set bed temp
M190 S95 ; wait for bed temp
G28; home all 
G29;
G92 E0 ;Reset Extruder
G1 Z2.0 F3000 ;Move Z Axis up
G1 X10.1 Y20 Z0.28 F5000.0 ;Move to start position
M104 S230 ; wait for extruder printing temp
M109 S230 ; wait for extruder printing temp
G1 X10.1 Y200.0 Z0.28 F1500.0 E15 ;Draw the first line
G1 X10.4 Y200.0 Z0.28 F5000.0 ;Move to side a little
G1 X10.4 Y20 Z0.28 F1500.0 E30 ;Draw the second line
G92 E0 ;Reset Extruder
G1 Z2.0 F3000 ;Move Z Axis up
G92 E0
G92 E0
G1 F2700 E-3
;LAYER_COUNT:20
;LAYER:0
M107
G0 F6000 X131.294 Y130.375 Z0.2
;TYPE:SKIRT
G1 F2700 E0
G1 F1200 X131.608 Y130.061 E0.01477
G1 X132.194 Y129.531 E0.04105
G1 X132.978 Y128.968 E0.07315
G1 X133.359 Y128.729 E0.08811
G1 X134.048 Y128.344 E0.11436
G1 X134.933 Y127.973 E0.14628
G1 X135.357 Y127.825 E0.16122
G1 X136.115 Y127.603 E0.18749
G1 X137.057 Y127.438 E0.21929
G1 X137.502 Y127.388 E0.23419
G1 X138.373 Y127.339 E0.2632
G1 X142.272 Y127.339 E0.39288
G1 X143.061 Y127.379 E0.41916
G1 X143.841 Y127.498 E0.4454
G1 X144.606 Y127.696 E0.47169
G1 X145.346 Y127.97 E0.49793
G1 X146.055 Y128.318 E0.5242
G1 X146.726 Y128.736 E0.55049
G1 X147.35 Y129.219 E0.57674
G1 X148.059 Y129.91 E0.60967
G1 X152.192 Y134.484 E0.81471
G1 X160.728 Y134.484 E1.09861
G1 X161.517 Y134.524 E1.12489
G1 X162.297 Y134.643 E1.15113
G1 X163.062 Y134.841 E1.17742
G1 X163.802 Y135.115 E1.20366
G1 X164.511 Y135.463 E1.22993
G1 X165.182 Y135.881 E1.25622
G1 X165.806 Y136.364 E1.28247
G1 X166.243 Y136.769 E1.30229
G1 X169.243 Y139.769 E1.4434
G1 X169.773 Y140.355 E1.46968
G1 X170.24 Y140.991 E1.49592
G1 X170.641 Y141.671 E1.52218
G1 X170.971 Y142.389 E1.54846
G1 X171.226 Y143.136 E1.57471
G1 X171.405 Y143.905 E1.60097
G1 X171.505 Y144.689 E1.62726
G1 X171.528 Y145.284 E1.64706
G1 X171.528 Y151.424 E1.85128
G1 X171.488 Y152.213 E1.87756
G1 X171.369 Y152.993 E1.9038
G1 X171.171 Y153.758 E1.93008
G1 X170.897 Y154.498 E1.95633
G1 X170.549 Y155.207 E1.9826
G1 X170.131 Y155.878 E2.00889
G1 X169.648 Y156.502 E2.03514
G1 X169.105 Y157.075 E2.06139
G1 X168.506 Y157.59 E2.08767
G1 X167.628 Y158.179 E2.12283
G1 X159.254 Y163.013 E2.44443
G1 X158.656 Y163.324 E2.46685
G1 X157.83 Y163.71 E2.49717
G1 X157.099 Y164.008 E2.52343
G1 X156.557 Y164.175 E2.54229
G1 X155.681 Y164.411 E2.57246
G1 X154.909 Y164.578 E2.59873
G1 X154.344 Y164.649 E2.61767
G1 X153.435 Y164.73 E2.64803
G1 X152.646 Y164.76 E2.67429
G1 X152.092 Y164.734 E2.69274
G1 X151.184 Y164.658 E2.72304
G1 X150.402 Y164.552 E2.74929
G1 X150.072 Y164.478 E2.76054
G1 X150.072 Y164.861 E2.77328
G1 X150.032 Y165.65 E2.79955
G1 X149.913 Y166.43 E2.82579
G1 X149.715 Y167.195 E2.85208
G1 X149.441 Y167.935 E2.87832
G1 X149.093 Y168.644 E2.90459
G1 X148.675 Y169.315 E2.93089
G1 X148.192 Y169.939 E2.95713
G1 X147.649 Y170.512 E2.98339
G1 X147.05 Y171.027 E3.00966
G1 X146.402 Y171.478 E3.03592
G1 X145.711 Y171.862 E3.06221
G1 X144.986 Y172.174 E3.08846
G1 X144.233 Y172.411 E3.11472
G1 X143.459 Y172.57 E3.141
G1 X142.674 Y172.651 E3.16725
G1 X142.272 Y172.661 E3.18062
G1 X136.272 Y172.661 E3.38018
G1 X135.483 Y172.621 E3.40646
G1 X134.703 Y172.502 E3.4327
G1 X133.938 Y172.304 E3.45899
G1 X133.198 Y172.03 E3.48523
G1 X132.489 Y171.682 E3.5115
G1 X131.818 Y171.264 E3.53779
G1 X131.194 Y170.781 E3.56404
G1 X130.621 Y170.238 E3.5903
G1 X130.106 Y169.639 E3.61657
G1 X129.655 Y168.991 E3.64283
G1 X129.271 Y168.3 E3.66912
G1 X128.959 Y167.575 E3.69537
G1 X128.722 Y166.822 E3.72163
G1 X128.563 Y166.048 E3.74791
G1 X128.482 Y165.263 E3.77416
G1 X128.472 Y164.861 E3.78753
G1 X128.472 Y152.861 E4.18665
G1 X128.512 Y152.072 E4.21293
G1 X128.572 Y151.678 E4.22619
G1 X128.573 Y137.129 E4.71009
G1 X128.62 Y136.27 E4.7387
G1 X128.668 Y135.837 E4.75319
G1 X128.795 Y135.057 E4.77947
G1 X129.06 Y134.115 E4.81202
G1 X129.209 Y133.69 E4.827
G1 X129.508 Y132.959 E4.85327
G1 X129.962 Y132.126 E4.88482
G1 X130.201 Y131.745 E4.89978
G1 X130.654 Y131.098 E4.92605
G1 X131.294 Y130.375 E4.95817
G0 F6000 X131.576 Y130.657
G1 F1200 X131.89 Y130.343 E4.97294
G1 X132.462 Y129.829 E4.99851
G1 X133.191 Y129.307 E5.02834
G1 X133.572 Y129.068 E5.04329
G1 X134.244 Y128.694 E5.06887
G1 X135.065 Y128.35 E5.09848
G1 X135.489 Y128.202 E5.11342
G1 X136.228 Y127.987 E5.13902
G1 X137.102 Y127.835 E5.16852
G1 X137.547 Y127.785 E5.18341
G1 X138.373 Y127.739 E5.21093
G1 X142.272 Y127.739 E5.34061
G1 X143.04 Y127.779 E5.36619
G1 X143.8 Y127.898 E5.39178
G1 X144.543 Y128.096 E5.41735
G1 X145.262 Y128.37 E5.44294
G1 X145.948 Y128.717 E5.46851
G1 X146.595 Y129.133 E5.4941
G1 X147.195 Y129.614 E5.51967
G1 X147.763 Y130.178 E5.5463
G1 X152.015 Y134.884 E5.75724
G1 X160.728 Y134.884 E6.04704
G1 X161.496 Y134.924 E6.07262
G1 X162.256 Y135.043 E6.0982
G1 X162.999 Y135.241 E6.12378
G1 X163.718 Y135.515 E6.14937
G1 X164.404 Y135.862 E6.17494
G1 X165.051 Y136.278 E6.20052
G1 X165.651 Y136.759 E6.2261
G1 X165.961 Y137.051 E6.24026
G1 X168.961 Y140.051 E6.38138
G1 X169.475 Y140.623 E6.40695
G1 X169.928 Y141.245 E6.43255
G1 X170.314 Y141.91 E6.45812
G1 X170.629 Y142.612 E6.48371
G1 X170.869 Y143.343 E6.5093
G1 X171.032 Y144.094 E6.53486
G1 X171.116 Y144.859 E6.56046
G1 X171.128 Y145.284 E6.5746
G1 X171.128 Y151.424 E6.77882
G1 X171.088 Y152.192 E6.80439
G1 X170.969 Y152.952 E6.82998
G1 X170.771 Y153.695 E6.85556
G1 X170.497 Y154.414 E6.88115
G1 X170.15 Y155.1 E6.90672
G1 X169.734 Y155.747 E6.9323
G1 X169.253 Y156.347 E6.95788
G1 X168.712 Y156.894 E6.98347
G1 X168.117 Y157.382 E7.00906
G1 X167.428 Y157.833 E7.03645
G1 X159.054 Y162.667 E7.35804
G1 X158.487 Y162.962 E7.3793
G1 X157.661 Y163.348 E7.40963
G1 X156.948 Y163.637 E7.43522
G1 X156.453 Y163.789 E7.45244
G1 X155.577 Y164.025 E7.48261
G1 X154.825 Y164.186 E7.50819
G1 X154.309 Y164.251 E7.52549
G1 X153.4 Y164.332 E7.55584
G1 X152.631 Y164.36 E7.58144
G1 X152.126 Y164.335 E7.59825
G1 X151.218 Y164.259 E7.62856
G1 X150.456 Y164.155 E7.65414
G1 X149.954 Y164.042 E7.67125
G1 X149.672 Y163.968 E7.68095
G1 X149.672 Y164.861 E7.71065
G1 X149.632 Y165.629 E7.73623
G1 X149.513 Y166.389 E7.76182
G1 X149.315 Y167.132 E7.78739
G1 X149.041 Y167.851 E7.81298
G1 X148.694 Y168.537 E7.83855
G1 X148.278 Y169.184 E7.86413
G1 X147.797 Y169.784 E7.88971
G1 X147.256 Y170.331 E7.9153
G1 X146.661 Y170.819 E7.94089
G1 X146.019 Y171.242 E7.96647
G1 X145.336 Y171.597 E7.99207
G1 X144.621 Y171.878 E8.01762
G1 X143.879 Y172.084 E8.04323
G1 X143.121 Y172.212 E8.0688
G1 X142.272 Y172.261 E8.09708
G1 X136.272 Y172.261 E8.29665
G1 X135.504 Y172.221 E8.32222
G1 X134.744 Y172.102 E8.34781
G1 X134.001 Y171.904 E8.37338
G1 X133.282 Y171.63 E8.39898
G1 X132.596 Y171.283 E8.42455
G1 X131.949 Y170.867 E8.45013
G1 X131.349 Y170.386 E8.47571
G1 X130.802 Y169.845 E8.50129
G1 X130.314 Y169.25 E8.52689
G1 X129.891 Y168.608 E8.55246
G1 X129.536 Y167.925 E8.57806
G1 X129.255 Y167.21 E8.60361
G1 X129.049 Y166.468 E8.62923
G1 X128.921 Y165.71 E8.65479
G1 X128.872 Y164.861 E8.68308
G1 X128.872 Y152.861 E9.0822
G1 X128.912 Y152.093 E9.10778
G1 X128.972 Y151.709 E9.12071
G1 X128.973 Y137.129 E9.60564
G1 X129.018 Y136.314 E9.63279
G1 X129.066 Y135.881 E9.64728
G1 X129.19 Y135.122 E9.67286
G1 X129.438 Y134.248 E9.70307
G1 X129.587 Y133.823 E9.71805
G1 X129.879 Y133.111 E9.74365
G1 X130.301 Y132.339 E9.77291
G1 X130.54 Y131.958 E9.78787
G1 X130.982 Y131.328 E9.81347
G1 X131.576 Y130.657 E9.84327
G0 F6000 X131.859 Y130.94
G1 F1200 X132.173 Y130.626 E9.85804
G1 X132.73 Y130.126 E9.88294
G1 X133.403 Y129.646 E9.91043
G1 X133.784 Y129.407 E9.92539
G1 X134.438 Y129.044 E9.95027
G1 X135.197 Y128.728 E9.97761
G1 X135.621 Y128.58 E9.99255
G1 X136.34 Y128.372 E10.01744
G1 X137.146 Y128.233 E10.04465
G1 X137.591 Y128.183 E10.05954
G1 X138.373 Y128.139 E10.08559
G1 X142.272 Y128.139 E10.21527
G1 X143.019 Y128.179 E10.24015
G1 X143.757 Y128.298 E10.26502
G1 X144.479 Y128.496 E10.28992
G1 X145.175 Y128.769 E10.31478
G1 X145.838 Y129.116 E10.33967
G1 X146.461 Y129.531 E10.36457
G1 X147.035 Y130.01 E10.38944
G1 X147.466 Y130.446 E10.40983
G1 X151.837 Y135.284 E10.62669
G1 X160.728 Y135.284 E10.9224
G1 X161.475 Y135.324 E10.94728
G1 X162.213 Y135.443 E10.97215
G1 X162.935 Y135.641 E10.99705
G1 X163.631 Y135.914 E11.02191
G1 X164.294 Y136.261 E11.0468
G1 X164.917 Y136.676 E11.0717
G1 X165.678 Y137.334 E11.10516
G1 X168.678 Y140.334 E11.24627
G1 X169.178 Y140.891 E11.27117
G1 X169.615 Y141.497 E11.29602
G1 X169.986 Y142.147 E11.32091
G1 X170.285 Y142.833 E11.3458
G1 X170.509 Y143.547 E11.37069
G1 X170.656 Y144.28 E11.39555
G1 X170.728 Y145.284 E11.42903
G1 X170.728 Y151.424 E11.63325
G1 X170.688 Y152.171 E11.65813
G1 X170.569 Y152.909 E11.68299
G1 X170.371 Y153.631 E11.70789
G1 X170.098 Y154.327 E11.73276
G1 X169.751 Y154.99 E11.75765
G1 X169.336 Y155.613 E11.78255
G1 X168.857 Y156.187 E11.80741
G1 X168.32 Y156.708 E11.8323
G1 X167.73 Y157.167 E11.85716
G1 X167.228 Y157.486 E11.87694
G1 X158.854 Y162.32 E12.19854
G1 X158.318 Y162.6 E12.21865
G1 X157.492 Y162.986 E12.24897
G1 X156.798 Y163.266 E12.27387
G1 X156.349 Y163.403 E12.28948
G1 X155.473 Y163.639 E12.31965
G1 X154.741 Y163.795 E12.34455
G1 X154.273 Y163.852 E12.36023
G1 X153.364 Y163.933 E12.39058
G1 X152.617 Y163.96 E12.41544
G1 X152.159 Y163.937 E12.43069
G1 X151.251 Y163.861 E12.461
G1 X150.51 Y163.758 E12.48588
G1 X150.056 Y163.655 E12.50137
G1 X149.272 Y163.449 E12.52833
G1 X149.272 Y164.861 E12.57529
G1 X149.232 Y165.608 E12.60017
G1 X149.113 Y166.346 E12.62504
G1 X148.915 Y167.068 E12.64994
G1 X148.642 Y167.764 E12.6748
G1 X148.295 Y168.427 E12.69969
G1 X147.88 Y169.05 E12.72459
G1 X147.401 Y169.624 E12.74945
G1 X146.864 Y170.145 E12.77434
G1 X146.274 Y170.604 E12.7992
G1 X145.638 Y170.999 E12.8241
G1 X144.964 Y171.323 E12.84898
G1 X144.259 Y171.573 E12.87385
G1 X143.531 Y171.747 E12.89875
G1 X142.789 Y171.842 E12.92363
G1 X142.272 Y171.861 E12.94084
G1 X136.272 Y171.861 E13.1404
G1 X135.525 Y171.821 E13.16528
G1 X134.787 Y171.702 E13.19014
G1 X134.065 Y171.504 E13.21504
G1 X133.369 Y171.231 E13.23991
G1 X132.706 Y170.884 E13.2648
G1 X132.083 Y170.469 E13.2897
G1 X131.509 Y169.99 E13.31456
G1 X130.988 Y169.453 E13.33945
G1 X130.529 Y168.863 E13.36431
G1 X130.134 Y168.227 E13.38921
G1 X129.81 Y167.553 E13.41408
G1 X129.56 Y166.848 E13.43896
G1 X129.386 Y166.12 E13.46386
G1 X129.291 Y165.378 E13.48874
G1 X129.272 Y164.861 E13.50595
G1 X129.272 Y152.861 E13.90507
G1 X129.312 Y152.114 E13.92995
G1 X129.372 Y151.741 E13.94251
G1 X129.373 Y137.129 E14.42851
G1 X129.416 Y136.358 E14.45419
G1 X129.464 Y135.925 E14.46868
G1 X129.586 Y135.187 E14.49356
G1 X129.815 Y134.38 E14.52146
G1 X129.964 Y133.955 E14.53644
G1 X130.249 Y133.263 E14.56133
G1 X130.64 Y132.551 E14.58835
G1 X130.879 Y132.17 E14.60331
G1 X131.31 Y131.559 E14.62818
G1 X131.859 Y130.94 E14.6557
G0 F6000 X132.142 Y131.223
G1 F1200 X132.456 Y130.909 E14.67047
G1 X132.997 Y130.425 E14.69461
G1 X133.616 Y129.985 E14.71987
G1 X133.997 Y129.746 E14.73483
G1 X134.632 Y129.394 E14.75898
G1 X135.329 Y129.106 E14.78406
G1 X135.753 Y128.958 E14.799
G1 X136.451 Y128.756 E14.82317
G1 X137.191 Y128.63 E14.84813
G1 X137.636 Y128.58 E14.86303
G1 X138.373 Y128.539 E14.88758
G1 X142.272 Y128.539 E15.01726
G1 X142.997 Y128.579 E15.04141
G1 X143.714 Y128.698 E15.06558
G1 X144.413 Y128.896 E15.08975
G1 X145.086 Y129.169 E15.1139
G1 X145.725 Y129.514 E15.13806
G1 X146.322 Y129.928 E15.16222
G1 X146.87 Y130.404 E15.18636
G1 X147.169 Y130.714 E15.20069
G1 X151.66 Y135.684 E15.42348
G1 X160.728 Y135.684 E15.72508
G1 X161.453 Y135.724 E15.74923
G1 X162.17 Y135.843 E15.77341
G1 X162.869 Y136.041 E15.79757
G1 X163.542 Y136.314 E15.82173
G1 X164.181 Y136.659 E15.84588
G1 X164.778 Y137.073 E15.87004
G1 X165.395 Y137.617 E15.8974
G1 X168.395 Y140.617 E16.03851
G1 X168.879 Y141.158 E16.06266
G1 X169.302 Y141.749 E16.08683
G1 X169.656 Y142.383 E16.11098
G1 X169.939 Y143.052 E16.13514
G1 X170.147 Y143.748 E16.1593
G1 X170.277 Y144.463 E16.18347
G1 X170.328 Y145.284 E16.21083
G1 X170.328 Y151.424 E16.41505
G1 X170.288 Y152.149 E16.4392
G1 X170.169 Y152.866 E16.46337
G1 X169.971 Y153.565 E16.48753
G1 X169.698 Y154.238 E16.51169
G1 X169.353 Y154.877 E16.53584
G1 X168.939 Y155.474 E16.56001
G1 X168.463 Y156.022 E16.58415
G1 X167.929 Y156.515 E16.60832
G1 X167.344 Y156.945 E16.63247
G1 X167.028 Y157.14 E16.64482
G1 X158.654 Y161.974 E16.96642
G1 X158.148 Y162.237 E16.98538
G1 X157.322 Y162.623 E17.01571
G1 X156.648 Y162.894 E17.03987
G1 X156.245 Y163.017 E17.05388
G1 X155.369 Y163.253 E17.08406
G1 X154.658 Y163.403 E17.10823
G1 X154.238 Y163.454 E17.1223
G1 X153.329 Y163.535 E17.15265
G1 X152.603 Y163.56 E17.17681
G1 X152.193 Y163.538 E17.19047
G1 X151.285 Y163.462 E17.22078
G1 X150.565 Y163.362 E17.24495
G1 X150.157 Y163.268 E17.25888
G1 X149.278 Y163.037 E17.28911
G1 X148.872 Y162.906 E17.3033
G1 X148.872 Y164.861 E17.36832
G1 X148.832 Y165.586 E17.39247
G1 X148.713 Y166.303 E17.41664
G1 X148.515 Y167.002 E17.44081
G1 X148.242 Y167.675 E17.46496
G1 X147.897 Y168.314 E17.48912
G1 X147.483 Y168.911 E17.51328
G1 X147.007 Y169.459 E17.53742
G1 X146.473 Y169.952 E17.56159
G1 X145.888 Y170.382 E17.58574
G1 X145.259 Y170.746 E17.60991
G1 X144.594 Y171.039 E17.63408
G1 X143.901 Y171.257 E17.65825
G1 X143.189 Y171.397 E17.68238
G1 X142.272 Y171.461 E17.71295
G1 X136.272 Y171.461 E17.91251
G1 X135.547 Y171.421 E17.93666
G1 X134.83 Y171.302 E17.96084
G1 X134.131 Y171.104 E17.985
G1 X133.458 Y170.831 E18.00916
G1 X132.819 Y170.486 E18.03331
G1 X132.222 Y170.072 E18.05747
G1 X131.674 Y169.596 E18.08162
G1 X131.181 Y169.062 E18.10579
G1 X130.751 Y168.477 E18.12994
G1 X130.387 Y167.848 E18.15411
G1 X130.094 Y167.183 E18.17828
G1 X129.876 Y166.49 E18.20244
G1 X129.736 Y165.778 E18.22658
G1 X129.672 Y164.861 E18.25715
G1 X129.672 Y152.861 E18.65627
G1 X129.712 Y152.136 E18.68042
G1 X129.772 Y151.774 E18.69263
G1 X129.773 Y137.129 E19.17972
G1 X129.813 Y136.402 E19.20394
G1 X129.861 Y135.969 E19.21843
G1 X129.981 Y135.252 E19.24261
G1 X130.193 Y134.512 E19.26821
G1 X130.342 Y134.087 E19.28319
G1 X130.619 Y133.416 E19.30733
G1 X130.979 Y132.764 E19.3321
G1 X131.218 Y132.383 E19.34706
G1 X131.637 Y131.79 E19.37121
G1 X132.142 Y131.223 E19.39647
G0 F6000 X132.425 Y131.506
G1 F1200 X132.739 Y131.192 E19.41124
G1 X133.264 Y130.723 E19.43465
G1 X133.828 Y130.324 E19.45763
G1 X134.209 Y130.085 E19.47259
G1 X134.826 Y129.745 E19.49602
G1 X135.461 Y129.483 E19.51887
G1 X135.885 Y129.335 E19.5338
G1 X136.562 Y129.141 E19.55723
G1 X137.236 Y129.028 E19.57996
G1 X137.681 Y128.978 E19.59485
G1 X138.373 Y128.939 E19.6179
G1 X142.272 Y128.939 E19.74758
G1 X142.975 Y128.979 E19.771
G1 X143.669 Y129.098 E19.79442
G1 X144.344 Y129.296 E19.81782
G1 X144.993 Y129.568 E19.84123
G1 X145.607 Y129.913 E19.86465
G1 X146.178 Y130.324 E19.88805
G1 X146.872 Y130.982 E19.91986
G1 X151.482 Y136.084 E20.14856
G1 X160.728 Y136.084 E20.45609
G1 X161.431 Y136.124 E20.4795
G1 X162.125 Y136.243 E20.50292
G1 X162.8 Y136.441 E20.52632
G1 X163.449 Y136.713 E20.54973
G1 X164.063 Y137.058 E20.57315
G1 X164.634 Y137.469 E20.59655
G1 X165.112 Y137.9 E20.61796
G1 X168.112 Y140.9 E20.75907
G1 X168.581 Y141.425 E20.78248
G1 X168.987 Y142 E20.80589
G1 X169.325 Y142.618 E20.82932
G1 X169.592 Y143.269 E20.85272
G1 X169.782 Y143.947 E20.87614
G1 X169.895 Y144.642 E20.89956
G1 X169.928 Y145.284 E20.92094
G1 X169.928 Y151.424 E21.12516
G1 X169.888 Y152.127 E21.14858
G1 X169.769 Y152.821 E21.172
G1 X169.571 Y153.496 E21.1954
G1 X169.299 Y154.145 E21.2188
G1 X168.954 Y154.759 E21.24223
G1 X168.543 Y155.33 E21.26563
G1 X168.069 Y155.851 E21.28905
G1 X167.539 Y156.315 E21.31248
G1 X166.828 Y156.794 E21.341
G1 X158.454 Y161.628 E21.66259
