;FLAVOR:Marlin
;TIME:3351
;Filament used: 1.82654m
;Layer height: 0.2
;MINX:127.338
;MINY:126.362
;MINZ:0.2
;MAXX:172.676
;MAXY:173.34
;MAXZ:15
;Generated with Cura_SteamEngine 4.12.1
M140 S95
M105
M190 S95
M82 ;absolute extrusion mode
M201 X500.00 Y500.00 Z100.00 E5000.00 ;Setup machine max acceleration
M203 X500.00 Y500.00 Z10.00 E50.00 ;Setup machine max feedrate
M204 P500.00 R1000.00 T500.00 ;Setup Print/Retract/Travel acceleration
M205 X8.00 Y8.00 Z0.40 E5.00 ;Setup Jerk
M220 S100 ;Reset Feedrate
M221 S100 ;Reset Flowrate
M140 S95 ; set bed temp
M190 S95 ; wait for bed temp
G28; home all 
G29;
G92 E0 ;Reset Extruder
G1 Z2.0 F3000 ;Move Z Axis up
G1 X10.1 Y20 Z0.28 F5000.0 ;Move to start position
M104 S230 ; wait for extruder printing temp
M109 S230 ; wait for extruder printing temp
G1 X10.1 Y200.0 Z0.28 F1500.0 E15 ;Draw the first line
G1 X10.4 Y200.0 Z0.28 F5000.0 ;Move to side a little
G1 X10.4 Y20 Z0.28 F1500.0 E30 ;Draw the second line
G92 E0 ;Reset Extruder
G1 Z2.0 F3000 ;Move Z Axis up
G92 E0
G92 E0
G1 F2700 E-3
;LAYER_COUNT:75
;LAYER:0
M107
G0 F6000 X133.558 Y131.804 Z0.2
;TYPE:SKIRT
G1 F2700 E0
G1 F1200 X134.144 Y131.274 E0.02628
G1 X134.78 Y130.807 E0.05252
G1 X135.46 Y130.406 E0.07878
G1 X136.178 Y130.076 E0.10506
G1 X136.925 Y129.821 E0.13132
G1 X137.694 Y129.642 E0.15758
G1 X138.478 Y129.542 E0.18386
G1 X139.267 Y129.521 E0.21011
G1 X140.054 Y129.581 E0.23637
G1 X140.832 Y129.72 E0.26265
G1 X141.591 Y129.937 E0.28891
G1 X142.325 Y130.229 E0.31518
G1 X143.025 Y130.594 E0.34144
G1 X143.685 Y131.028 E0.36771
G1 X144.284 Y131.515 E0.39339
G1 X144.546 Y131.75 E0.40509
G1 X151.393 Y131.75 E0.63283
G1 X151.602 Y131.355 E0.64769
G1 X151.759 Y131.1 E0.65765
G1 X152.17 Y130.497 E0.68192
G1 X152.365 Y130.238 E0.6927
G1 X152.871 Y129.632 E0.71896
G1 X153.2 Y129.298 E0.73456
G1 X153.367 Y129.138 E0.74225
G1 X153.918 Y128.657 E0.76657
G1 X154.164 Y128.462 E0.77702
G1 X154.97 Y127.902 E0.80966
G1 X155.236 Y127.741 E0.82
G1 X156.07 Y127.303 E0.85133
G1 X156.303 Y127.198 E0.85983
G1 X157.307 Y126.826 E0.89544
G1 X157.562 Y126.751 E0.90428
G1 X158.327 Y126.567 E0.93045
G1 X158.69 Y126.499 E0.94274
G1 X159.683 Y126.379 E0.976
G1 X159.929 Y126.365 E0.9842
G1 X160.763 Y126.362 E1.01194
G1 X161.042 Y126.376 E1.02123
G1 X162.059 Y126.494 E1.05528
G1 X162.386 Y126.554 E1.06634
G1 X163.28 Y126.774 E1.09696
G1 X163.526 Y126.85 E1.10553
G1 X164.425 Y127.189 E1.13748
G1 X164.705 Y127.315 E1.14769
G1 X165.661 Y127.828 E1.18378
G1 X165.896 Y127.976 E1.19302
G1 X166.519 Y128.413 E1.21833
G1 X166.773 Y128.61 E1.22902
G1 X167.529 Y129.278 E1.26257
G1 X167.665 Y129.415 E1.26899
G1 X168.309 Y130.151 E1.30152
G1 X168.54 Y130.451 E1.31411
G1 X168.987 Y131.096 E1.34021
G1 X169.136 Y131.336 E1.34961
G1 X169.625 Y132.255 E1.38423
G1 X169.735 Y132.5 E1.39317
G1 X170.088 Y133.446 E1.42675
G1 X170.172 Y133.725 E1.43644
G1 X170.367 Y134.525 E1.46383
G1 X170.429 Y134.853 E1.47493
G1 X170.552 Y135.852 E1.50841
G1 X170.562 Y136.025 E1.51417
G1 X170.575 Y136.475 E1.52915
G1 X170.575 Y138.007 E1.5801
G1 X170.644 Y138.103 E1.58403
G1 X170.986 Y138.621 E1.60468
G1 X171.146 Y138.886 E1.61497
G1 X171.563 Y139.675 E1.64465
G1 X171.718 Y140.014 E1.65705
G1 X171.992 Y140.698 E1.68156
G1 X172.091 Y140.983 E1.69159
G1 X172.288 Y141.64 E1.71441
G1 X172.378 Y141.998 E1.72669
G1 X172.519 Y142.693 E1.75027
G1 X172.558 Y142.942 E1.75866
G1 X172.644 Y143.802 E1.7874
G1 X172.667 Y144.319 E1.80461
G1 X172.675 Y144.666 E1.81616
G1 X172.676 Y162.733 E2.41707
G1 X172.636 Y163.521 E2.44331
G1 X172.517 Y164.302 E2.46959
G1 X172.319 Y165.066 E2.49584
G1 X172.045 Y165.807 E2.52211
G1 X171.88 Y166.143 E2.53456
G1 X171.852 Y166.233 E2.5377
G1 X171.541 Y166.959 E2.56397
G1 X171.159 Y167.65 E2.59023
G1 X170.709 Y168.299 E2.6165
G1 X170.195 Y168.899 E2.64277
G1 X169.392 Y169.635 E2.679
G1 X169.235 Y169.76 E2.68568
G1 X168.593 Y170.22 E2.71195
G1 X167.908 Y170.613 E2.73821
G1 X167.314 Y170.884 E2.75993
G1 X167.004 Y171.01 E2.77106
G1 X166.258 Y171.27 E2.79733
G1 X165.49 Y171.453 E2.82359
G1 X164.871 Y171.542 E2.84439
G1 X164.678 Y171.562 E2.85085
G1 X163.874 Y171.604 E2.87762
G1 X162.783 Y171.604 E2.91391
G1 X162.653 Y171.716 E2.91962
G1 X162.005 Y172.167 E2.94588
G1 X161.314 Y172.551 E2.97217
G1 X160.589 Y172.863 E2.99842
G1 X159.836 Y173.1 E3.02468
G1 X159.062 Y173.259 E3.05096
G1 X158.277 Y173.34 E3.07721
G1 X157.487 Y173.34 E3.10348
G1 X156.701 Y173.261 E3.12976
G1 X155.928 Y173.103 E3.156
G1 X155.174 Y172.867 E3.18228
G1 X154.448 Y172.557 E3.20853
G1 X153.757 Y172.174 E3.23481
G1 X153.29 Y171.85 E3.25371
G1 X143.297 Y171.85 E3.58608
G1 X142.508 Y171.81 E3.61236
G1 X141.728 Y171.691 E3.6386
G1 X141.252 Y171.577 E3.65488
G1 X140.906 Y171.483 E3.66681
G1 X140.688 Y171.413 E3.67442
G1 X134.884 Y169.866 E3.8742
G1 X134.132 Y169.624 E3.90048
G1 X133.408 Y169.307 E3.92676
G1 X132.721 Y168.919 E3.95301
G1 X132.076 Y168.464 E3.97926
G1 X131.48 Y167.945 E4.00555
G1 X130.94 Y167.369 E4.03181
G1 X130.461 Y166.741 E4.05808
G1 X130.048 Y166.068 E4.08434
G1 X129.705 Y165.357 E4.11059
G1 X129.435 Y164.615 E4.13686
G1 X129.243 Y163.849 E4.16312
G1 X129.128 Y163.067 E4.18941
G1 X129.093 Y162.279 E4.21565
G1 X129.138 Y161.49 E4.24193
G1 X129.263 Y160.71 E4.26821
G1 X129.359 Y160.309 E4.28192
G1 X129.938 Y158.149 E4.3563
G1 X129.938 Y157.55 E4.37622
G1 X129.803 Y157.073 E4.39271
G1 X129.665 Y156.295 E4.41899
G1 X129.605 Y155.355 E4.45032
G1 X129.604 Y155.07 E4.4598
G1 X129.655 Y154.155 E4.49028
G1 X129.744 Y153.378 E4.51629
G1 X129.873 Y152.599 E4.54255
G1 X129.94 Y152.354 E4.551
G1 X129.94 Y150.892 E4.59963
G1 X129.918 Y150.684 E4.60658
G1 X129.875 Y149.895 E4.63286
G1 X129.912 Y149.106 E4.65913
G1 X129.939 Y148.897 E4.66614
G1 X129.939 Y147.078 E4.72664
G1 X129.465 Y146.626 E4.74843
G1 X128.952 Y146.026 E4.77468
G1 X128.502 Y145.377 E4.80095
G1 X128.12 Y144.686 E4.82721
G1 X127.81 Y143.959 E4.8535
G1 X127.575 Y143.205 E4.87977
G1 X127.417 Y142.432 E4.90601
G1 X127.338 Y141.646 E4.93228
G1 X127.34 Y140.856 E4.95856
G1 X127.421 Y140.071 E4.98481
G1 X127.581 Y139.297 E5.01109
G1 X127.818 Y138.544 E5.03735
G1 X128.131 Y137.819 E5.06361
G1 X128.515 Y137.129 E5.08988
G1 X128.967 Y136.481 E5.11616
G1 X129.614 Y135.748 E5.14867
G1 X133.558 Y131.804 E5.33419
G0 F6000 X133.84 Y132.086
G1 F1200 X134.412 Y131.572 E5.35977
G1 X135.034 Y131.119 E5.38536
G1 X135.699 Y130.733 E5.41093
G1 X136.401 Y130.418 E5.43652
G1 X137.132 Y130.178 E5.46211
G1 X137.883 Y130.015 E5.48767
G1 X138.648 Y129.931 E5.51327
G1 X139.417 Y129.927 E5.53885
G1 X140.182 Y130.003 E5.56442
G1 X140.936 Y130.157 E5.59001
G1 X141.669 Y130.389 E5.61558
G1 X142.374 Y130.696 E5.64116
G1 X143.044 Y131.075 E5.66676
G1 X143.671 Y131.521 E5.69235
G1 X144.017 Y131.813 E5.70741
G1 X144.392 Y132.15 E5.72418
G1 X151.633 Y132.15 E5.96502
G1 X151.943 Y131.564 E5.98707
G1 X152.1 Y131.309 E5.99703
G1 X152.489 Y130.738 E6.02001
G1 X152.684 Y130.479 E6.03079
G1 X153.178 Y129.889 E6.05638
G1 X153.477 Y129.587 E6.07052
G1 X153.644 Y129.427 E6.07821
G1 X154.166 Y128.971 E6.10127
G1 X154.412 Y128.776 E6.11171
G1 X155.177 Y128.244 E6.1427
G1 X155.443 Y128.083 E6.15304
G1 X156.235 Y127.667 E6.18279
G1 X156.468 Y127.562 E6.19129
G1 X157.42 Y127.21 E6.22505
G1 X157.675 Y127.135 E6.23389
G1 X158.4 Y126.961 E6.25869
G1 X158.763 Y126.893 E6.27098
G1 X159.706 Y126.778 E6.30257
G1 X159.952 Y126.764 E6.31077
G1 X160.743 Y126.761 E6.33708
G1 X161.022 Y126.775 E6.34637
G1 X161.987 Y126.888 E6.37868
G1 X162.314 Y126.948 E6.38974
G1 X163.162 Y127.156 E6.41878
G1 X163.408 Y127.232 E6.42734
G1 X164.261 Y127.554 E6.45767
G1 X164.541 Y127.68 E6.46788
G1 X165.448 Y128.166 E6.50211
G1 X165.683 Y128.314 E6.51134
G1 X166.274 Y128.729 E6.53536
G1 X166.528 Y128.926 E6.54605
G1 X167.245 Y129.56 E6.57789
G1 X167.381 Y129.697 E6.58431
G1 X167.992 Y130.395 E6.61516
G1 X168.223 Y130.695 E6.62775
G1 X168.647 Y131.307 E6.65252
G1 X168.796 Y131.547 E6.66191
G1 X169.26 Y132.419 E6.69477
G1 X169.37 Y132.664 E6.7037
G1 X169.705 Y133.562 E6.73558
G1 X169.789 Y133.841 E6.74527
G1 X169.974 Y134.6 E6.77125
G1 X170.036 Y134.928 E6.78235
G1 X170.153 Y135.875 E6.81409
G1 X170.163 Y136.048 E6.81985
G1 X170.175 Y136.475 E6.83406
G1 X170.175 Y138.136 E6.88931
G1 X170.319 Y138.336 E6.8975
G1 X170.644 Y138.828 E6.91712
G1 X170.804 Y139.093 E6.92741
G1 X171.199 Y139.841 E6.95555
G1 X171.354 Y140.18 E6.96794
G1 X171.614 Y140.829 E6.9912
G1 X171.713 Y141.114 E7.00123
G1 X171.9 Y141.738 E7.0229
G1 X171.99 Y142.096 E7.03518
G1 X172.124 Y142.755 E7.05754
G1 X172.163 Y143.004 E7.06593
G1 X172.245 Y143.82 E7.0932
G1 X172.268 Y144.337 E7.11042
G1 X172.275 Y144.666 E7.12136
G1 X172.276 Y162.733 E7.72227
G1 X172.236 Y163.501 E7.74785
G1 X172.117 Y164.261 E7.77344
G1 X171.919 Y165.004 E7.79901
G1 X171.645 Y165.723 E7.8246
G1 X171.49 Y166.029 E7.83601
G1 X171.336 Y166.447 E7.85083
G1 X170.997 Y167.138 E7.87643
G1 X170.588 Y167.789 E7.902
G1 X170.113 Y168.394 E7.92758
G1 X169.578 Y168.947 E7.95317
G1 X169.143 Y169.322 E7.97227
G1 X168.986 Y169.447 E7.97895
G1 X168.36 Y169.894 E8.00453
G1 X167.692 Y170.274 E8.03009
G1 X167.163 Y170.513 E8.0494
G1 X166.853 Y170.639 E8.06053
G1 X166.127 Y170.892 E8.0861
G1 X165.378 Y171.067 E8.11169
G1 X164.83 Y171.145 E8.1301
G1 X164.637 Y171.165 E8.13655
G1 X163.874 Y171.204 E8.16196
G1 X162.635 Y171.204 E8.20317
G1 X162.264 Y171.508 E8.21912
G1 X161.622 Y171.931 E8.24469
G1 X160.939 Y172.286 E8.2703
G1 X160.224 Y172.567 E8.29585
G1 X159.482 Y172.773 E8.32146
G1 X158.724 Y172.901 E8.34703
G1 X157.956 Y172.95 E8.37262
G1 X157.188 Y172.918 E8.39819
G1 X156.427 Y172.807 E8.42377
G1 X155.681 Y172.617 E8.44937
G1 X154.96 Y172.351 E8.47493
G1 X154.269 Y172.012 E8.50053
G1 X153.618 Y171.603 E8.5261
G1 X153.423 Y171.45 E8.53435
G1 X143.297 Y171.45 E8.87114
G1 X142.529 Y171.41 E8.89672
G1 X141.769 Y171.291 E8.9223
G1 X141.357 Y171.191 E8.9364
G1 X141.011 Y171.097 E8.94833
G1 X140.78 Y171.024 E8.95639
G1 X134.987 Y169.479 E9.1558
G1 X134.255 Y169.243 E9.18138
G1 X133.551 Y168.932 E9.20698
G1 X132.884 Y168.549 E9.23256
G1 X132.26 Y168.099 E9.25815
G1 X131.686 Y167.587 E9.28373
G1 X131.168 Y167.018 E9.30932
G1 X130.713 Y166.399 E9.33487
G1 X130.324 Y165.735 E9.36047
G1 X130.005 Y165.035 E9.38605
G1 X129.762 Y164.305 E9.41164
G1 X129.595 Y163.555 E9.4372
G1 X129.507 Y162.79 E9.46281
G1 X129.499 Y162.021 E9.48839
G1 X129.571 Y161.256 E9.51395
G1 X129.745 Y160.413 E9.54258
G1 X130.338 Y158.201 E9.61875
G1 X130.338 Y157.522 E9.64133
G1 X130.146 Y156.768 E9.66721
G1 X130.036 Y156.007 E9.69278
G1 X130.005 Y155.354 E9.71452
G1 X130.004 Y155.069 E9.724
G1 X130.052 Y154.201 E9.75292
G1 X130.141 Y153.424 E9.77893
G1 X130.268 Y152.665 E9.80453
G1 X130.34 Y152.405 E9.8135
G1 X130.34 Y150.869 E9.86459
G1 X130.316 Y150.642 E9.87218
G1 X130.275 Y149.873 E9.89779
G1 X130.314 Y149.105 E9.92337
G1 X130.339 Y148.917 E9.92968
G1 X130.339 Y146.894 E9.99696
G1 X130.192 Y146.776 E10.00323
G1 X129.647 Y146.233 E10.02882
G1 X129.161 Y145.638 E10.05437
G1 X128.739 Y144.994 E10.07998
G1 X128.386 Y144.311 E10.10555
G1 X128.106 Y143.595 E10.13112
G1 X127.902 Y142.853 E10.15672
G1 X127.776 Y142.094 E10.18231
G1 X127.729 Y141.326 E10.2079
G1 X127.763 Y140.558 E10.23347
G1 X127.876 Y139.797 E10.25906
G1 X128.067 Y139.052 E10.28464
G1 X128.335 Y138.331 E10.31022
G1 X128.676 Y137.642 E10.33579
G1 X129.086 Y136.991 E10.36138
G1 X129.562 Y136.387 E10.38696
G1 X129.896 Y136.03 E10.40322
G1 X133.84 Y132.086 E10.58873
G0 F6000 X134.123 Y132.369
G1 F1200 X134.68 Y131.869 E10.61362
G1 X135.286 Y131.432 E10.63847
G1 X135.936 Y131.061 E10.66337
G1 X136.622 Y130.762 E10.68826
G1 X137.336 Y130.538 E10.71315
G1 X138.069 Y130.391 E10.73801
G1 X138.814 Y130.324 E10.76289
G1 X139.562 Y130.336 E10.78777
G1 X140.305 Y130.428 E10.81267
G1 X141.033 Y130.599 E10.83754
G1 X141.739 Y130.846 E10.86242
G1 X142.414 Y131.168 E10.8873
G1 X143.052 Y131.56 E10.9122
G1 X143.75 Y132.11 E10.94176
G1 X144.24 Y132.55 E10.96366
G1 X151.873 Y132.55 E11.21754
G1 X152.283 Y131.774 E11.24673
G1 X152.44 Y131.519 E11.25669
G1 X152.809 Y130.979 E11.27844
G1 X153.004 Y130.72 E11.28922
G1 X153.485 Y130.147 E11.31411
G1 X153.753 Y129.875 E11.32681
G1 X153.92 Y129.715 E11.3345
G1 X154.415 Y129.284 E11.35633
G1 X154.661 Y129.089 E11.36677
G1 X155.384 Y128.586 E11.39606
G1 X155.65 Y128.425 E11.40641
G1 X156.399 Y128.032 E11.43454
G1 X156.632 Y127.927 E11.44304
G1 X157.533 Y127.593 E11.475
G1 X157.788 Y127.518 E11.48384
G1 X158.474 Y127.354 E11.5073
G1 X158.837 Y127.286 E11.51958
G1 X159.728 Y127.177 E11.54944
G1 X159.974 Y127.163 E11.55763
G1 X160.723 Y127.161 E11.58254
G1 X161.002 Y127.175 E11.59184
G1 X161.914 Y127.281 E11.62237
G1 X162.241 Y127.341 E11.63343
G1 X163.044 Y127.538 E11.66093
G1 X163.29 Y127.614 E11.66949
G1 X164.097 Y127.919 E11.69819
G1 X164.377 Y128.045 E11.7084
G1 X165.234 Y128.505 E11.74075
G1 X165.469 Y128.653 E11.74999
G1 X166.029 Y129.045 E11.77272
G1 X166.283 Y129.242 E11.78341
G1 X166.961 Y129.841 E11.81351
G1 X167.097 Y129.978 E11.81993
G1 X167.675 Y130.639 E11.84913
G1 X167.906 Y130.939 E11.86172
G1 X168.307 Y131.518 E11.88515
G1 X168.456 Y131.758 E11.89454
G1 X168.895 Y132.583 E11.92563
G1 X169.005 Y132.828 E11.93456
G1 X169.322 Y133.677 E11.9647
G1 X169.406 Y133.956 E11.97439
G1 X169.581 Y134.674 E11.99897
G1 X169.643 Y135.002 E12.01008
G1 X169.753 Y135.898 E12.0401
G1 X169.763 Y136.071 E12.04586
G1 X169.775 Y136.475 E12.05931
G1 X169.775 Y138.265 E12.11884
G1 X169.995 Y138.57 E12.13135
G1 X170.301 Y139.035 E12.14986
G1 X170.461 Y139.3 E12.16016
G1 X170.835 Y140.007 E12.18676
G1 X170.99 Y140.346 E12.19916
G1 X171.236 Y140.96 E12.22116
G1 X171.335 Y141.245 E12.2312
G1 X171.512 Y141.835 E12.25168
G1 X171.602 Y142.193 E12.26396
G1 X171.729 Y142.817 E12.28514
G1 X171.768 Y143.066 E12.29352
G1 X171.845 Y143.838 E12.31933
G1 X171.868 Y144.355 E12.33654
G1 X171.875 Y144.666 E12.34689
G1 X171.876 Y162.733 E12.9478
G1 X171.836 Y163.48 E12.97268
G1 X171.717 Y164.218 E12.99754
G1 X171.519 Y164.94 E13.02244
G1 X171.246 Y165.636 E13.04731
G1 X171.101 Y165.957 E13.05902
G1 X170.805 Y166.644 E13.0839
G1 X170.437 Y167.295 E13.10878
G1 X170.002 Y167.904 E13.13367
G1 X169.504 Y168.462 E13.15854
G1 X168.894 Y169.009 E13.18579
G1 X168.737 Y169.134 E13.19247
G1 X168.128 Y169.568 E13.21734
G1 X167.476 Y169.935 E13.24223
G1 X167.013 Y170.143 E13.25911
G1 X166.703 Y170.269 E13.27024
G1 X165.996 Y170.513 E13.29511
G1 X165.267 Y170.68 E13.31999
G1 X164.789 Y170.747 E13.33604
G1 X164.596 Y170.767 E13.3425
G1 X163.874 Y170.804 E13.36654
G1 X162.498 Y170.804 E13.41231
G1 X162.467 Y170.834 E13.41374
G1 X161.877 Y171.293 E13.43861
G1 X161.241 Y171.688 E13.46351
G1 X160.567 Y172.012 E13.48838
G1 X159.862 Y172.262 E13.51326
G1 X159.134 Y172.436 E13.53815
G1 X158.392 Y172.531 E13.56303
G1 X157.644 Y172.546 E13.58792
G1 X156.899 Y172.482 E13.61279
G1 X156.165 Y172.338 E13.63767
G1 X155.45 Y172.117 E13.66256
G1 X154.763 Y171.82 E13.68745
G1 X154.112 Y171.453 E13.71231
G1 X153.55 Y171.05 E13.73531
G1 X143.297 Y171.05 E14.07632
G1 X142.55 Y171.01 E14.10121
G1 X141.462 Y170.805 E14.13803
G1 X141.116 Y170.711 E14.14995
G1 X140.899 Y170.642 E14.15753
G1 X135.09 Y169.093 E14.35749
G1 X134.378 Y168.862 E14.38238
G1 X133.695 Y168.556 E14.40728
G1 X133.049 Y168.179 E14.43215
G1 X132.447 Y167.736 E14.45701
G1 X131.895 Y167.23 E14.48192
G1 X131.401 Y166.669 E14.50678
G1 X130.969 Y166.058 E14.53167
G1 X130.605 Y165.405 E14.55653
G1 X130.313 Y164.716 E14.58142
G1 X130.095 Y164 E14.60632
G1 X129.956 Y163.265 E14.6312
G1 X129.896 Y162.52 E14.65606
G1 X129.915 Y161.772 E14.68094
G1 X130.015 Y161.03 E14.70584
G1 X130.132 Y160.516 E14.72338
G1 X130.738 Y158.256 E14.8012
G1 X130.738 Y157.431 E14.82864
G1 X130.66 Y157.199 E14.83678
G1 X130.498 Y156.468 E14.86168
G1 X130.405 Y155.353 E14.8989
G1 X130.404 Y155.068 E14.90838
G1 X130.449 Y154.246 E14.93576
G1 X130.538 Y153.469 E14.96177
G1 X130.663 Y152.732 E14.98663
G1 X130.74 Y152.459 E14.99607
G1 X130.74 Y150.846 E15.04972
G1 X130.714 Y150.6 E15.05794
G1 X130.675 Y149.852 E15.08286
G1 X130.739 Y149.07 E15.10895
G1 X130.739 Y146.704 E15.18765
G1 X130.353 Y146.381 E15.20439
G1 X129.834 Y145.842 E15.22927
