;FLAVOR:Marlin
;TIME:4160
;Filament used: 3.14074m
;Layer height: 0.2
;MINX:107.274
;MINY:118.591
;MINZ:0.24
;MAXX:157.038
;MAXY:183.055
;MAXZ:18.54
;POSTPROCESSED
;Generated with Cura_SteamEngine 4.12.1
M140 S90
M105
M190 S90
M82 ;absolute extrusion mode
M201 X500.00 Y500.00 Z100.00 E5000.00 ;Setup machine max acceleration
M203 X500.00 Y500.00 Z10.00 E50.00 ;Setup machine max feedrate
M204 P500.00 R1000.00 T500.00 ;Setup Print/Retract/Travel acceleration
M205 X8.00 Y8.00 Z0.40 E5.00 ;Setup Jerk
M220 S100 ;Reset Feedrate
M221 S100 ;Reset Flowrate
M140 S90 ; set bed temp
M190 S90 ; wait for bed temp
G28; home all 
G29;
G92 E0 ;Reset Extruder
;G1 Z2.0 F3000 ;Move Z Axis up
G1 X10.1 Y20 Z0.28 F5000.0 ;Move to start position
M104 S245 ; wait for extruder printing temp
M109 S245 ; wait for extruder printing temp
G1 X10.1 Y200.0 Z0.28 F1500.0 E15 ;Draw the first line
G1 X10.4 Y200.0 Z0.28 F5000.0 ;Move to side a little
G1 X10.4 Y20 Z0.28 F1500.0 E30 ;Draw the second line
G92 E0 ;Reset Extruder
G1 Z2.0 F3000 ;Move Z Axis up
G92 E0
G92 E0
G1 F1800 E-3
;LAYER_COUNT:87
;LAYER:-6
M107
G0 F9000 X113.43 Y123.267 Z0.24
;TYPE:SUPPORT-INTERFACE
G1 F1800 E0
G1 F1350 X113.569 Y123.148 E0.01461
G1 X114.26 Y122.594 E0.0853
G1 X114.399 Y122.49 E0.09916
G1 X115.114 Y121.998 E0.16844
G1 X115.298 Y121.881 E0.18585
G1 X116.054 Y121.438 E0.25579
G1 X116.196 Y121.361 E0.26869
G1 X117.028 Y120.952 E0.34269
G1 X117.141 Y120.902 E0.35256
G1 X117.991 Y120.559 E0.42572
G1 X118.164 Y120.497 E0.44039
G1 X119.002 Y120.228 E0.51065
G1 X119.166 Y120.182 E0.52424
G1 X120.038 Y119.97 E0.59588
G1 X120.2 Y119.937 E0.60907
G1 X121.093 Y119.789 E0.68133
G1 X121.27 Y119.766 E0.69558
G1 X122.164 Y119.683 E0.76725
G1 X122.306 Y119.676 E0.7786
G1 X123.047 Y119.655 E0.83777
G1 X139.336 Y119.656 E2.13803
G1 X140.337 Y119.692 E2.21798
G1 X140.46 Y119.701 E2.22783
G1 X141.377 Y119.803 E2.30148
G1 X141.552 Y119.828 E2.31559
G1 X142.441 Y119.992 E2.38775
G1 X142.564 Y120.02 E2.39782
G1 X143.458 Y120.254 E2.47159
G1 X143.621 Y120.303 E2.48517
G1 X144.463 Y120.589 E2.55616
G1 X144.629 Y120.653 E2.57036
G1 X145.432 Y120.994 E2.64
G1 X145.621 Y121.082 E2.65664
G1 X146.415 Y121.49 E2.7279
G1 X146.532 Y121.557 E2.73866
G1 X147.311 Y122.031 E2.81145
G1 X147.462 Y122.131 E2.82591
G1 X148.176 Y122.642 E2.896
G1 X148.324 Y122.755 E2.91086
G1 X149.016 Y123.332 E2.98278
G1 X149.124 Y123.428 E2.99432
G1 X149.636 Y123.91 E3.05045
G1 X149.793 Y124.067 E3.06817
G1 X150.451 Y124.776 E3.14538
G1 X150.57 Y124.915 E3.15999
G1 X151.11 Y125.588 E3.22887
G1 X151.236 Y125.757 E3.24569
G1 X151.72 Y126.46 E3.31382
G1 X151.837 Y126.644 E3.33123
G1 X152.28 Y127.4 E3.40117
G1 X152.357 Y127.542 E3.41407
G1 X152.76 Y128.361 E3.48693
G1 X152.816 Y128.487 E3.49794
G1 X153.158 Y129.332 E3.5707
G1 X153.217 Y129.497 E3.58469
G1 X153.489 Y130.344 E3.6557
G1 X153.535 Y130.507 E3.66922
G1 X153.748 Y131.382 E3.74111
G1 X153.78 Y131.538 E3.75382
G1 X153.928 Y132.43 E3.826
G1 X153.952 Y132.616 E3.84097
G1 X154.033 Y133.501 E3.91191
G1 X154.042 Y133.652 E3.92398
G1 X154.063 Y134.383 E3.98236
G1 X154.063 Y134.773 E4.01349
G1 X154.105 Y135.441 E4.06692
G1 X154.234 Y136.112 E4.12146
G1 X154.448 Y136.765 E4.17631
G1 X154.843 Y137.555 E4.24682
G1 X155.014 Y137.848 E4.2739
G1 X155.428 Y138.655 E4.3463
G1 X155.493 Y138.793 E4.35848
G1 X155.845 Y139.624 E4.43052
G1 X155.906 Y139.787 E4.44441
G1 X156.202 Y140.655 E4.51761
G1 X156.237 Y140.771 E4.52729
G1 X156.467 Y141.657 E4.60035
G1 X156.511 Y141.851 E4.61623
G1 X156.664 Y142.691 E4.68439
G1 X156.693 Y142.889 E4.70036
G1 X156.79 Y143.776 E4.77159
G1 X156.801 Y143.926 E4.7836
G1 X156.837 Y144.919 E4.86291
G1 X156.838 Y157.589 E5.87429
G1 X156.802 Y158.595 E5.95464
G1 X156.792 Y158.73 E5.96545
G1 X156.688 Y159.672 E6.0411
G1 X156.67 Y159.798 E6.05126
G1 X156.505 Y160.693 E6.12391
G1 X156.471 Y160.845 E6.13634
G1 X156.241 Y161.727 E6.2091
G1 X156.194 Y161.883 E6.2221
G1 X155.897 Y162.752 E6.29541
G1 X155.851 Y162.876 E6.30597
G1 X155.499 Y163.705 E6.37786
G1 X155.415 Y163.884 E6.39364
G1 X155.011 Y164.67 E6.46419
G1 X154.846 Y164.953 E6.49034
G1 X154.534 Y165.546 E6.54383
G1 X154.294 Y166.187 E6.59846
G1 X154.137 Y166.855 E6.65324
G1 X154.063 Y167.737 E6.72389
G1 X154.063 Y168.112 E6.75382
G1 X154.027 Y169.118 E6.83418
G1 X154.017 Y169.253 E6.84498
G1 X153.915 Y170.171 E6.91871
G1 X153.89 Y170.346 E6.93283
G1 X153.727 Y171.223 E7.00403
G1 X153.694 Y171.373 E7.01629
G1 X153.465 Y172.25 E7.08864
G1 X153.418 Y172.406 E7.10165
G1 X153.133 Y173.241 E7.17208
G1 X153.058 Y173.437 E7.18883
G1 X152.723 Y174.225 E7.25718
G1 X152.642 Y174.4 E7.27257
G1 X152.227 Y175.208 E7.34508
G1 X152.16 Y175.325 E7.35584
G1 X151.686 Y176.104 E7.42863
G1 X151.586 Y176.255 E7.44309
G1 X151.075 Y176.969 E7.51318
G1 X150.962 Y177.117 E7.52804
G1 X150.385 Y177.809 E7.59996
G1 X150.289 Y177.917 E7.6115
G1 X149.773 Y178.464 E7.67152
G1 X149.645 Y178.591 E7.68592
G1 X148.953 Y179.233 E7.76127
G1 X148.805 Y179.36 E7.77683
G1 X148.112 Y179.916 E7.84775
G1 X147.973 Y180.02 E7.86161
G1 X147.258 Y180.512 E7.93089
G1 X147.074 Y180.629 E7.9483
G1 X146.318 Y181.072 E8.01824
G1 X146.176 Y181.149 E8.03114
G1 X145.348 Y181.556 E8.10479
G1 X145.231 Y181.608 E8.11501
G1 X144.376 Y181.953 E8.1886
G1 X144.213 Y182.011 E8.20241
G1 X143.37 Y182.282 E8.2731
G1 X143.206 Y182.328 E8.28669
G1 X142.334 Y182.54 E8.35833
G1 X142.172 Y182.573 E8.37152
G1 X141.279 Y182.721 E8.44378
G1 X141.102 Y182.744 E8.45803
G1 X140.208 Y182.827 E8.5297
G1 X140.066 Y182.834 E8.54105
G1 X139.325 Y182.855 E8.60022
G1 X123.036 Y182.854 E9.90048
G1 X122.035 Y182.818 E9.98043
G1 X121.912 Y182.809 E9.99028
G1 X120.995 Y182.707 E10.06393
G1 X120.82 Y182.682 E10.07804
G1 X119.931 Y182.518 E10.1502
G1 X119.808 Y182.49 E10.16027
G1 X118.914 Y182.256 E10.23404
G1 X118.751 Y182.207 E10.24762
G1 X117.909 Y181.921 E10.31861
G1 X117.743 Y181.857 E10.33281
G1 X116.94 Y181.516 E10.40245
G1 X116.751 Y181.428 E10.41909
G1 X115.957 Y181.02 E10.49035
G1 X115.84 Y180.953 E10.50111
G1 X115.061 Y180.479 E10.5739
G1 X114.91 Y180.379 E10.58836
G1 X114.196 Y179.868 E10.65845
G1 X114.048 Y179.755 E10.67331
G1 X113.356 Y179.178 E10.74523
G1 X113.248 Y179.082 E10.75677
G1 X112.736 Y178.6 E10.8129
G1 X112.565 Y178.427 E10.83231
G1 X111.932 Y177.745 E10.90659
G1 X111.815 Y177.608 E10.92097
G1 X111.261 Y176.917 E10.99167
G1 X111.157 Y176.778 E11.00553
G1 X110.665 Y176.063 E11.07481
G1 X110.548 Y175.879 E11.09221
G1 X110.102 Y175.118 E11.16262
G1 X110.035 Y174.995 E11.1738
G1 X109.618 Y174.147 E11.24924
G1 X109.564 Y174.024 E11.25996
G1 X109.223 Y173.177 E11.33284
G1 X109.164 Y173.013 E11.34676
G1 X108.892 Y172.166 E11.41777
G1 X108.846 Y172.002 E11.43137
G1 X108.632 Y171.118 E11.50397
G1 X108.605 Y170.984 E11.51488
G1 X108.453 Y170.065 E11.58923
G1 X108.433 Y169.907 E11.60195
G1 X108.35 Y168.999 E11.67473
G1 X108.343 Y168.873 E11.6848
G1 X108.322 Y168.126 E11.74446
G1 X108.323 Y166.911 E11.84144
G1 X108.331 Y166.663 E11.86125
G1 X108.333 Y166.303 E11.88999
G1 X108.322 Y165.938 E11.91914
G1 X108.323 Y157.488 E12.59365
G1 X108.328 Y157.34 E12.60547
G1 X108.33 Y157.076 E12.62655
G1 X108.322 Y156.545 E12.66894
G1 X108.325 Y145.869 E13.52114
G1 X108.331 Y145.71 E13.53384
G1 X108.333 Y145.365 E13.56138
G1 X108.322 Y144.988 E13.59149
G1 X108.323 Y136.538 E14.26601
G1 X108.328 Y136.39 E14.27783
G1 X108.33 Y136.126 E14.2989
G1 X108.322 Y135.599 E14.34097
G1 X108.322 Y134.386 E14.4378
G1 X108.358 Y133.38 E14.51815
G1 X108.368 Y133.245 E14.52896
G1 X108.47 Y132.328 E14.60261
G1 X108.495 Y132.153 E14.61672
G1 X108.657 Y131.275 E14.68799
G1 X108.687 Y131.141 E14.69895
G1 X108.918 Y130.256 E14.77196
G1 X108.97 Y130.084 E14.78631
G1 X109.256 Y129.242 E14.85729
G1 X109.32 Y129.076 E14.87149
G1 X109.663 Y128.266 E14.94171
G1 X109.742 Y128.098 E14.95653
G1 X110.157 Y127.29 E15.02903
G1 X110.224 Y127.173 E15.0398
G1 X110.698 Y126.394 E15.11259
G1 X110.798 Y126.243 E15.12704
G1 X111.309 Y125.529 E15.19713
G1 X111.422 Y125.381 E15.21199
G1 X111.999 Y124.689 E15.28392
G1 X112.095 Y124.581 E15.29545
G1 X112.577 Y124.069 E15.35158
G1 X112.734 Y123.913 E15.36925
G1 X113.43 Y123.267 E15.44505
G0 F9000 X113.6 Y123.123
G1 F1350 X113.6 Y179.381 E19.93581
G0 F9000 X115.2 Y180.563
G1 F1350 X115.2 Y121.943 E24.61511
G0 F9000 X116.8 Y121.064
G1 F1350 X116.8 Y181.45 E29.43538
G0 F9000 X118.4 Y182.087
G1 F1350 X118.4 Y120.421 E34.35783
G0 F9000 X120 Y119.979
G1 F1350 X120 Y182.53 E39.35092
G0 F9000 X121.6 Y182.774
G1 F1350 X121.6 Y119.735 E44.38296
G0 F9000 X123.2 Y119.656
G1 F1350 X123.2 Y182.854 E49.4277
G0 F9000 X124.8 Y182.854
G1 F1350 X124.8 Y119.656 E54.47244
G0 F9000 X126.4 Y119.656
G1 F1350 X126.4 Y182.854 E59.51718
G0 F9000 X128 Y182.854
G1 F1350 X128 Y119.656 E64.56191
G0 F9000 X129.6 Y119.656
G1 F1350 X129.6 Y182.854 E69.60665
G0 F9000 X131.2 Y182.854
G1 F1350 X131.2 Y119.656 E74.65139
G0 F9000 X132.8 Y119.656
G1 F1350 X132.8 Y182.854 E79.69613
G0 F9000 X134.4 Y182.854
G1 F1350 X134.4 Y119.656 E84.74086
G0 F9000 X136 Y119.656
G1 F1350 X136 Y182.854 E89.7856
G0 F9000 X137.6 Y182.854
G1 F1350 X137.6 Y119.656 E94.83034
G0 F9000 X139.2 Y119.656
G1 F1350 X139.2 Y182.854 E99.87508
G0 F9000 X140.8 Y182.773
G1 F1350 X140.8 Y119.739 E104.90672
G0 F9000 X142.4 Y119.985
G1 F1350 X142.4 Y182.524 E109.89886
G0 F9000 X144 Y182.08
G1 F1350 X144 Y120.432 E114.81987
G0 F9000 X145.6 Y121.073
G1 F1350 X145.6 Y181.433 E119.63806
G0 F9000 X147.2 Y180.549
G1 F1350 X147.2 Y121.964 E124.31457
G0 F9000 X148.8 Y123.152
G1 F1350 X148.8 Y179.365 E128.80174
G0 F9000 X150.4 Y177.792
G1 F1350 X150.4 Y124.722 E133.03801
G0 F9000 X152 Y126.923
G1 F1350 X152 Y175.588 E136.92266
G0 F9000 X153.6 Y171.733
G1 F1350 X153.6 Y130.775 E140.19211
G0 F9000 X153.905 Y132.254
G0 X155.2 Y138.211
G1 F1350 X155.2 Y164.303 E142.27489
G0 F9000 X156.8 Y158.622
G1 F1350 X156.8 Y143.913 E143.44902
G1 F1800 E140.44902
G0 F9000 X112 Y124.687
G1 F1800 E143.44902
G1 F1350 X112 Y177.818 E147.69017
G0 F9000 X110.4 Y175.626
G1 F1350 X110.4 Y126.883 E151.58104
G0 F9000 X108.8 Y130.708
M104 S245
G1 F1350 X108.8 Y171.811 E154.86206
G0 F300 X108.8 Y171.811 Z0.54
G0 F9000 X110.548 Y175.877
;TIME_ELAPSED:95.882449
;LAYER:-5
;TYPE:SUPPORT
G1 F1350 X110.665 Y176.062 E154.8839
G1 X111.156 Y176.777 E154.97045
G1 X111.261 Y176.915 E154.98775
G1 X111.814 Y177.606 E155.07606
G1 X111.932 Y177.744 E155.09418
G1 X112.565 Y178.426 E155.18702
G1 X112.736 Y178.598 E155.21122
G1 X113.248 Y179.081 E155.28146
G1 X113.355 Y179.177 E155.2958
G1 X114.048 Y179.754 E155.38578
G1 X114.195 Y179.867 E155.40428
G1 X114.909 Y180.377 E155.49183
G1 X115.061 Y180.478 E155.51004
G1 X115.84 Y180.952 E155.60103
G1 X115.957 Y181.019 E155.61448
G1 X115.973 Y181.027 E155.61626
G1 X110.155 Y175.209 E156.43725
G1 X110.101 Y175.117 E156.44789
G1 X110.035 Y174.994 E156.46182
G1 X109.618 Y174.146 E156.55611
G1 X109.563 Y174.023 E156.56955
G1 X109.222 Y173.176 E156.66066
G1 X109.163 Y173.012 E156.67805
G1 X109.064 Y172.704 E156.71033
G1 X118.472 Y182.111 E158.03783
G1 X118.75 Y182.206 E158.06715
G1 X118.914 Y182.255 E158.08423
G1 X119.807 Y182.488 E158.17631
G1 X119.93 Y182.516 E158.1889
G1 X120.373 Y182.599 E158.23387
G1 X108.574 Y170.799 E159.89891
G1 X108.452 Y170.064 E159.97325
G1 X108.433 Y169.906 E159.98913
G1 X108.366 Y169.177 E160.06218
G1 X122.003 Y182.814 E161.9865
G1 X122.034 Y182.817 E161.98961
G1 X123.035 Y182.852 E162.08955
G1 X123.455 Y182.852 E162.13146
G1 X108.322 Y167.719 E164.26689
G1 X108.323 Y166.909 E164.34771
G1 X108.331 Y166.662 E164.37237
G1 X108.332 Y166.315 E164.40699
G1 X124.87 Y182.852 E166.74061
G1 X126.284 Y182.852 E166.8817
G1 X108.322 Y164.89 E169.41634
G1 X108.322 Y163.476 E169.55743
G1 X127.698 Y182.852 E172.29159
G1 X129.112 Y182.852 E172.43268
G1 X108.322 Y162.062 E175.36637
G1 X108.322 Y160.648 E175.50746
G1 X130.526 Y182.852 E178.64069
G1 X131.941 Y182.853 E178.78187
G1 X108.322 Y159.234 E182.11477
G1 X108.322 Y157.819 E182.25596
G1 X133.356 Y182.853 E185.78853
G1 X134.77 Y182.853 E185.92962
G1 X108.322 Y156.405 E189.66172
G1 X108.322 Y154.991 E189.80281
G1 X136.184 Y182.853 E193.73443
G1 X137.598 Y182.853 E193.87552
G1 X108.323 Y153.577 E198.00661
G1 X108.323 Y152.163 E198.1477
G1 X139.012 Y182.853 E202.47832
G1 X139.324 Y182.854 E202.50945
G1 X140.065 Y182.833 E202.58342
G1 X140.207 Y182.826 E202.59761
G1 X140.383 Y182.809 E202.61525
G1 X108.323 Y150.75 E207.13919
G1 X108.323 Y149.336 E207.28028
G1 X141.646 Y182.658 E211.98245
G1 X142.172 Y182.572 E212.03563
G1 X142.334 Y182.538 E212.05214
G1 X142.822 Y182.42 E212.10224
G1 X108.324 Y147.922 E216.97028
G1 X108.324 Y146.508 E217.11137
G1 X143.92 Y182.104 E222.13435
G1 X144.213 Y182.01 E222.16505
G1 X144.376 Y181.952 E222.18232
G1 X144.95 Y181.72 E222.24409
G1 X108.325 Y145.094 E227.41235
G1 X108.322 Y144.987 E227.42303
G1 X108.322 Y143.677 E227.55374
G1 X145.918 Y181.273 E232.85894
G1 X146.175 Y181.148 E232.88746
G1 X146.318 Y181.07 E232.90371
G1 X146.83 Y180.771 E232.96287
G1 X108.322 Y142.263 E238.39677
G1 X108.322 Y140.849 E238.53786
G1 X147.688 Y180.215 E244.09282
G1 X147.973 Y180.019 E244.12734
G1 X148.112 Y179.914 E244.14472
G1 X148.494 Y179.607 E244.19362
G1 X108.322 Y139.435 E249.86232
G1 X108.322 Y138.02 E250.00351
G1 X149.253 Y178.952 E255.77939
G1 X149.645 Y178.589 E255.8327
G1 X149.772 Y178.463 E255.85055
G1 X149.97 Y178.254 E255.87927
G1 X108.322 Y136.606 E261.75626
G1 X108.322 Y136.537 E261.76314
G1 X108.328 Y136.388 E261.77802
G1 X108.33 Y136.125 E261.80426
G1 X108.322 Y135.598 E261.85685
G1 X108.321 Y135.191 E261.89746
G1 X150.637 Y177.507 E267.86871
G1 X150.961 Y177.116 E267.91938
G1 X151.075 Y176.968 E267.93802
G1 X151.257 Y176.713 E267.96928
G1 X108.342 Y133.798 E274.02505
G1 X108.357 Y133.379 E274.06688
G1 X108.368 Y133.244 E274.0804
G1 X108.451 Y132.492 E274.15589
G1 X151.828 Y175.87 E280.27692
G1 X152.159 Y175.324 E280.34063
G1 X152.226 Y175.207 E280.35408
G1 X152.346 Y174.974 E280.38023
G1 X108.654 Y131.282 E286.54565
G1 X108.656 Y131.274 E286.54647
G1 X108.687 Y131.14 E286.56019
G1 X108.917 Y130.255 E286.65143
G1 X108.946 Y130.159 E286.66144
G1 X152.809 Y174.022 E292.85098
G1 X153.057 Y173.436 E292.91448
G1 X153.133 Y173.24 E292.93545
G1 X153.211 Y173.01 E292.95968
G1 X109.307 Y129.106 E299.15501
G1 X109.32 Y129.075 E299.15837
G1 X109.663 Y128.265 E299.24614
G1 X109.732 Y128.117 E299.26243
G1 X153.548 Y171.933 E305.44534
G1 X153.694 Y171.372 E305.50318
G1 X153.727 Y171.222 E305.51851
G1 X153.809 Y170.78 E305.56336
G1 X110.216 Y127.186 E311.71488
G1 X110.224 Y127.172 E311.71649
G1 X110.698 Y126.393 E311.80747
G1 X110.753 Y126.309 E311.81749
G1 X153.985 Y169.541 E317.91799
G1 X154.017 Y169.252 E317.94701
G1 X154.027 Y169.117 E317.96051
G1 X154.06 Y168.202 E318.05187
G1 X111.341 Y125.483 E324.07998
G1 X111.422 Y125.38 E324.09306
G1 X111.98 Y124.708 E324.18021
G1 X154.136 Y166.864 E330.12888
G1 X154.137 Y166.853 E330.12998
G1 X154.294 Y166.186 E330.19836
G1 X154.451 Y165.765 E330.24319
G1 X112.666 Y123.979 E336.13957
G1 X112.734 Y123.911 E336.14917
G1 X113.398 Y123.297 E336.23941
G1 X154.924 Y164.824 E342.09925
G1 X154.929 Y164.815 E342.10027
G1 X155.011 Y164.668 E342.11707
G1 X155.409 Y163.894 E342.20391
G1 X114.176 Y122.661 E348.02233
G1 X114.259 Y122.593 E348.03304
G1 X114.398 Y122.489 E348.05036
G1 X115.003 Y122.074 E348.12357
G1 X155.837 Y162.908 E353.88568
G1 X155.851 Y162.875 E353.88926
G1 X155.896 Y162.751 E353.90242
G1 X156.194 Y161.882 E353.99409
G1 X156.202 Y161.858 E353.99661
G1 X115.882 Y121.538 E359.6862
G1 X116.053 Y121.437 E359.70602
G1 X116.196 Y121.36 E359.72222
G1 X116.814 Y121.057 E359.7909
G1 X156.495 Y160.738 E365.39032
G1 X156.504 Y160.692 E365.395
G1 X156.67 Y159.796 E365.48592
G1 X156.687 Y159.671 E365.49851
G1 X156.703 Y159.531 E365.51257
G1 X117.805 Y120.633 E371.0015
G1 X117.991 Y120.558 E371.02151
G1 X118.163 Y120.495 E371.03978
G1 X118.859 Y120.273 E371.11268
G1 X156.815 Y158.229 E376.46868
G1 X156.837 Y157.588 E376.53268
G1 X156.837 Y156.837 E376.60761
G1 X119.983 Y119.983 E381.80811
G1 X120.037 Y119.969 E381.81368
G1 X120.198 Y119.937 E381.83005
G1 X121.092 Y119.788 E381.92049
G1 X121.191 Y119.776 E381.93044
G1 X156.837 Y155.423 E386.96055
