;FLAVOR:Marlin
;TIME:3797
;Filament used: 1.9017m
;Layer height: 0.2
;MINX:124.81
;MINY:132.85
;MINZ:0.2
;MAXX:175.289
;MAXY:168.05
;MAXZ:19
;Generated with Cura_SteamEngine 4.12.1
M140 S95
M105
M190 S95
M82 ;absolute extrusion mode
M201 X500.00 Y500.00 Z100.00 E5000.00 ;Setup machine max acceleration
M203 X500.00 Y500.00 Z10.00 E50.00 ;Setup machine max feedrate
M204 P500.00 R1000.00 T500.00 ;Setup Print/Retract/Travel acceleration
M205 X8.00 Y8.00 Z0.40 E5.00 ;Setup Jerk
M220 S100 ;Reset Feedrate
M221 S100 ;Reset Flowrate
M140 S95 ; set bed temp
M190 S95 ; wait for bed temp
G28; home all 
G29;
G92 E0 ;Reset Extruder
G1 Z2.0 F3000 ;Move Z Axis up
G1 X10.1 Y20 Z0.28 F5000.0 ;Move to start position
M104 S230 ; wait for extruder printing temp
M109 S230 ; wait for extruder printing temp
G1 X10.1 Y200.0 Z0.28 F1500.0 E15 ;Draw the first line
G1 X10.4 Y200.0 Z0.28 F5000.0 ;Move to side a little
G1 X10.4 Y20 Z0.28 F1500.0 E30 ;Draw the second line
G92 E0 ;Reset Extruder
G1 Z2.0 F3000 ;Move Z Axis up
G92 E0
G92 E0
G1 F2700 E-3
;LAYER_COUNT:95
;LAYER:0
M107
G0 F6000 X127.233 Y138.599 Z0.2
;TYPE:SKIRT
G1 F2700 E0
G1 F1200 X127.832 Y138.085 E0.02625
G1 X128.48 Y137.633 E0.05253
G1 X129.17 Y137.249 E0.07879
G1 X129.896 Y136.938 E0.10506
G1 X130.649 Y136.701 E0.13132
G1 X131.422 Y136.541 E0.15757
G1 X132.208 Y136.46 E0.18386
G1 X132.61 Y136.45 E0.19723
G1 X134.61 Y136.45 E0.26375
G1 X134.942 Y136.467 E0.27481
G1 X135.008 Y136.46 E0.27701
G1 X135.41 Y136.45 E0.29039
G1 X153.131 Y136.45 E0.87979
G1 X154.446 Y135.135 E0.94165
G1 X155.032 Y134.605 E0.96793
G1 X155.668 Y134.138 E0.99417
G1 X156.348 Y133.737 E1.02043
G1 X157.066 Y133.407 E1.04671
G1 X157.813 Y133.152 E1.07296
G1 X158.582 Y132.973 E1.09922
G1 X159.366 Y132.873 E1.12551
G1 X159.961 Y132.85 E1.14531
G1 X167.489 Y132.85 E1.3957
G1 X168.278 Y132.89 E1.42197
G1 X169.058 Y133.009 E1.44821
G1 X169.823 Y133.207 E1.4745
G1 X170.563 Y133.481 E1.50074
G1 X171.272 Y133.829 E1.52701
G1 X171.943 Y134.247 E1.55331
G1 X172.567 Y134.73 E1.57955
G1 X173.14 Y135.273 E1.60581
G1 X173.655 Y135.872 E1.63208
G1 X174.106 Y136.52 E1.65834
G1 X174.49 Y137.211 E1.68463
G1 X174.802 Y137.936 E1.71088
G1 X175.039 Y138.689 E1.73714
G1 X175.198 Y139.463 E1.76342
G1 X175.279 Y140.248 E1.78967
G1 X175.289 Y140.651 E1.80308
G1 X175.288 Y151.381 E2.15996
G1 X175.238 Y152.261 E2.18927
G1 X175.213 Y152.481 E2.19664
G1 X175.101 Y153.156 E2.2194
G1 X175.141 Y153.396 E2.22749
G1 X175.191 Y154.184 E2.25375
G1 X175.162 Y154.973 E2.28001
G1 X175.146 Y155.088 E2.28387
G1 X175.179 Y155.696 E2.30412
G1 X175.142 Y156.485 E2.3304
G1 X175.088 Y156.845 E2.3425
G1 X175.207 Y157.481 E2.36402
G1 X175.234 Y157.708 E2.37163
G1 X175.289 Y158.629 E2.40231
G1 X175.289 Y160.25 E2.45623
G1 X175.249 Y161.039 E2.4825
G1 X175.13 Y161.819 E2.50875
G1 X174.932 Y162.584 E2.53503
G1 X174.658 Y163.324 E2.56128
G1 X174.31 Y164.033 E2.58754
G1 X173.892 Y164.704 E2.61384
G1 X173.409 Y165.328 E2.64008
G1 X172.866 Y165.901 E2.66634
G1 X172.267 Y166.416 E2.69261
G1 X171.619 Y166.867 E2.71887
G1 X170.928 Y167.251 E2.74517
G1 X170.203 Y167.563 E2.77142
G1 X169.45 Y167.8 E2.79767
G1 X168.676 Y167.959 E2.82395
G1 X167.891 Y168.04 E2.8502
G1 X167.489 Y168.05 E2.86358
G1 X135.411 Y168.05 E3.9305
G1 X135.079 Y168.033 E3.94155
G1 X135.013 Y168.04 E3.94376
G1 X134.611 Y168.05 E3.95713
G1 X132.611 Y168.05 E4.02365
G1 X131.822 Y168.01 E4.04993
G1 X131.042 Y167.891 E4.07617
G1 X130.277 Y167.693 E4.10246
G1 X129.537 Y167.419 E4.1287
G1 X128.828 Y167.071 E4.15497
G1 X128.157 Y166.653 E4.18126
G1 X127.533 Y166.17 E4.20751
G1 X126.96 Y165.627 E4.23377
G1 X126.445 Y165.028 E4.26004
G1 X125.994 Y164.38 E4.2863
G1 X125.61 Y163.689 E4.31259
G1 X125.298 Y162.964 E4.33884
G1 X125.061 Y162.211 E4.3651
G1 X124.902 Y161.437 E4.39138
G1 X124.821 Y160.652 E4.41763
G1 X124.811 Y160.25 E4.431
G1 X124.81 Y144.25 E4.96316
G1 X124.85 Y143.462 E4.98941
G1 X124.969 Y142.681 E5.01568
G1 X125.167 Y141.917 E5.04193
G1 X125.441 Y141.176 E5.06821
G1 X125.789 Y140.467 E5.09448
G1 X126.206 Y139.797 E5.12073
G1 X126.689 Y139.172 E5.147
G1 X127.233 Y138.599 E5.17328
G0 F6000 X127.626 Y138.78
G1 F1200 X128.221 Y138.292 E5.19887
G1 X128.863 Y137.869 E5.22444
G1 X129.545 Y137.514 E5.25002
G1 X130.261 Y137.233 E5.2756
G1 X131.002 Y137.027 E5.30118
G1 X131.761 Y136.899 E5.32678
G1 X132.61 Y136.85 E5.35506
G1 X134.61 Y136.85 E5.42158
G1 X135.031 Y136.872 E5.43561
G1 X135.41 Y136.85 E5.44823
G1 X153.295 Y136.85 E6.04309
G1 X154.728 Y135.417 E6.11049
G1 X155.3 Y134.903 E6.13607
G1 X155.922 Y134.45 E6.16167
G1 X156.587 Y134.064 E6.18724
G1 X157.289 Y133.749 E6.21283
G1 X158.02 Y133.509 E6.23842
G1 X158.771 Y133.346 E6.26398
G1 X159.536 Y133.262 E6.28958
G1 X159.961 Y133.25 E6.30372
G1 X167.489 Y133.25 E6.5541
G1 X168.257 Y133.29 E6.57968
G1 X169.017 Y133.409 E6.60526
G1 X169.76 Y133.607 E6.63084
G1 X170.479 Y133.881 E6.65643
G1 X171.165 Y134.228 E6.682
G1 X171.812 Y134.644 E6.70758
G1 X172.412 Y135.125 E6.73316
G1 X172.959 Y135.666 E6.75875
G1 X173.447 Y136.261 E6.78434
G1 X173.87 Y136.903 E6.80992
G1 X174.225 Y137.586 E6.83552
G1 X174.506 Y138.301 E6.86107
G1 X174.712 Y139.043 E6.88668
G1 X174.84 Y139.801 E6.91225
G1 X174.889 Y140.651 E6.94057
G1 X174.888 Y151.381 E7.29745
G1 X174.841 Y152.216 E7.32527
G1 X174.816 Y152.436 E7.33263
G1 X174.695 Y153.158 E7.35698
G1 X174.756 Y153.561 E7.37053
G1 X174.792 Y154.329 E7.39611
G1 X174.747 Y155.099 E7.42176
G1 X174.779 Y155.738 E7.44304
G1 X174.738 Y156.506 E7.46862
G1 X174.684 Y156.847 E7.4801
G1 X174.81 Y157.528 E7.50314
G1 X174.837 Y157.755 E7.51074
G1 X174.889 Y158.629 E7.53986
G1 X174.889 Y160.25 E7.59378
G1 X174.849 Y161.018 E7.61936
G1 X174.73 Y161.778 E7.64494
G1 X174.532 Y162.521 E7.67052
G1 X174.258 Y163.24 E7.69611
G1 X173.911 Y163.926 E7.72168
G1 X173.495 Y164.573 E7.74726
G1 X173.014 Y165.173 E7.77284
G1 X172.473 Y165.72 E7.79843
G1 X171.878 Y166.208 E7.82402
G1 X171.236 Y166.631 E7.84959
G1 X170.553 Y166.986 E7.87519
G1 X169.838 Y167.267 E7.90075
G1 X169.096 Y167.473 E7.92636
G1 X168.338 Y167.601 E7.95193
G1 X167.489 Y167.65 E7.98021
G1 X135.411 Y167.65 E9.04713
G1 X134.99 Y167.628 E9.06115
G1 X134.611 Y167.65 E9.07378
G1 X132.611 Y167.65 E9.1403
G1 X131.843 Y167.61 E9.16588
G1 X131.083 Y167.491 E9.19146
G1 X130.34 Y167.293 E9.21704
G1 X129.621 Y167.019 E9.24263
G1 X128.935 Y166.672 E9.2682
G1 X128.288 Y166.256 E9.29378
G1 X127.688 Y165.775 E9.31936
G1 X127.141 Y165.234 E9.34495
G1 X126.653 Y164.639 E9.37054
G1 X126.23 Y163.997 E9.39611
G1 X125.875 Y163.314 E9.42171
G1 X125.594 Y162.599 E9.44727
G1 X125.388 Y161.857 E9.47288
G1 X125.26 Y161.099 E9.49845
G1 X125.211 Y160.25 E9.52673
G1 X125.21 Y144.25 E10.05889
G1 X125.25 Y143.482 E10.08447
G1 X125.369 Y142.723 E10.11003
G1 X125.567 Y141.979 E10.13563
G1 X125.841 Y141.26 E10.16122
G1 X126.188 Y140.574 E10.18679
G1 X126.604 Y139.927 E10.21238
G1 X127.085 Y139.327 E10.23795
G1 X127.626 Y138.78 E10.26354
G0 F6000 X128.018 Y138.967
G1 F1200 X128.608 Y138.507 E10.28843
G1 X129.244 Y138.113 E10.31331
G1 X129.918 Y137.788 E10.3382
G1 X130.623 Y137.538 E10.36308
G1 X131.35 Y137.364 E10.38794
G1 X132.092 Y137.269 E10.41282
G1 X132.61 Y137.25 E10.43006
G1 X134.61 Y137.25 E10.49658
G1 X134.935 Y137.267 E10.5074
G1 X135.41 Y137.25 E10.52321
G1 X153.461 Y137.25 E11.12359
G1 X155.011 Y135.7 E11.1965
G1 X155.568 Y135.2 E11.22139
G1 X156.174 Y134.763 E11.24624
G1 X156.824 Y134.392 E11.27114
G1 X157.51 Y134.093 E11.29603
G1 X158.224 Y133.869 E11.32091
G1 X158.957 Y133.722 E11.34578
G1 X159.961 Y133.65 E11.37926
G1 X167.489 Y133.65 E11.62964
G1 X168.236 Y133.69 E11.65452
G1 X168.974 Y133.809 E11.67938
G1 X169.696 Y134.007 E11.70429
G1 X170.392 Y134.28 E11.72915
G1 X171.055 Y134.627 E11.75404
G1 X171.678 Y135.042 E11.77894
G1 X172.252 Y135.521 E11.8038
G1 X172.773 Y136.058 E11.82869
G1 X173.232 Y136.648 E11.85355
G1 X173.627 Y137.284 E11.87845
G1 X173.951 Y137.958 E11.90333
G1 X174.201 Y138.663 E11.9282
G1 X174.375 Y139.391 E11.9531
G1 X174.47 Y140.133 E11.97798
G1 X174.489 Y140.651 E11.99522
G1 X174.488 Y151.381 E12.3521
G1 X174.443 Y152.17 E12.37839
G1 X174.418 Y152.39 E12.38575
G1 X174.294 Y153.128 E12.41064
G1 X174.29 Y153.14 E12.41106
G1 X174.369 Y153.722 E12.4306
G1 X174.39 Y154.47 E12.45549
G1 X174.344 Y155.038 E12.47444
G1 X174.379 Y155.778 E12.49908
G1 X174.334 Y156.525 E12.52397
G1 X174.279 Y156.848 E12.53487
G1 X174.413 Y157.575 E12.55945
G1 X174.44 Y157.802 E12.56706
G1 X174.489 Y158.629 E12.59461
G1 X174.489 Y160.25 E12.64853
G1 X174.449 Y160.997 E12.67341
G1 X174.33 Y161.735 E12.69827
G1 X174.132 Y162.457 E12.72317
G1 X173.859 Y163.153 E12.74804
G1 X173.512 Y163.816 E12.77293
G1 X173.097 Y164.439 E12.79782
G1 X172.618 Y165.013 E12.82269
G1 X172.081 Y165.534 E12.84757
G1 X171.491 Y165.993 E12.87244
G1 X170.855 Y166.388 E12.89734
G1 X170.181 Y166.712 E12.92221
G1 X169.476 Y166.962 E12.94709
G1 X168.748 Y167.136 E12.97199
G1 X168.006 Y167.231 E12.99687
G1 X167.489 Y167.25 E13.01407
G1 X135.411 Y167.25 E14.08099
G1 X135.086 Y167.233 E14.09182
G1 X134.611 Y167.25 E14.10762
G1 X132.611 Y167.25 E14.17415
G1 X131.864 Y167.21 E14.19903
G1 X131.126 Y167.091 E14.22389
G1 X130.404 Y166.893 E14.24879
G1 X129.708 Y166.62 E14.27366
G1 X129.045 Y166.273 E14.29854
G1 X128.422 Y165.858 E14.32344
G1 X127.848 Y165.379 E14.34831
G1 X127.327 Y164.842 E14.37319
G1 X126.868 Y164.252 E14.39806
G1 X126.473 Y163.616 E14.42296
G1 X126.149 Y162.942 E14.44783
G1 X125.899 Y162.237 E14.47271
G1 X125.725 Y161.509 E14.4976
G1 X125.63 Y160.767 E14.52248
G1 X125.611 Y160.25 E14.53969
G1 X125.61 Y144.25 E15.07185
G1 X125.65 Y143.503 E15.09673
G1 X125.769 Y142.765 E15.1216
G1 X125.967 Y142.043 E15.1465
G1 X126.24 Y141.347 E15.17136
G1 X126.586 Y140.684 E15.19624
G1 X127.001 Y140.062 E15.22111
G1 X127.48 Y139.487 E15.246
G1 X128.018 Y138.967 E15.27089
G0 F6000 X127.875 Y139.652
G1 F1200 X128.409 Y139.16 E15.29504
G1 X128.994 Y138.729 E15.3192
G1 X129.622 Y138.365 E15.34335
G1 X130.287 Y138.072 E15.36752
G1 X130.98 Y137.854 E15.39168
G1 X131.693 Y137.714 E15.41585
G1 X132.61 Y137.65 E15.44642
G1 X134.61 Y137.65 E15.51294
G1 X135.057 Y137.675 E15.52783
G1 X135.41 Y137.65 E15.5396
G1 X153.627 Y137.65 E16.1455
G1 X155.294 Y135.983 E16.22391
G1 X155.835 Y135.499 E16.24805
G1 X156.426 Y135.076 E16.27223
G1 X157.06 Y134.722 E16.29638
G1 X157.729 Y134.439 E16.32054
G1 X158.425 Y134.231 E16.3447
G1 X159.14 Y134.101 E16.36887
G1 X159.961 Y134.05 E16.39623
G1 X167.489 Y134.05 E16.64661
G1 X168.214 Y134.09 E16.67076
G1 X168.931 Y134.209 E16.69494
G1 X169.63 Y134.407 E16.7191
G1 X170.303 Y134.68 E16.74325
G1 X170.942 Y135.025 E16.76741
G1 X171.539 Y135.439 E16.79157
G1 X172.087 Y135.915 E16.81571
G1 X172.58 Y136.449 E16.83989
G1 X173.01 Y137.034 E16.86403
G1 X173.374 Y137.663 E16.88821
G1 X173.667 Y138.328 E16.91238
G1 X173.885 Y139.021 E16.93654
G1 X174.025 Y139.733 E16.96067
G1 X174.089 Y140.651 E16.99128
G1 X174.088 Y151.381 E17.34816
G1 X174.046 Y152.125 E17.37295
G1 X174.021 Y152.345 E17.38031
G1 X173.899 Y153.061 E17.40447
G1 X173.895 Y153.159 E17.40773
G1 X173.98 Y153.881 E17.43191
G1 X173.984 Y154.607 E17.45606
G1 X173.939 Y155.036 E17.4704
G1 X173.948 Y155.092 E17.47229
G1 X173.978 Y155.818 E17.49646
G1 X173.929 Y156.542 E17.52059
G1 X173.874 Y156.846 E17.53087
G1 X174.016 Y157.622 E17.55711
G1 X174.043 Y157.849 E17.56471
G1 X174.089 Y158.629 E17.5907
G1 X174.089 Y160.25 E17.64461
G1 X174.049 Y160.975 E17.66876
G1 X173.93 Y161.692 E17.69294
G1 X173.732 Y162.391 E17.7171
G1 X173.459 Y163.064 E17.74126
G1 X173.114 Y163.703 E17.76541
G1 X172.7 Y164.3 E17.78957
G1 X172.224 Y164.848 E17.81371
G1 X171.69 Y165.341 E17.83789
G1 X171.105 Y165.771 E17.86204
G1 X170.476 Y166.135 E17.88621
G1 X169.811 Y166.428 E17.91038
G1 X169.118 Y166.646 E17.93454
G1 X168.406 Y166.786 E17.95867
G1 X167.489 Y166.85 E17.98925
G1 X135.411 Y166.85 E19.05617
G1 X134.964 Y166.825 E19.07106
G1 X134.611 Y166.85 E19.08283
G1 X132.611 Y166.85 E19.14935
G1 X131.886 Y166.81 E19.1735
G1 X131.169 Y166.691 E19.19767
G1 X130.47 Y166.493 E19.22183
G1 X129.797 Y166.22 E19.24599
G1 X129.158 Y165.875 E19.27014
G1 X128.561 Y165.461 E19.29431
G1 X128.013 Y164.985 E19.31845
G1 X127.52 Y164.451 E19.34262
G1 X127.09 Y163.866 E19.36677
G1 X126.726 Y163.237 E19.39094
G1 X126.433 Y162.572 E19.41511
G1 X126.215 Y161.879 E19.43927
G1 X126.075 Y161.167 E19.46341
G1 X126.011 Y160.25 E19.49398
G1 X126.01 Y144.25 E20.02614
G1 X126.05 Y143.525 E20.05029
G1 X126.169 Y142.809 E20.07444
G1 X126.367 Y142.11 E20.0986
G1 X126.64 Y141.437 E20.12275
G1 X126.985 Y140.798 E20.14691
G1 X127.398 Y140.2 E20.17108
G1 X127.875 Y139.652 E20.19524
G0 F6000 X128.269 Y139.823
G1 F1200 X128.799 Y139.36 E20.21865
G1 X129.378 Y138.959 E20.24208
G1 X129.998 Y138.627 E20.26547
G1 X130.653 Y138.367 E20.28891
G1 X131.332 Y138.183 E20.3123
G1 X132.028 Y138.077 E20.33572
G1 X132.61 Y138.05 E20.3551
G1 X134.61 Y138.05 E20.42162
G1 X134.969 Y138.07 E20.43358
G1 X135.41 Y138.05 E20.44826
G1 X153.793 Y138.05 E21.05968
G1 X155.577 Y136.266 E21.1436
G1 X156.102 Y135.797 E21.16701
G1 X156.677 Y135.391 E21.19042
G1 X157.295 Y135.053 E21.21385
G1 X157.946 Y134.786 E21.23725
G1 X158.624 Y134.596 E21.26067
G1 X159.319 Y134.483 E21.28409
G1 X159.961 Y134.45 E21.30547
G1 X167.489 Y134.45 E21.55585
G1 X168.192 Y134.49 E21.57927
G1 X168.886 Y134.609 E21.60269
G1 X169.561 Y134.807 E21.62609
G1 X170.21 Y135.079 E21.64949
G1 X170.824 Y135.424 E21.67292
G1 X171.395 Y135.835 E21.69632
G1 X171.916 Y136.309 E21.71975
G1 X172.38 Y136.839 E21.74318
G1 X172.78 Y137.418 E21.76658
G1 X173.112 Y138.039 E21.79
G1 X173.372 Y138.693 E21.81341
G1 X173.556 Y139.373 E21.83684
G1 X173.662 Y140.069 E21.86026
G1 X173.689 Y140.651 E21.87963
G1 X173.688 Y151.381 E22.23652
G1 X173.648 Y152.08 E22.2598
G1 X173.623 Y152.3 E22.26717
G1 X173.504 Y152.994 E22.29059
G1 X173.47 Y153.106 E22.29448
G1 X173.519 Y153.334 E22.30224
G1 X173.587 Y154.035 E22.32566
G1 X173.575 Y154.739 E22.34908
G1 X173.535 Y155.042 E22.35924
G1 X173.552 Y155.152 E22.36295
G1 X173.578 Y155.856 E22.38638
G1 X173.523 Y156.558 E22.4098
G1 X173.464 Y156.863 E22.42013
G1 X173.486 Y156.934 E22.4226
G1 X173.619 Y157.67 E22.44748
G1 X173.646 Y157.897 E22.45508
G1 X173.689 Y158.629 E22.47947
G1 X173.689 Y160.25 E22.53338
G1 X173.649 Y160.953 E22.5568
G1 X173.53 Y161.647 E22.58022
G1 X173.332 Y162.322 E22.60362
G1 X173.06 Y162.971 E22.62703
G1 X172.715 Y163.585 E22.65045
G1 X172.304 Y164.156 E22.67385
G1 X171.83 Y164.677 E22.69728
G1 X171.3 Y165.141 E22.72071
G1 X170.721 Y165.541 E22.74411
G1 X170.1 Y165.873 E22.76753
G1 X169.446 Y166.133 E22.79094
G1 X168.766 Y166.317 E22.81437
G1 X168.07 Y166.423 E22.83779
G1 X167.489 Y166.45 E22.85713
G1 X135.411 Y166.45 E23.92405
G1 X135.052 Y166.43 E23.93601
G1 X134.611 Y166.45 E23.95069
G1 X132.611 Y166.45 E24.01721
G1 X131.908 Y166.41 E24.04063
G1 X131.214 Y166.291 E24.06405
G1 X130.539 Y166.093 E24.08745
G1 X129.89 Y165.821 E24.11085
G1 X129.276 Y165.476 E24.13428
G1 X128.705 Y165.065 E24.15768
G1 X128.184 Y164.591 E24.1811
G1 X127.72 Y164.061 E24.20453
G1 X127.32 Y163.482 E24.22794
G1 X126.988 Y162.861 E24.25136
G1 X126.728 Y162.207 E24.27477
G1 X126.544 Y161.527 E24.2982
G1 X126.438 Y160.831 E24.32162
G1 X126.411 Y160.25 E24.34096
G1 X126.41 Y144.25 E24.87312
G1 X126.45 Y143.548 E24.89651
G1 X126.569 Y142.854 E24.91993
G1 X126.766 Y142.178 E24.94335
G1 X127.039 Y141.529 E24.96677
G1 X127.383 Y140.915 E24.99017
G1 X127.795 Y140.344 E25.01359
G1 X128.269 Y139.823 E25.03702
G0 F6000 X128.662 Y140.001
G1 F1200 X129.187 Y139.567 E25.05968
G1 X129.76 Y139.199 E25.08233
G1 X130.371 Y138.899 E25.10496
G1 X131.014 Y138.674 E25.12762
G1 X131.678 Y138.525 E25.15026
G1 X132.61 Y138.45 E25.18136
G1 X134.61 Y138.45 E25.24788
G1 X135.072 Y138.477 E25.26327
G1 X135.41 Y138.45 E25.27455
G1 X153.959 Y138.45 E25.89149
G1 X155.86 Y136.549 E25.9809
G1 X156.369 Y136.096 E26.00357
G1 X156.927 Y135.707 E26.02619
G1 X157.527 Y135.385 E26.04884
G1 X158.161 Y135.136 E26.0715
G1 X158.82 Y134.963 E26.09416
G1 X159.494 Y134.869 E26.11679
G1 X159.961 Y134.85 E26.13234
G1 X167.489 Y134.85 E26.38272
G1 X168.169 Y134.89 E26.40537
G1 X168.839 Y135.009 E26.42801
