;FLAVOR:Marlin
;TIME:5492
;Filament used: 3.26242m
;Layer height: 0.2
;MINX:116.234
;MINY:125.411
;MINZ:0.2
;MAXX:183.767
;MAXY:174.589
;MAXZ:22.8
;Generated with Cura_SteamEngine 4.12.1
M140 S80
M105
M190 S80
M82 ;absolute extrusion mode
M201 X500.00 Y500.00 Z100.00 E5000.00 ;Setup machine max acceleration
M203 X500.00 Y500.00 Z10.00 E50.00 ;Setup machine max feedrate
M204 P500.00 R1000.00 T500.00 ;Setup Print/Retract/Travel acceleration
M205 X8.00 Y8.00 Z0.40 E5.00 ;Setup Jerk
M220 S100 ;Reset Feedrate
M221 S100 ;Reset Flowrate
M140 S80.0 ; set bed temp
M190 S80.0 ; wait for bed temp
G28; home all 
G29;
G92 E0 ;Reset Extruder
G1 Z2.0 F3000 ;Move Z Axis up
G1 X10.1 Y20 Z0.28 F5000.0 ;Move to start position
M104 S230 ; wait for extruder printing temp
M109 S230 ; wait for extruder printing temp
G1 X10.1 Y200.0 Z0.28 F1500.0 E15 ;Draw the first line
G1 X10.4 Y200.0 Z0.28 F5000.0 ;Move to side a little
G1 X10.4 Y20 Z0.28 F1500.0 E30 ;Draw the second line
G92 E0 ;Reset Extruder
G1 Z2.0 F3000 ;Move Z Axis up
G92 E0
G92 E0
G1 F2700 E-5
;LAYER_COUNT:114
;LAYER:0
M107
G0 F6000 X127.968 Y132.561 Z0.2
;TYPE:SKIRT
G1 F2700 E0
G1 F1200 X128.174 Y132.366 E0.00943
G1 X128.678 Y131.907 E0.03211
G1 X128.897 Y131.715 E0.04179
G1 X129.418 Y131.275 E0.06448
G1 X129.653 Y131.084 E0.07455
G1 X130.19 Y130.665 E0.0972
G1 X130.424 Y130.49 E0.10692
G1 X130.977 Y130.091 E0.1296
G1 X131.222 Y129.921 E0.13952
G1 X131.789 Y129.544 E0.16217
G1 X132.038 Y129.385 E0.17199
G1 X132.62 Y129.029 E0.19468
G1 X132.876 Y128.879 E0.20455
G1 X133.47 Y128.546 E0.2272
G1 X133.727 Y128.408 E0.2369
G1 X134.334 Y128.097 E0.25959
G1 X134.601 Y127.967 E0.26947
G1 X135.22 Y127.679 E0.29217
G1 X135.487 Y127.561 E0.30188
G1 X136.115 Y127.297 E0.32454
G1 X136.388 Y127.188 E0.33432
G1 X137.025 Y126.948 E0.35696
G1 X137.305 Y126.848 E0.36685
G1 X137.952 Y126.632 E0.38953
G1 X138.238 Y126.543 E0.3995
G1 X138.893 Y126.352 E0.42219
G1 X139.177 Y126.275 E0.43198
G1 X139.838 Y126.109 E0.45464
G1 X140.122 Y126.043 E0.46434
G1 X140.788 Y125.902 E0.48698
G1 X141.09 Y125.844 E0.49721
G1 X141.763 Y125.729 E0.51992
G1 X142.046 Y125.686 E0.52944
G1 X142.721 Y125.596 E0.55209
G1 X143.009 Y125.563 E0.56173
G1 X143.688 Y125.498 E0.58442
G1 X143.985 Y125.476 E0.59432
G1 X144.666 Y125.437 E0.61701
G1 X144.963 Y125.425 E0.6269
G1 X145.644 Y125.412 E0.64955
G1 X163.975 Y125.411 E1.25924
G1 X164.437 Y125.425 E1.27462
G1 X164.656 Y125.438 E1.28191
G1 X165.499 Y125.534 E1.31013
G1 X165.717 Y125.571 E1.31749
G1 X166.522 Y125.752 E1.34493
G1 X166.732 Y125.811 E1.35218
G1 X167.617 Y126.118 E1.38334
G1 X167.819 Y126.202 E1.39062
G1 X168.522 Y126.536 E1.4165
G1 X168.717 Y126.641 E1.42387
G1 X169.494 Y127.121 E1.45425
G1 X169.671 Y127.245 E1.46143
G1 X170.307 Y127.741 E1.48826
G1 X170.473 Y127.885 E1.49557
G1 X171.103 Y128.497 E1.52478
G1 X171.252 Y128.659 E1.5321
G1 X171.754 Y129.266 E1.5583
G1 X173.872 Y129.266 E1.62875
G1 X174.326 Y129.279 E1.64385
G1 X174.549 Y129.292 E1.65128
G1 X175.405 Y129.39 E1.67994
G1 X175.628 Y129.428 E1.68746
G1 X176.521 Y129.635 E1.71795
G1 X176.735 Y129.698 E1.72537
G1 X177.507 Y129.97 E1.7526
G1 X177.713 Y130.055 E1.76001
G1 X178.529 Y130.448 E1.79013
G1 X178.725 Y130.557 E1.79759
G1 X179.451 Y131.015 E1.82614
G1 X179.634 Y131.145 E1.83361
G1 X180.327 Y131.699 E1.86312
G1 X180.493 Y131.848 E1.87054
G1 X181.132 Y132.492 E1.90071
G1 X181.282 Y132.662 E1.90825
G1 X181.801 Y133.319 E1.9361
G1 X181.929 Y133.5 E1.94347
G1 X182.373 Y134.204 E1.97115
G1 X182.484 Y134.403 E1.97873
G1 X182.89 Y135.246 E2.00985
G1 X182.974 Y135.451 E2.01722
G1 X183.253 Y136.256 E2.04556
G1 X183.315 Y136.472 E2.05303
G1 X183.513 Y137.347 E2.08287
G1 X183.549 Y137.564 E2.09019
G1 X183.641 Y138.389 E2.1178
G1 X183.654 Y138.613 E2.12526
G1 X183.667 Y139.065 E2.1403
G1 X183.667 Y153.558 E2.62234
G1 X183.676 Y153.602 E2.62383
G1 X183.757 Y154.387 E2.65008
G1 X183.767 Y154.789 E2.66346
G1 X183.767 Y166.789 E3.06258
G1 X183.727 Y167.578 E3.08885
G1 X183.608 Y168.358 E3.1151
G1 X183.41 Y169.123 E3.14138
G1 X183.136 Y169.863 E3.16762
G1 X182.788 Y170.572 E3.19389
G1 X182.37 Y171.243 E3.22019
G1 X181.887 Y171.867 E3.24643
G1 X181.344 Y172.44 E3.27269
G1 X180.745 Y172.955 E3.29896
G1 X180.097 Y173.406 E3.32522
G1 X179.406 Y173.79 E3.35151
G1 X178.681 Y174.102 E3.37777
G1 X177.928 Y174.339 E3.40402
G1 X177.154 Y174.498 E3.4303
G1 X176.369 Y174.579 E3.45655
G1 X175.967 Y174.589 E3.46992
G1 X167.418 Y174.589 E3.75427
G1 X166.641 Y174.55 E3.78014
G1 X166.473 Y174.57 E3.78577
G1 X165.927 Y174.589 E3.80394
G1 X153.092 Y174.589 E4.23083
G1 X152.299 Y174.548 E4.25724
G1 X152.032 Y174.577 E4.26618
G1 X151.596 Y174.589 E4.28068
G1 X145.49 Y174.589 E4.48377
G1 X144.646 Y174.573 E4.51185
G1 X144.349 Y174.562 E4.52173
G1 X143.667 Y174.522 E4.54445
G1 X143.381 Y174.5 E4.55399
G1 X142.702 Y174.435 E4.57668
G1 X142.419 Y174.402 E4.58616
G1 X141.741 Y174.312 E4.60891
G1 X141.44 Y174.266 E4.61903
G1 X140.768 Y174.15 E4.64171
G1 X140.478 Y174.095 E4.65153
G1 X139.808 Y173.953 E4.67431
G1 X139.523 Y173.886 E4.68405
G1 X138.859 Y173.719 E4.70682
G1 X138.591 Y173.647 E4.71605
G1 X137.935 Y173.457 E4.73877
G1 X137.632 Y173.362 E4.74933
G1 X136.986 Y173.146 E4.77198
G1 X136.728 Y173.055 E4.78108
G1 X136.086 Y172.815 E4.80388
G1 X135.797 Y172.701 E4.81421
G1 X135.166 Y172.436 E4.83698
G1 X134.914 Y172.325 E4.84613
G1 X134.295 Y172.039 E4.86881
G1 X134.024 Y171.907 E4.87884
G1 X133.414 Y171.596 E4.90161
G1 X133.325 Y171.548 E4.90498
G1 X132.649 Y171.673 E4.92784
G1 X132.444 Y171.75 E4.93512
G1 X131.487 Y171.989 E4.96793
G1 X129.568 Y172.342 E5.03283
G1 X129.22 Y172.398 E5.04455
G1 X128.922 Y172.439 E5.05456
G1 X128.279 Y172.501 E5.07604
G1 X127.982 Y172.517 E5.08593
G1 X127.301 Y172.524 E5.10859
G1 X127.002 Y172.514 E5.11854
G1 X126.318 Y172.461 E5.14135
G1 X126.023 Y172.425 E5.15124
G1 X125.389 Y172.32 E5.17261
G1 X125.094 Y172.259 E5.18263
G1 X124.468 Y172.103 E5.20409
G1 X124.183 Y172.019 E5.21397
G1 X123.505 Y171.784 E5.23784
G1 X123.226 Y171.673 E5.24783
G1 X122.663 Y171.423 E5.26831
G1 X122.395 Y171.291 E5.27825
G1 X121.785 Y170.957 E5.30138
G1 X121.532 Y170.803 E5.31123
G1 X120.979 Y170.432 E5.33338
G1 X120.736 Y170.254 E5.3434
G1 X120.235 Y169.855 E5.3647
G1 X120.009 Y169.659 E5.37465
G1 X119.487 Y169.162 E5.39862
G1 X119.281 Y168.947 E5.40853
G1 X118.855 Y168.465 E5.42992
G1 X118.666 Y168.232 E5.4399
G1 X118.283 Y167.717 E5.46125
G1 X118.115 Y167.471 E5.47116
G1 X117.765 Y166.908 E5.49321
G1 X117.617 Y166.646 E5.50321
G1 X117.31 Y166.044 E5.52569
G1 X117.187 Y165.774 E5.53556
G1 X116.92 Y165.107 E5.55945
G1 X116.821 Y164.823 E5.56946
G1 X116.646 Y164.253 E5.58929
G1 X116.57 Y163.966 E5.59916
G1 X116.424 Y163.298 E5.62191
G1 X116.373 Y163.003 E5.63186
G1 X116.286 Y162.328 E5.6545
G1 X116.261 Y162.031 E5.66441
G1 X116.234 Y161.377 E5.68618
G1 X116.234 Y161.078 E5.69613
G1 X116.261 Y160.428 E5.71777
G1 X116.286 Y160.129 E5.72775
G1 X116.372 Y159.455 E5.75034
G1 X116.423 Y159.159 E5.76033
G1 X116.578 Y158.455 E5.78431
G1 X116.655 Y158.169 E5.79416
G1 X116.833 Y157.598 E5.81405
G1 X116.933 Y157.315 E5.82404
G1 X117.186 Y156.686 E5.84659
G1 X117.306 Y156.422 E5.85623
G1 X117.669 Y155.721 E5.88249
G1 X118.101 Y155.06 E5.90875
G1 X118.337 Y154.768 E5.92124
G1 X120.005 Y151.931 E6.0307
G1 X119.997 Y151.58 E6.04238
G1 X119.996 Y150.899 E6.06503
G1 X120.001 Y150.602 E6.07491
G1 X120.026 Y149.92 E6.0976
G1 X120.043 Y149.622 E6.10753
G1 X120.094 Y148.943 E6.13018
G1 X120.122 Y148.647 E6.14007
G1 X120.199 Y147.969 E6.16276
G1 X120.237 Y147.68 E6.17246
G1 X120.339 Y147.007 E6.1951
G1 X120.389 Y146.717 E6.20489
G1 X120.517 Y146.045 E6.22764
G1 X120.576 Y145.763 E6.23722
G1 X120.728 Y145.099 E6.25988
G1 X120.805 Y144.793 E6.27037
G1 X120.984 Y144.135 E6.29305
G1 X121.065 Y143.857 E6.30268
G1 X121.268 Y143.207 E6.32533
G1 X121.357 Y142.939 E6.33472
G1 X121.584 Y142.295 E6.35744
G1 X121.689 Y142.013 E6.36744
G1 X121.94 Y141.38 E6.39009
G1 X122.058 Y141.1 E6.4002
G1 X122.334 Y140.476 E6.42289
G1 X122.452 Y140.221 E6.43224
G1 X122.75 Y139.608 E6.45491
G1 X122.894 Y139.325 E6.46547
G1 X123.217 Y138.724 E6.48816
G1 X123.358 Y138.473 E6.49774
G1 X123.702 Y137.886 E6.52037
G1 X123.843 Y137.655 E6.52937
G1 X124.208 Y137.079 E6.55205
G1 X124.389 Y136.806 E6.56294
G1 X124.777 Y136.247 E6.58558
G1 X124.942 Y136.019 E6.59494
G1 X125.351 Y135.473 E6.61763
G1 X125.526 Y135.249 E6.62708
G1 X125.954 Y134.719 E6.64974
G1 X126.158 Y134.475 E6.66032
G1 X126.608 Y133.962 E6.68301
G1 X126.793 Y133.759 E6.69215
G1 X127.26 Y133.263 E6.71481
G1 X127.481 Y133.038 E6.7253
G1 X127.968 Y132.561 E6.74797
G0 F6000 X128.248 Y132.846
G1 F1200 X128.443 Y132.662 E6.75689
G1 X128.947 Y132.203 E6.77956
G1 X129.155 Y132.02 E6.78877
G1 X129.676 Y131.58 E6.81146
G1 X129.899 Y131.4 E6.82099
G1 X130.436 Y130.981 E6.84364
G1 X130.658 Y130.814 E6.85288
G1 X131.211 Y130.415 E6.87556
G1 X131.444 Y130.254 E6.88498
G1 X132.011 Y129.877 E6.90763
G1 X132.247 Y129.726 E6.91695
G1 X132.829 Y129.37 E6.93964
G1 X133.071 Y129.228 E6.94897
G1 X133.665 Y128.895 E6.97162
G1 X133.91 Y128.764 E6.98086
G1 X134.517 Y128.453 E7.00355
G1 X134.769 Y128.33 E7.01287
G1 X135.388 Y128.042 E7.03558
G1 X135.642 Y127.929 E7.04483
G1 X136.27 Y127.665 E7.06748
G1 X136.529 Y127.562 E7.07675
G1 X137.166 Y127.322 E7.09939
G1 X137.432 Y127.228 E7.10878
G1 X138.079 Y127.012 E7.13147
G1 X138.35 Y126.927 E7.14091
G1 X139.005 Y126.736 E7.1636
G1 X139.275 Y126.663 E7.17291
G1 X139.936 Y126.497 E7.19557
G1 X140.205 Y126.434 E7.20476
G1 X140.871 Y126.293 E7.22741
G1 X141.158 Y126.239 E7.23712
G1 X141.831 Y126.124 E7.25983
G1 X142.099 Y126.083 E7.26884
G1 X142.774 Y125.993 E7.29149
G1 X143.047 Y125.962 E7.30063
G1 X143.726 Y125.897 E7.32332
G1 X144.008 Y125.875 E7.33273
G1 X144.689 Y125.836 E7.35541
G1 X144.971 Y125.825 E7.3648
G1 X145.793 Y125.811 E7.39214
G1 X163.975 Y125.811 E7.99688
G1 X164.413 Y125.824 E8.01146
G1 X164.632 Y125.837 E8.01875
G1 X165.432 Y125.928 E8.04553
G1 X165.65 Y125.965 E8.05289
G1 X166.414 Y126.137 E8.07893
G1 X166.624 Y126.196 E8.08619
G1 X167.463 Y126.487 E8.11572
G1 X167.665 Y126.571 E8.123
G1 X168.332 Y126.889 E8.14758
G1 X168.527 Y126.994 E8.15494
G1 X169.265 Y127.448 E8.18376
G1 X169.442 Y127.572 E8.19095
G1 X170.045 Y128.043 E8.2164
G1 X170.211 Y128.187 E8.22371
G1 X170.809 Y128.768 E8.25144
G1 X170.958 Y128.93 E8.25876
G1 X171.456 Y129.532 E8.28475
G1 X171.555 Y129.666 E8.29029
G1 X173.872 Y129.666 E8.36735
G1 X174.303 Y129.679 E8.38169
G1 X174.526 Y129.692 E8.38912
G1 X175.338 Y129.784 E8.4163
G1 X175.561 Y129.822 E8.42383
G1 X176.408 Y130.018 E8.45274
G1 X176.622 Y130.081 E8.46016
G1 X177.355 Y130.339 E8.48601
G1 X177.561 Y130.424 E8.49342
G1 X178.335 Y130.798 E8.52201
G1 X178.531 Y130.907 E8.52947
G1 X179.22 Y131.341 E8.55655
G1 X179.403 Y131.471 E8.56402
G1 X180.06 Y131.997 E8.59201
G1 X180.226 Y132.146 E8.59943
G1 X180.832 Y132.757 E8.62805
G1 X180.982 Y132.927 E8.63559
G1 X181.475 Y133.55 E8.66202
G1 X181.603 Y133.731 E8.66939
G1 X182.024 Y134.399 E8.69565
G1 X182.135 Y134.598 E8.70323
G1 X182.519 Y135.397 E8.73272
G1 X182.603 Y135.602 E8.74008
G1 X182.869 Y136.366 E8.76699
G1 X182.931 Y136.582 E8.77447
G1 X183.118 Y137.413 E8.8028
G1 X183.154 Y137.63 E8.81011
G1 X183.242 Y138.412 E8.83629
G1 X183.255 Y138.636 E8.84375
G1 X183.267 Y139.065 E8.85802
G1 X183.267 Y153.638 E9.34272
G1 X183.318 Y153.94 E9.35291
G1 X183.367 Y154.789 E9.38119
G1 X183.367 Y166.789 E9.78032
G1 X183.327 Y167.557 E9.80589
G1 X183.208 Y168.317 E9.83148
G1 X183.01 Y169.06 E9.85705
G1 X182.736 Y169.779 E9.88265
G1 X182.389 Y170.465 E9.90822
G1 X181.973 Y171.112 E9.9338
G1 X181.492 Y171.712 E9.95938
G1 X180.951 Y172.259 E9.98496
G1 X180.356 Y172.747 E10.01056
G1 X179.714 Y173.17 E10.03613
G1 X179.031 Y173.525 E10.06173
G1 X178.316 Y173.806 E10.08728
G1 X177.574 Y174.012 E10.1129
G1 X176.816 Y174.14 E10.13846
G1 X175.967 Y174.189 E10.16675
G1 X167.418 Y174.189 E10.45109
G1 X166.633 Y174.147 E10.47724
G1 X165.927 Y174.189 E10.50076
G1 X153.092 Y174.189 E10.92765
G1 X152.324 Y174.149 E10.95323
G1 X152.301 Y174.145 E10.95401
G1 X151.99 Y174.178 E10.96441
G1 X151.596 Y174.189 E10.97752
G1 X145.49 Y174.189 E11.18061
G1 X144.655 Y174.173 E11.20838
G1 X144.373 Y174.162 E11.21777
G1 X143.691 Y174.122 E11.24049
G1 X143.419 Y174.101 E11.24957
G1 X142.74 Y174.036 E11.27225
G1 X142.471 Y174.006 E11.28126
G1 X141.793 Y173.916 E11.304
G1 X141.508 Y173.872 E11.3136
G1 X140.836 Y173.756 E11.33628
G1 X140.561 Y173.703 E11.34559
G1 X139.891 Y173.561 E11.36837
G1 X139.62 Y173.499 E11.37762
G1 X138.956 Y173.332 E11.40039
G1 X138.702 Y173.263 E11.40914
G1 X138.046 Y173.073 E11.43186
G1 X137.758 Y172.983 E11.4419
G1 X137.112 Y172.767 E11.46455
G1 X136.868 Y172.68 E11.47317
G1 X136.226 Y172.44 E11.49596
G1 X135.952 Y172.332 E11.50576
G1 X135.321 Y172.067 E11.52852
G1 X135.082 Y171.962 E11.5372
G1 X134.463 Y171.676 E11.55988
G1 X134.206 Y171.551 E11.56939
G1 X133.596 Y171.24 E11.59216
G1 X133.39 Y171.13 E11.59993
G1 X132.534 Y171.288 E11.62888
G1 X132.246 Y171.393 E11.63908
G1 X131.415 Y171.596 E11.66753
G1 X129.496 Y171.949 E11.73243
G1 X129.166 Y172.002 E11.74354
G1 X128.868 Y172.043 E11.75355
G1 X128.257 Y172.101 E11.77396
G1 X127.96 Y172.117 E11.78385
G1 X127.315 Y172.124 E11.80531
G1 X127.016 Y172.114 E11.81526
G1 X126.367 Y172.064 E11.83691
G1 X126.072 Y172.028 E11.84679
G1 X125.47 Y171.929 E11.86708
G1 X125.175 Y171.868 E11.8771
G1 X124.581 Y171.719 E11.89747
G1 X124.296 Y171.635 E11.90735
G1 X123.652 Y171.413 E11.93001
G1 X123.373 Y171.302 E11.94
G1 X122.839 Y171.064 E11.95944
G1 X122.571 Y170.932 E11.96938
G1 X121.993 Y170.615 E11.9913
G1 X121.74 Y170.461 E12.00115
G1 X121.215 Y170.11 E12.02216
G1 X120.972 Y169.932 E12.03218
G1 X120.497 Y169.552 E12.05241
G1 X120.271 Y169.356 E12.06236
G1 X119.776 Y168.886 E12.08506
G1 X119.57 Y168.671 E12.09497
G1 X119.166 Y168.213 E12.11528
G1 X118.977 Y167.98 E12.12526
G1 X118.613 Y167.491 E12.14553
G1 X118.445 Y167.245 E12.15544
G1 X118.113 Y166.712 E12.17633
G1 X117.965 Y166.45 E12.18633
G1 X117.674 Y165.878 E12.20768
G1 X117.551 Y165.608 E12.21755
G1 X117.297 Y164.976 E12.2402
G1 X117.198 Y164.692 E12.25021
G1 X117.033 Y164.15 E12.26905
G1 X116.957 Y163.863 E12.27892
G1 X116.818 Y163.23 E12.30048
G1 X116.767 Y162.935 E12.31044
G1 X116.685 Y162.295 E12.3319
G1 X116.66 Y161.998 E12.34181
G1 X116.634 Y161.377 E12.36248
G1 X116.634 Y161.078 E12.37243
G1 X116.66 Y160.461 E12.39297
G1 X116.685 Y160.162 E12.40295
G1 X116.766 Y159.523 E12.42437
G1 X116.817 Y159.227 E12.43436
G1 X116.964 Y158.559 E12.45711
G1 X117.041 Y158.273 E12.46696
G1 X117.21 Y157.732 E12.48581
G1 X117.31 Y157.449 E12.4958
G1 X117.55 Y156.852 E12.5172
G1 X117.67 Y156.588 E12.52684
G1 X118.025 Y155.905 E12.55244
G1 X118.448 Y155.263 E12.57801
G1 X118.669 Y154.993 E12.58962
G1 X120.409 Y152.035 E12.70376
G1 X120.402 Y151.851 E12.70989
G1 X120.397 Y151.58 E12.7189
G1 X120.396 Y150.899 E12.74155
G1 X120.401 Y150.617 E12.75093
G1 X120.426 Y149.935 E12.77363
G1 X120.442 Y149.652 E12.78306
G1 X120.493 Y148.973 E12.80571
G1 X120.519 Y148.692 E12.81509
G1 X120.596 Y148.014 E12.83779
G1 X120.633 Y147.74 E12.84698
G1 X120.735 Y147.067 E12.86962
G1 X120.782 Y146.791 E12.87894
G1 X120.91 Y146.119 E12.90169
G1 X120.966 Y145.853 E12.91073
G1 X121.118 Y145.189 E12.93339
G1 X121.19 Y144.898 E12.94336
G1 X121.369 Y144.24 E12.96604
G1 X121.446 Y143.976 E12.97518
G1 X121.649 Y143.326 E12.99783
G1 X121.734 Y143.072 E13.00674
G1 X121.961 Y142.428 E13.02945
G1 X122.061 Y142.16 E13.03897
G1 X122.312 Y141.527 E13.06161
G1 X122.423 Y141.262 E13.07117
G1 X122.699 Y140.638 E13.09386
G1 X122.812 Y140.396 E13.10275
G1 X123.11 Y139.783 E13.12542
G1 X123.247 Y139.515 E13.13543
G1 X123.57 Y138.914 E13.15812
G1 X123.704 Y138.676 E13.16721
G1 X124.048 Y138.089 E13.18983
G1 X124.181 Y137.869 E13.19838
G1 X124.546 Y137.293 E13.22107
G1 X124.718 Y137.034 E13.23141
G1 X125.106 Y136.475 E13.25404
G1 X125.262 Y136.258 E13.26293
G1 X125.671 Y135.712 E13.28562
G1 X125.837 Y135.5 E13.29457
G1 X126.265 Y134.97 E13.31723
G1 X126.459 Y134.739 E13.32726
G1 X126.909 Y134.226 E13.34996
G1 X127.084 Y134.033 E13.35863
G1 X127.551 Y133.537 E13.38128
