;FLAVOR:Marlin
;TIME:669
;Filament used: 0.343688m
;Layer height: 0.16
;MINX:132.123
;MINY:132.124
;MINZ:0.2
;MAXX:167.876
;MAXY:167.877
;MAXZ:4
;POSTPROCESSED
;Generated with Cura_SteamEngine 4.12.1
M140 S90
M105
M190 S90
M82 ;absolute extrusion mode
M201 X500.00 Y500.00 Z100.00 E5000.00 ;Setup machine max acceleration
M203 X500.00 Y500.00 Z10.00 E50.00 ;Setup machine max feedrate
M204 P500.00 R1000.00 T500.00 ;Setup Print/Retract/Travel acceleration
M205 X8.00 Y8.00 Z0.40 E5.00 ;Setup Jerk
M220 S100 ;Reset Feedrate
M221 S100 ;Reset Flowrate
M140 S90 ; set bed temp
M190 S90 ; wait for bed temp
G28; home all 
G29;
G92 E0 ;Reset Extruder
;G1 Z2.0 F3000 ;Move Z Axis up
G1 X10.1 Y20 Z0.28 F5000.0 ;Move to start position
M104 S245 ; wait for extruder printing temp
M109 S245 ; wait for extruder printing temp
G1 X10.1 Y200.0 Z0.28 F1500.0 E15 ;Draw the first line
G1 X10.4 Y200.0 Z0.28 F5000.0 ;Move to side a little
G1 X10.4 Y20 Z0.28 F1500.0 E30 ;Draw the second line
G92 E0 ;Reset Extruder
G1 Z2.0 F3000 ;Move Z Axis up
G92 E0
G92 E0
G1 F1800 E-3
;LAYER_COUNT:27
;LAYER:0
M107
G0 F6000 X137.315 Y137.402 Z0.2
;TYPE:SKIRT
G1 F1800 E0
G1 F1200 X137.531 Y137.188 E0.01011
G1 X137.79 Y136.942 E0.02199
G1 X138.185 Y136.584 E0.03972
G1 X138.398 Y136.399 E0.04911
G1 X138.672 Y136.17 E0.06099
G1 X138.892 Y135.993 E0.07038
G1 X139.16 Y135.785 E0.08166
G1 X139.347 Y135.644 E0.08945
G1 X139.62 Y135.445 E0.10069
G1 X139.857 Y135.279 E0.11031
G1 X140.139 Y135.089 E0.12162
G1 X140.353 Y134.95 E0.13011
G1 X140.64 Y134.77 E0.14137
G1 X140.852 Y134.641 E0.14963
G1 X141.145 Y134.47 E0.16091
G1 X141.364 Y134.347 E0.16927
G1 X141.643 Y134.196 E0.17982
G1 X141.903 Y134.062 E0.18955
G1 X142.225 Y133.903 E0.20149
G1 X142.426 Y133.807 E0.2089
G1 X142.716 Y133.674 E0.21951
G1 X142.977 Y133.56 E0.22898
G1 X143.307 Y133.423 E0.24087
G1 X143.549 Y133.327 E0.24953
G1 X143.865 Y133.208 E0.26076
G1 X144.104 Y133.123 E0.26919
G1 X144.407 Y133.02 E0.27984
G1 X144.68 Y132.933 E0.28937
G1 X145.024 Y132.83 E0.30131
G1 X145.277 Y132.759 E0.31005
G1 X145.604 Y132.673 E0.3213
G1 X145.823 Y132.618 E0.32881
G1 X146.133 Y132.546 E0.33939
G1 X146.419 Y132.486 E0.34911
G1 X146.771 Y132.418 E0.36104
G1 X147.031 Y132.372 E0.36982
G1 X147.366 Y132.319 E0.3811
G1 X147.585 Y132.287 E0.38846
G1 X147.902 Y132.246 E0.39909
G1 X148.186 Y132.228 E0.40856
G1 X148.185 Y132.217 E0.40892
G1 X148.523 Y132.185 E0.42022
G1 X148.822 Y132.162 E0.43019
G1 X149.161 Y132.143 E0.44148
G1 X149.376 Y132.134 E0.44864
G1 X149.694 Y132.125 E0.45922
G1 X149.961 Y132.134 E0.46811
G1 X149.961 Y132.124 E0.46844
G1 X150.279 Y132.125 E0.47902
G1 X150.603 Y132.133 E0.4898
G1 X150.96 Y132.149 E0.50168
G1 X151.194 Y132.163 E0.50948
G1 X151.514 Y132.187 E0.52015
G1 X151.807 Y132.214 E0.52994
G1 X152.161 Y132.254 E0.54179
G1 X152.411 Y132.287 E0.55017
G1 X152.747 Y132.336 E0.56147
G1 X153.008 Y132.378 E0.57026
G1 X153.34 Y132.438 E0.58148
G1 X153.606 Y132.491 E0.5905
G1 X153.938 Y132.563 E0.6018
G1 X154.155 Y132.613 E0.60921
G1 X154.483 Y132.694 E0.62045
G1 X154.786 Y132.776 E0.63089
G1 X155.11 Y132.87 E0.64211
G1 X155.321 Y132.934 E0.64944
G1 X155.645 Y133.038 E0.66076
G1 X155.914 Y133.13 E0.67021
G1 X156.232 Y133.245 E0.68146
G1 X156.484 Y133.341 E0.69043
G1 X156.798 Y133.467 E0.70168
G1 X157.035 Y133.567 E0.71024
G1 X157.344 Y133.703 E0.72147
G1 X157.552 Y133.798 E0.72907
G1 X157.859 Y133.944 E0.74038
G1 X158.126 Y134.077 E0.7503
G1 X158.426 Y134.234 E0.76156
G1 X158.644 Y134.353 E0.76982
G1 X158.938 Y134.519 E0.78105
G1 X159.177 Y134.659 E0.79027
G1 X159.466 Y134.836 E0.80154
G1 X159.665 Y134.963 E0.80939
G1 X159.949 Y135.149 E0.82068
G1 X160.177 Y135.304 E0.82985
G1 X160.453 Y135.499 E0.84109
G1 X160.669 Y135.657 E0.84999
G1 X160.939 Y135.862 E0.86127
G1 X161.128 Y136.01 E0.86925
G1 X161.39 Y136.222 E0.88046
G1 X161.62 Y136.416 E0.89047
G1 X161.876 Y136.64 E0.90178
G1 X162.031 Y136.779 E0.90871
G1 X162.278 Y137.007 E0.91989
G1 X162.49 Y137.21 E0.92965
G1 X162.718 Y137.437 E0.94035
G1 X162.892 Y137.616 E0.94865
G1 X163.137 Y137.876 E0.96053
G1 X163.318 Y138.075 E0.96948
G1 X163.529 Y138.315 E0.98011
G1 X163.706 Y138.523 E0.98919
G1 X163.932 Y138.799 E1.00106
G1 X164.075 Y138.979 E1.00871
G1 X164.27 Y139.232 E1.01933
G1 X164.466 Y139.498 E1.03032
G1 X164.672 Y139.79 E1.0422
G1 X164.966 Y140.225 E1.05967
G1 X165.116 Y140.458 E1.06888
G1 X165.284 Y140.729 E1.07949
G1 X165.43 Y140.974 E1.08897
G1 X165.608 Y141.286 E1.10092
G1 X165.739 Y141.525 E1.10999
G1 X165.896 Y141.824 E1.12122
G1 X165.998 Y142.026 E1.12875
G1 X166.147 Y142.331 E1.14004
G1 X166.278 Y142.613 E1.15038
G1 X166.492 Y143.104 E1.16819
G1 X166.613 Y143.399 E1.1788
G1 X166.719 Y143.673 E1.18857
G1 X166.843 Y144.011 E1.20054
G1 X166.93 Y144.26 E1.20932
G1 X167.029 Y144.561 E1.21985
G1 X167.109 Y144.821 E1.2289
G1 X167.209 Y145.165 E1.24082
G1 X167.277 Y145.412 E1.24934
G1 X167.361 Y145.741 E1.26063
G1 X167.419 Y145.986 E1.26901
G1 X167.492 Y146.316 E1.28025
G1 X167.544 Y146.573 E1.28897
G1 X167.606 Y146.906 E1.30023
G1 X167.652 Y147.179 E1.30944
G1 X167.702 Y147.513 E1.32068
G1 X167.733 Y147.74 E1.3283
G1 X167.771 Y148.057 E1.33891
G1 X167.8 Y148.353 E1.34881
G1 X167.829 Y148.71 E1.36072
G1 X167.844 Y148.927 E1.36795
G1 X167.861 Y149.246 E1.37858
G1 X167.872 Y149.574 E1.38949
G1 X167.876 Y149.933 E1.40144
G1 X167.871 Y150.437 E1.4182
G1 X167.86 Y150.775 E1.42945
G1 X167.84 Y151.132 E1.44134
G1 X167.797 Y151.678 E1.45956
G1 X167.766 Y151.982 E1.46972
G1 X167.725 Y152.317 E1.48094
G1 X167.691 Y152.565 E1.48927
G1 X167.639 Y152.9 E1.50055
G1 X167.599 Y153.132 E1.50838
G1 X167.537 Y153.465 E1.51964
G1 X167.475 Y153.766 E1.52986
G1 X167.4 Y154.096 E1.54112
G1 X167.343 Y154.329 E1.5491
G1 X167.258 Y154.656 E1.56034
G1 X167.191 Y154.897 E1.56865
G1 X167.095 Y155.223 E1.57996
G1 X167.01 Y155.494 E1.5894
G1 X166.903 Y155.814 E1.60063
G1 X166.822 Y156.046 E1.6088
G1 X166.704 Y156.365 E1.62011
G1 X166.619 Y156.584 E1.62793
G1 X166.492 Y156.898 E1.63919
G1 X166.371 Y157.182 E1.64946
G1 X166.232 Y157.49 E1.6607
G1 X166.126 Y157.714 E1.66894
G1 X165.977 Y158.018 E1.6802
G1 X165.855 Y158.257 E1.68913
G1 X165.696 Y158.555 E1.70036
G1 X165.579 Y158.766 E1.70838
G1 X165.42 Y159.043 E1.71901
G1 X165.285 Y159.269 E1.72776
G1 X165.096 Y159.574 E1.7397
G1 X164.956 Y159.792 E1.74831
G1 X164.78 Y160.056 E1.75887
G1 X164.622 Y160.283 E1.76807
G1 X164.412 Y160.575 E1.78003
G1 X164.256 Y160.786 E1.78876
G1 X164.05 Y161.053 E1.79997
G1 X163.883 Y161.261 E1.80885
G1 X163.667 Y161.522 E1.82011
G1 X163.487 Y161.732 E1.82931
G1 X163.262 Y161.985 E1.84057
G1 X163.118 Y162.142 E1.84766
G1 X162.886 Y162.389 E1.85893
G1 X162.659 Y162.622 E1.86975
G1 X162.417 Y162.859 E1.88102
G1 X162.263 Y163.005 E1.88807
G1 X162.015 Y163.235 E1.89932
G1 X161.798 Y163.428 E1.90898
G1 X161.403 Y163.766 E1.92627
G1 X161.157 Y163.968 E1.93686
G1 X160.87 Y164.193 E1.94899
G1 X160.583 Y164.407 E1.9609
G1 X160.426 Y164.521 E1.96735
G1 X160.166 Y164.705 E1.97794
G1 X159.921 Y164.871 E1.98779
G1 X159.622 Y165.066 E1.99966
G1 X159.403 Y165.204 E2.00827
G1 X159.129 Y165.37 E2.01893
G1 X158.886 Y165.511 E2.02827
G1 X158.574 Y165.685 E2.04015
G1 X158.364 Y165.798 E2.04808
G1 X158.063 Y165.954 E2.05936
G1 X157.845 Y166.063 E2.06747
G1 X157.557 Y166.201 E2.07809
G1 X157.277 Y166.328 E2.08831
G1 X156.948 Y166.47 E2.10023
G1 X156.714 Y166.567 E2.10866
G1 X156.399 Y166.691 E2.11992
G1 X156.187 Y166.771 E2.12745
G1 X155.868 Y166.886 E2.13873
G1 X155.565 Y166.988 E2.14936
G1 X155.241 Y167.09 E2.16066
G1 X154.764 Y167.23 E2.1772
G1 X154.425 Y167.32 E2.18886
G1 X153.878 Y167.45 E2.20756
G1 X153.546 Y167.521 E2.21885
G1 X153.308 Y167.568 E2.22692
G1 X152.994 Y167.625 E2.23754
G1 X152.703 Y167.659 E2.24728
G1 X152.705 Y167.67 E2.24765
G1 X152.368 Y167.719 E2.25898
G1 X152.099 Y167.753 E2.268
G1 X151.781 Y167.788 E2.27864
G1 X151.507 Y167.813 E2.28779
G1 X151.171 Y167.838 E2.299
G1 X150.895 Y167.854 E2.30819
G1 X150.535 Y167.868 E2.32017
G1 X150.331 Y167.873 E2.32696
G1 X150.015 Y167.877 E2.33747
G1 X149.699 Y167.875 E2.34798
G1 X149.339 Y167.865 E2.35996
G1 X149.071 Y167.853 E2.36888
G1 X148.734 Y167.832 E2.38011
G1 X148.484 Y167.812 E2.38846
G1 X148.146 Y167.78 E2.39975
G1 X147.891 Y167.752 E2.40828
G1 X147.555 Y167.709 E2.41955
G1 X147.274 Y167.668 E2.42899
G1 X146.941 Y167.613 E2.44022
G1 X146.74 Y167.577 E2.44701
G1 X146.407 Y167.513 E2.45829
G1 X146.08 Y167.443 E2.46941
G1 X145.751 Y167.365 E2.48066
G1 X145.517 Y167.305 E2.48869
G1 X145.191 Y167.217 E2.49992
G1 X144.972 Y167.155 E2.50749
G1 X144.647 Y167.057 E2.51878
G1 X144.363 Y166.965 E2.52871
G1 X144.043 Y166.855 E2.53997
G1 X143.797 Y166.766 E2.54867
G1 X143.48 Y166.645 E2.55995
G1 X143.251 Y166.553 E2.56816
G1 X142.938 Y166.422 E2.57945
G1 X142.694 Y166.315 E2.58831
G1 X142.387 Y166.174 E2.59954
G1 X142.164 Y166.067 E2.60777
G1 X141.879 Y165.925 E2.61836
G1 X141.64 Y165.801 E2.62732
G1 X141.343 Y165.64 E2.63855
G1 X141.095 Y165.5 E2.64802
G1 X140.785 Y165.317 E2.66
G1 X140.612 Y165.212 E2.66673
G1 X140.326 Y165.033 E2.67795
G1 X140.098 Y164.885 E2.68699
G1 X139.833 Y164.706 E2.69763
G1 X139.575 Y164.524 E2.70813
G1 X139.287 Y164.312 E2.72002
G1 X139.103 Y164.172 E2.72771
G1 X138.836 Y163.963 E2.73899
G1 X138.61 Y163.779 E2.74868
G1 X138.352 Y163.561 E2.75992
G1 X138.166 Y163.398 E2.76814
G1 X137.914 Y163.171 E2.77942
G1 X137.755 Y163.024 E2.78663
G1 X137.524 Y162.804 E2.79724
G1 X137.274 Y162.555 E2.80897
G1 X136.936 Y162.201 E2.82525
G1 X136.721 Y161.968 E2.8358
G1 X136.513 Y161.734 E2.84621
G1 X136.267 Y161.445 E2.85883
G1 X136.103 Y161.245 E2.86743
G1 X135.893 Y160.981 E2.87865
G1 X135.716 Y160.75 E2.88833
G1 X135.515 Y160.477 E2.89961
G1 X135.37 Y160.274 E2.90791
G1 X135.178 Y159.995 E2.91917
G1 X135.051 Y159.804 E2.9268
G1 X134.867 Y159.519 E2.93808
G1 X134.695 Y159.24 E2.94898
G1 X134.441 Y158.804 E2.96577
G1 X134.285 Y158.525 E2.9764
G1 X134.116 Y158.206 E2.98841
G1 X133.956 Y157.886 E3.00031
G1 X133.866 Y157.699 E3.00721
G1 X133.731 Y157.41 E3.01782
G1 X133.617 Y157.155 E3.02711
G1 X133.477 Y156.825 E3.03903
G1 X133.377 Y156.576 E3.04795
G1 X133.256 Y156.261 E3.05918
G1 X133.18 Y156.055 E3.06648
G1 X133.074 Y155.754 E3.0771
G1 X132.977 Y155.46 E3.08739
G1 X132.871 Y155.116 E3.09936
G1 X132.8 Y154.873 E3.10778
G1 X132.711 Y154.547 E3.11902
G1 X132.648 Y154.298 E3.12757
G1 X132.57 Y153.97 E3.13878
G1 X132.517 Y153.73 E3.14696
G1 X132.449 Y153.398 E3.15823
G1 X132.401 Y153.147 E3.16673
G1 X132.347 Y152.831 E3.17739
G1 X132.317 Y152.558 E3.18652
G1 X132.308 Y152.559 E3.18682
G1 X132.262 Y152.224 E3.19807
G1 X132.226 Y151.919 E3.20829
G1 X132.193 Y151.58 E3.21961
G1 X132.175 Y151.367 E3.22672
G1 X132.153 Y151.052 E3.23723
G1 X132.149 Y150.764 E3.24681
G1 X132.14 Y150.764 E3.24711
G1 X132.128 Y150.426 E3.25836
G1 X132.123 Y150.126 E3.26833
G1 X132.124 Y149.789 E3.27954
G1 X132.129 Y149.537 E3.28793
G1 X132.141 Y149.197 E3.29924
G1 X132.154 Y148.939 E3.30783
G1 X132.177 Y148.603 E3.31904
G1 X132.2 Y148.333 E3.32805
G1 X132.235 Y147.995 E3.33935
G1 X132.266 Y147.74 E3.34789
G1 X132.312 Y147.404 E3.35917
G1 X132.352 Y147.146 E3.36786
G1 X132.409 Y146.813 E3.37909
G1 X132.46 Y146.542 E3.38827
G1 X132.529 Y146.21 E3.39954
G1 X132.583 Y145.971 E3.40769
G1 X132.662 Y145.643 E3.41892
G1 X132.732 Y145.372 E3.42822
G1 X132.823 Y145.046 E3.43948
G1 X132.896 Y144.801 E3.44798
G1 X132.998 Y144.477 E3.45928
G1 X133.076 Y144.242 E3.46752
G1 X133.188 Y143.922 E3.47879
G1 X133.287 Y143.654 E3.4883
G1 X133.41 Y143.34 E3.49951
G1 X133.502 Y143.115 E3.5076
G1 X133.636 Y142.802 E3.51892
G1 X133.741 Y142.57 E3.52739
G1 X133.884 Y142.264 E3.53863
G1 X134.001 Y142.022 E3.54757
G1 X134.154 Y141.722 E3.55877
G1 X134.285 Y141.478 E3.56798
G1 X134.45 Y141.181 E3.57928
G1 X134.58 Y140.956 E3.58792
G1 X134.754 Y140.666 E3.59917
G1 X134.879 Y140.465 E3.60704
G1 X135.062 Y140.18 E3.61831
G1 X135.236 Y139.919 E3.62874
G1 X135.43 Y139.642 E3.63999
G1 X135.716 Y139.25 E3.65613
G1 X135.924 Y138.978 E3.66752
G1 X136.147 Y138.7 E3.67937
G1 X136.295 Y138.521 E3.68709
G1 X136.503 Y138.277 E3.69776
G1 X136.678 Y138.078 E3.70657
G1 X136.919 Y137.814 E3.71846
G1 X137.092 Y137.631 E3.72684
G1 X137.315 Y137.402 E3.73747
G0 F6000 X137.601 Y137.681
G1 F1200 X137.807 Y137.478 E3.74709
G1 X138.066 Y137.232 E3.75897
G1 X138.214 Y137.095 E3.76568
G1 X138.452 Y136.881 E3.77632
G1 X138.654 Y136.706 E3.78521
G1 X138.928 Y136.477 E3.79709
G1 X139.137 Y136.309 E3.80601
G1 X139.405 Y136.101 E3.81729
G1 X139.583 Y135.967 E3.8247
G1 X139.856 Y135.768 E3.83594
G1 X140.08 Y135.611 E3.84504
G1 X140.362 Y135.421 E3.85634
G1 X140.565 Y135.289 E3.8644
G1 X140.852 Y135.109 E3.87567
G1 X141.054 Y134.987 E3.88352
G1 X141.347 Y134.816 E3.8948
G1 X141.555 Y134.699 E3.90274
G1 X141.834 Y134.548 E3.91329
G1 X142.08 Y134.421 E3.9225
G1 X142.402 Y134.262 E3.93444
G1 X142.593 Y134.171 E3.94148
G1 X142.883 Y134.038 E3.95209
G1 X143.131 Y133.93 E3.96108
G1 X143.461 Y133.793 E3.97297
G1 X143.69 Y133.702 E3.98117
G1 X144.006 Y133.583 E3.9924
G1 X144.232 Y133.502 E4.00038
G1 X144.535 Y133.399 E4.01102
G1 X144.794 Y133.316 E4.02007
G1 X145.138 Y133.213 E4.03201
G1 X145.379 Y133.145 E4.04034
G1 X145.706 Y133.059 E4.05159
G1 X145.914 Y133.008 E4.05871
G1 X146.224 Y132.936 E4.0693
G1 X146.494 Y132.878 E4.07848
G1 X146.846 Y132.81 E4.09041
G1 X147.094 Y132.767 E4.09878
G1 X147.429 Y132.714 E4.11006
G1 X147.636 Y132.684 E4.11702
G1 X147.953 Y132.643 E4.12765
G1 X148.224 Y132.626 E4.13668
G1 X148.223 Y132.615 E4.13704
G1 X148.561 Y132.583 E4.14834
G1 X148.844 Y132.562 E4.15778
G1 X149.183 Y132.543 E4.16907
G1 X149.388 Y132.534 E4.17589
G1 X149.706 Y132.525 E4.18647
G1 X149.959 Y132.533 E4.19489
G1 X149.959 Y132.524 E4.19519
G1 X150.277 Y132.525 E4.20577
G1 X150.585 Y132.532 E4.21602
G1 X150.942 Y132.548 E4.2279
G1 X151.164 Y132.562 E4.2353
G1 X151.484 Y132.586 E4.24597
G1 X151.762 Y132.612 E4.25526
G1 X152.116 Y132.652 E4.26711
G1 X152.353 Y132.682 E4.27505
G1 X152.689 Y132.731 E4.28635
G1 X152.937 Y132.772 E4.29471
G1 X153.269 Y132.832 E4.30593
G1 X153.521 Y132.882 E4.31448
G1 X153.853 Y132.954 E4.32577
G1 X154.059 Y133.002 E4.33281
G1 X154.387 Y133.083 E4.34405
G1 X154.675 Y133.16 E4.35396
G1 X154.999 Y133.254 E4.36518
G1 X155.199 Y133.315 E4.37214
G1 X155.523 Y133.419 E4.38345
G1 X155.778 Y133.506 E4.39242
G1 X156.096 Y133.621 E4.40366
G1 X156.335 Y133.712 E4.41217
G1 X156.649 Y133.838 E4.42342
G1 X156.874 Y133.933 E4.43155
G1 X157.183 Y134.069 E4.44277
G1 X157.38 Y134.159 E4.44998
G1 X157.687 Y134.305 E4.46128
G1 X157.94 Y134.432 E4.4707
G1 X158.24 Y134.589 E4.48196
G1 X158.447 Y134.701 E4.48979
G1 X158.741 Y134.867 E4.50102
G1 X158.968 Y135 E4.50977
G1 X159.257 Y135.177 E4.52104
G1 X159.446 Y135.297 E4.52849
G1 X159.73 Y135.483 E4.53978
G1 X159.946 Y135.63 E4.54847
G1 X160.222 Y135.825 E4.55971
G1 X160.427 Y135.975 E4.56816
G1 X160.697 Y136.18 E4.57943
G1 X160.877 Y136.321 E4.58704
G1 X161.139 Y136.533 E4.59825
G1 X161.357 Y136.717 E4.60774
G1 X161.613 Y136.941 E4.61905
G1 X161.759 Y137.072 E4.62557
G1 X162.006 Y137.3 E4.63675
G1 X162.208 Y137.494 E4.64607
G1 X162.436 Y137.721 E4.65677
G1 X162.601 Y137.89 E4.66463
G1 X162.846 Y138.15 E4.67651
G1 X163.018 Y138.339 E4.68501
G1 X163.229 Y138.579 E4.69564
G1 X163.396 Y138.777 E4.70425
G1 X163.622 Y139.053 E4.71612
G1 X163.758 Y139.224 E4.72338
G1 X163.953 Y139.477 E4.73401
G1 X164.139 Y139.728 E4.7444
G1 X164.345 Y140.02 E4.75628
G1 X164.634 Y140.448 E4.77346
G1 X164.776 Y140.669 E4.7822
G1 X164.944 Y140.94 E4.7928
G1 X165.083 Y141.172 E4.8018
G1 X165.261 Y141.484 E4.81374
G1 X165.385 Y141.711 E4.82235
G1 X165.542 Y142.01 E4.83358
G1 X165.639 Y142.202 E4.84073
G1 X165.788 Y142.507 E4.85203
G1 X165.912 Y142.774 E4.86182
G1 X166.048 Y143.083 E4.87305
G1 X166.242 Y143.551 E4.8899
G1 X166.343 Y143.81 E4.89914
G1 X166.467 Y144.148 E4.91112
G1 X166.55 Y144.385 E4.91947
G1 X166.649 Y144.686 E4.93001
G1 X166.725 Y144.932 E4.93857
G1 X166.825 Y145.276 E4.95049
G1 X166.889 Y145.511 E4.95859
G1 X166.973 Y145.84 E4.96988
G1 X167.028 Y146.073 E4.97784
G1 X167.101 Y146.403 E4.98908
G1 X167.151 Y146.646 E4.99734
G1 X167.213 Y146.979 E5.0086
G1 X167.256 Y147.238 E5.01733
