;FLAVOR:Marlin
;TIME:721
;Filament used: 0.454287m
;Layer height: 0.2
;MINX:122.494
;MINY:133.241
;MINZ:0.28
;MAXX:177.499
;MAXY:166.763
;MAXZ:3.88
;Generated with Cura_SteamEngine 5.2.1
M140 S100
M105
M190 S100
M82 ;absolute extrusion mode
M201 X500.00 Y500.00 Z100.00 E5000.00 ;Setup machine max acceleration
M203 X500.00 Y500.00 Z10.00 E50.00 ;Setup machine max feedrate
M204 P500.00 R1000.00 T500.00 ;Setup Print/Retract/Travel acceleration
M205 X8.00 Y8.00 Z0.40 E5.00 ;Setup Jerk
M220 S100 ;Reset Feedrate
M221 S100 ;Reset Flowrate
M140 S100.0 ; set bed temp
M190 S100.0 ; wait for bed temp
G28; home all
G29;
G92 E0 ;Reset Extruder
G1 Z2.0 F3000 ;Move Z Axis up
G1 X10.1 Y20 Z0.28 F5000.0 ;Move to start position
M104 S235 ; wait for extruder printing temp
M109 S235 ; wait for extruder printing temp
G1 X10.1 Y200.0 Z0.28 F1500.0 E15 ;Draw the first line
G1 X10.4 Y200.0 Z0.28 F5000.0 ;Move to side a little
G1 X10.4 Y20 Z0.28 F1500.0 E30 ;Draw the second line
G92 E0 ;Reset Extruder
G1 Z2.0 F3000 ;Move Z Axis up
G92 E0
G92 E0
G1 F1800 E-2
;LAYER_COUNT:19
;LAYER:0
M107
G0 F6000 X127.631 Y137.932 Z0.28
;TYPE:SKIRT
G1 F1800 E0
G1 F1200 X128.539 Y137.12 E0.05672
G1 X129.477 Y136.401 E0.11175
G1 X130.754 Y135.568 E0.18275
G1 X131.437 Y135.171 E0.21953
G1 X131.802 Y134.994 E0.23842
G1 X132.91 Y134.493 E0.29504
G1 X133.903 Y134.123 E0.34439
G1 X135.071 Y133.776 E0.40113
G1 X136.109 Y133.543 E0.45066
G1 X137.315 Y133.358 E0.50747
G1 X138.233 Y133.273 E0.5504
G1 X139.145 Y133.242 E0.59289
G1 X139.815 Y133.248 E0.62409
G1 X140.449 Y133.281 E0.65366
G1 X141.239 Y133.362 E0.69063
G1 X142.419 Y133.545 E0.74624
G1 X143.445 Y133.776 E0.79521
G1 X144.613 Y134.123 E0.85194
G1 X145.606 Y134.493 E0.90129
G1 X146.714 Y134.994 E0.95791
G1 X147.416 Y135.355 E0.99467
G1 X147.762 Y135.568 E1.01359
G1 X149.039 Y136.401 E1.08458
G1 X149.999 Y137.139 E1.14096
G1 X150.632 Y136.626 E1.1789
G1 X150.961 Y136.4 E1.19749
G1 X152.239 Y135.567 E1.26852
G1 X152.921 Y135.169 E1.30529
G1 X153.284 Y134.994 E1.32406
G1 X154.392 Y134.493 E1.38068
G1 X155.383 Y134.124 E1.42992
G1 X156.55 Y133.777 E1.48661
G1 X157.59 Y133.543 E1.53625
G1 X158.796 Y133.358 E1.59306
G1 X159.714 Y133.272 E1.636
G1 X160.627 Y133.241 E1.67853
G1 X161.297 Y133.248 E1.70973
G1 X161.931 Y133.281 E1.73929
G1 X162.721 Y133.362 E1.77627
G1 X163.901 Y133.545 E1.83188
G1 X164.929 Y133.777 E1.88095
G1 X166.096 Y134.124 E1.93764
G1 X167.087 Y134.493 E1.98688
G1 X168.195 Y134.994 E2.0435
G1 X168.897 Y135.355 E2.08026
G1 X169.24 Y135.567 E2.09903
G1 X170.518 Y136.4 E2.17007
G1 X171.157 Y136.864 E2.20684
G1 X171.461 Y137.122 E2.22541
G1 X172.366 Y137.932 E2.28196
G1 X173.018 Y138.59 E2.32509
G1 X173.622 Y139.276 E2.36765
G1 X174.266 Y140.115 E2.4169
G1 X175.11 Y141.386 E2.48795
G1 X175.513 Y142.065 E2.52471
G1 X175.693 Y142.43 E2.54366
G1 X176.203 Y143.534 E2.60029
G1 X176.581 Y144.524 E2.64964
G1 X176.937 Y145.688 E2.70631
G1 X177.154 Y146.583 E2.7492
G1 X177.317 Y147.486 E2.79192
G1 X177.427 Y148.409 E2.83521
G1 X177.499 Y149.621 E2.89174
G1 X177.49 Y150.679 E2.94101
G1 X177.397 Y151.895 E2.9978
G1 X177.271 Y152.817 E3.04113
G1 X177.093 Y153.715 E3.08376
G1 X176.823 Y154.721 E3.13226
G1 X176.34 Y156.134 E3.20179
G1 X175.931 Y157.109 E3.25102
G1 X175.509 Y157.95 E3.29484
G1 X175.108 Y158.654 E3.33256
G1 X174.615 Y159.425 E3.37518
G1 X174.074 Y160.17 E3.41805
G1 X173.302 Y161.111 E3.47472
G1 X172.662 Y161.802 E3.51858
G1 X172.002 Y162.433 E3.5611
G1 X171.41 Y162.945 E3.59754
G1 X170.687 Y163.509 E3.64024
G1 X169.926 Y164.033 E3.68326
G1 X168.886 Y164.662 E3.73986
G1 X168.19 Y165.036 E3.77665
G1 X167.818 Y165.201 E3.7956
G1 X166.409 Y165.781 E3.86655
G1 X165.665 Y166.044 E3.90329
G1 X165.267 Y166.151 E3.92249
G1 X164.059 Y166.442 E3.98034
G1 X163.143 Y166.606 E4.02367
G1 X162.259 Y166.71 E4.06512
G1 X161.348 Y166.763 E4.10761
G1 X160.131 Y166.763 E4.16428
G1 X159.342 Y166.723 E4.20107
G1 X158.943 Y166.672 E4.2198
G1 X157.437 Y166.44 E4.29075
G1 X156.406 Y166.209 E4.33995
G1 X155.53 Y165.949 E4.3825
G1 X154.534 Y165.578 E4.43199
G1 X153.15 Y164.952 E4.50272
G1 X152.213 Y164.448 E4.55226
G1 X151.437 Y163.96 E4.59495
G1 X150.798 Y163.512 E4.63129
G1 X149.995 Y162.887 E4.67867
G1 X149.21 Y163.506 E4.72522
G1 X148.442 Y164.035 E4.76864
G1 X147.401 Y164.664 E4.82528
G1 X146.705 Y165.038 E4.86207
G1 X146.336 Y165.201 E4.88085
G1 X144.927 Y165.781 E4.9518
G1 X144.183 Y166.044 E4.98855
G1 X143.785 Y166.151 E5.00774
G1 X142.577 Y166.442 E5.06559
G1 X141.661 Y166.606 E5.10893
G1 X140.777 Y166.71 E5.15037
G1 X139.866 Y166.763 E5.19286
G1 X138.65 Y166.763 E5.24949
G1 X137.861 Y166.723 E5.28627
G1 X137.463 Y166.672 E5.30496
G1 X135.956 Y166.44 E5.37596
G1 X134.924 Y166.209 E5.4252
G1 X134.048 Y165.949 E5.46775
G1 X133.052 Y165.578 E5.51724
G1 X131.668 Y164.952 E5.58797
G1 X130.731 Y164.448 E5.63751
G1 X129.955 Y163.96 E5.6802
G1 X129.316 Y163.512 E5.71653
G1 X128.594 Y162.95 E5.75914
G1 X127.895 Y162.336 E5.80246
G1 X127.03 Y161.479 E5.85916
G1 X126.408 Y160.785 E5.90255
G1 X125.841 Y160.07 E5.94505
G1 X125.378 Y159.419 E5.98224
G1 X124.886 Y158.648 E6.02483
G1 X124.439 Y157.848 E6.0675
G1 X123.908 Y156.75 E6.1243
G1 X123.511 Y155.761 E6.17392
G1 X123.136 Y154.605 E6.23051
G1 X122.879 Y153.584 E6.27953
G1 X122.662 Y152.382 E6.33641
G1 X122.544 Y151.311 E6.38658
G1 X122.494 Y150.072 E6.44432
G1 X122.511 Y149.16 E6.4868
G1 X122.579 Y148.274 E6.52817
G1 X122.682 Y147.476 E6.56564
G1 X122.846 Y146.574 E6.60833
G1 X123.059 Y145.696 E6.6504
G1 X123.413 Y144.534 E6.70696
G1 X123.741 Y143.65 E6.75087
G1 X124.111 Y142.814 E6.79344
G1 X124.534 Y141.995 E6.83636
G1 X125.155 Y140.947 E6.89308
G1 X125.591 Y140.289 E6.92984
G1 X125.836 Y139.975 E6.94838
G1 X126.802 Y138.798 E7.01928
G1 X127.225 Y138.332 E7.04859
G0 F1080 X127.333 Y138.213
G0 X127.631 Y137.932
G0 F6000 X127.898 Y138.23
G1 F1200 X128.806 Y137.418 E7.10531
G1 X129.696 Y136.736 E7.15752
G1 X130.973 Y135.903 E7.22851
G1 X131.967 Y135.358 E7.2813
G1 X133.075 Y134.857 E7.33792
G1 X134.017 Y134.506 E7.38473
G1 X135.185 Y134.159 E7.44147
G1 X136.17 Y133.939 E7.48846
G1 X137.376 Y133.754 E7.54528
G1 X138.247 Y133.672 E7.58601
G1 X139.159 Y133.641 E7.6285
G1 X139.795 Y133.647 E7.65812
G1 X140.429 Y133.68 E7.68768
G1 X141.178 Y133.757 E7.72274
G1 X142.358 Y133.94 E7.77835
G1 X143.331 Y134.159 E7.82479
G1 X144.499 Y134.506 E7.88152
G1 X145.441 Y134.857 E7.92833
G1 X146.549 Y135.358 E7.98495
G1 X147.543 Y135.903 E8.03774
G1 X148.82 Y136.736 E8.10873
G1 X149.709 Y137.417 E8.16088
G1 X149.999 Y137.676 E8.17898
G1 X150.284 Y137.421 E8.19679
G1 X151.179 Y136.735 E8.2493
G1 X152.457 Y135.902 E8.32033
G1 X153.449 Y135.358 E8.37302
G1 X154.557 Y134.857 E8.42964
G1 X155.497 Y134.507 E8.47634
G1 X156.664 Y134.16 E8.53304
G1 X157.651 Y133.939 E8.58013
G1 X158.857 Y133.754 E8.63695
G1 X159.728 Y133.672 E8.67768
G1 X160.641 Y133.641 E8.72022
G1 X161.277 Y133.647 E8.74984
G1 X161.911 Y133.68 E8.7794
G1 X162.66 Y133.757 E8.81446
G1 X163.84 Y133.94 E8.87006
G1 X164.815 Y134.16 E8.9166
G1 X165.982 Y134.507 E8.97329
G1 X166.922 Y134.857 E9.02
G1 X168.03 Y135.358 E9.07662
G1 X169.022 Y135.902 E9.1293
G1 X170.3 Y136.735 E9.20034
G1 X171.194 Y137.42 E9.25278
G1 X172.099 Y138.23 E9.30934
G1 X172.718 Y138.854 E9.35026
G1 X173.322 Y139.54 E9.39282
G1 X173.933 Y140.336 E9.43955
G1 X174.777 Y141.607 E9.51059
G1 X175.33 Y142.598 E9.56344
G1 X175.84 Y143.702 E9.62006
G1 X176.198 Y144.641 E9.66686
G1 X176.554 Y145.805 E9.72354
G1 X176.76 Y146.654 E9.76422
G1 X176.923 Y147.557 E9.80694
G1 X177.028 Y148.433 E9.84802
G1 X177.1 Y149.645 E9.90456
G1 X177.091 Y150.648 E9.95127
G1 X176.998 Y151.864 E10.00805
G1 X176.879 Y152.739 E10.04917
G1 X176.701 Y153.637 E10.0918
G1 X176.444 Y154.592 E10.13785
G1 X175.961 Y156.005 E10.20738
G1 X175.573 Y156.93 E10.25409
G1 X175.151 Y157.771 E10.29791
G1 X174.771 Y158.438 E10.33365
G1 X174.278 Y159.209 E10.37626
G1 X173.765 Y159.917 E10.41698
G1 X172.993 Y160.858 E10.47365
G1 X172.386 Y161.513 E10.51523
G1 X171.726 Y162.144 E10.55775
G1 X171.164 Y162.63 E10.59235
G1 X170.441 Y163.194 E10.63505
G1 X169.719 Y163.691 E10.67586
G1 X168.679 Y164.32 E10.73246
G1 X167.666 Y164.831 E10.78529
G1 X166.257 Y165.411 E10.85624
G1 X165.173 Y165.762 E10.90929
G1 X163.965 Y166.053 E10.96715
G1 X163.097 Y166.208 E11.00821
G1 X162.213 Y166.312 E11.04966
G1 X161.348 Y166.363 E11.09
G1 X160.131 Y166.363 E11.14667
G1 X159.004 Y166.277 E11.1993
G1 X157.498 Y166.045 E11.27025
G1 X156.519 Y165.825 E11.31698
G1 X155.643 Y165.565 E11.35953
G1 X154.699 Y165.213 E11.40644
G1 X153.315 Y164.587 E11.47717
G1 X152.426 Y164.109 E11.52417
G1 X151.65 Y163.621 E11.56686
G1 X151.044 Y163.196 E11.60132
G1 X150.322 Y162.634 E11.64393
G1 X150.002 Y162.353 E11.66376
G1 X149.685 Y162.627 E11.68327
G1 X148.963 Y163.191 E11.72593
G1 X148.235 Y163.693 E11.7671
G1 X147.194 Y164.322 E11.82374
G1 X146.184 Y164.831 E11.8764
G1 X144.775 Y165.411 E11.94735
G1 X143.691 Y165.762 E12.00041
G1 X142.483 Y166.053 E12.05827
G1 X141.615 Y166.208 E12.09932
G1 X140.731 Y166.312 E12.14077
G1 X139.866 Y166.363 E12.18112
G1 X138.65 Y166.363 E12.23774
G1 X137.524 Y166.277 E12.29033
G1 X136.017 Y166.045 E12.36132
G1 X135.037 Y165.825 E12.40809
G1 X134.161 Y165.565 E12.45064
G1 X133.217 Y165.213 E12.49755
G1 X131.833 Y164.587 E12.56829
G1 X130.944 Y164.109 E12.61529
G1 X130.168 Y163.621 E12.65797
G1 X129.562 Y163.196 E12.69244
G1 X128.84 Y162.634 E12.73504
G1 X128.177 Y162.052 E12.77612
G1 X127.312 Y161.195 E12.83282
G1 X126.722 Y160.536 E12.874
G1 X126.155 Y159.821 E12.9165
G1 X125.715 Y159.204 E12.95178
G1 X125.223 Y158.433 E12.99437
G1 X124.799 Y157.674 E13.03485
G1 X124.268 Y156.576 E13.09165
G1 X123.891 Y155.637 E13.13876
G1 X123.516 Y154.481 E13.19535
G1 X123.273 Y153.513 E13.24183
G1 X123.056 Y152.311 E13.2987
G1 X122.944 Y151.294 E13.34634
G1 X122.894 Y150.055 E13.40408
G1 X122.91 Y149.191 E13.44432
G1 X122.978 Y148.305 E13.4857
G1 X123.075 Y147.547 E13.52128
G1 X123.239 Y146.645 E13.56397
G1 X123.441 Y145.812 E13.60388
G1 X123.795 Y144.65 E13.66045
G1 X124.107 Y143.812 E13.70208
G1 X124.477 Y142.976 E13.74465
G1 X124.878 Y142.199 E13.78537
G1 X125.499 Y141.151 E13.84209
G1 X126.145 Y140.228 E13.89455
G1 X127.111 Y139.051 E13.96545
G1 X127.504 Y138.641 E13.9919
G0 F1080 X127.898 Y138.23
G0 F6000 X128.165 Y138.528
G1 F1200 X129.073 Y137.716 E14.04862
G1 X129.915 Y137.071 E14.09801
G1 X131.192 Y136.238 E14.169
G1 X132.132 Y135.723 E14.21891
G1 X133.24 Y135.222 E14.27553
G1 X134.13 Y134.89 E14.31976
G1 X135.298 Y134.543 E14.3765
G1 X136.231 Y134.334 E14.42102
G1 X137.437 Y134.149 E14.47783
G1 X138.26 Y134.072 E14.51632
G1 X139.172 Y134.041 E14.55882
G1 X139.774 Y134.046 E14.58685
G1 X140.408 Y134.079 E14.61641
G1 X141.117 Y134.153 E14.6496
G1 X142.297 Y134.336 E14.70521
G1 X143.218 Y134.543 E14.74916
G1 X144.386 Y134.89 E14.8059
G1 X145.276 Y135.222 E14.85013
G1 X146.384 Y135.723 E14.90675
G1 X147.324 Y136.238 E14.95666
G1 X148.601 Y137.071 E15.02766
G1 X149.443 Y137.716 E15.07704
G1 X149.999 Y138.213 E15.11177
G1 X150.551 Y137.719 E15.14626
G1 X151.398 Y137.07 E15.19595
G1 X152.676 Y136.237 E15.26698
G1 X153.614 Y135.723 E15.31679
G1 X154.722 Y135.222 E15.37341
G1 X155.611 Y134.89 E15.4176
G1 X156.778 Y134.543 E15.47429
G1 X157.712 Y134.334 E15.51886
G1 X158.918 Y134.149 E15.57567
G1 X159.741 Y134.072 E15.61416
G1 X160.654 Y134.041 E15.6567
G1 X161.256 Y134.046 E15.68473
G1 X161.89 Y134.079 E15.71429
G1 X162.599 Y134.153 E15.74748
G1 X163.779 Y134.336 E15.80309
G1 X164.701 Y134.543 E15.84709
G1 X165.868 Y134.89 E15.90378
G1 X166.757 Y135.222 E15.94797
G1 X167.865 Y135.723 E16.00459
G1 X168.803 Y136.237 E16.0544
G1 X170.081 Y137.07 E16.12543
G1 X170.927 Y137.718 E16.17505
G1 X171.832 Y138.528 E16.23161
G1 X172.418 Y139.118 E16.27033
G1 X173.022 Y139.804 E16.31289
G1 X173.599 Y140.558 E16.3571
G1 X174.443 Y141.829 E16.42814
G1 X174.967 Y142.765 E16.47809
G1 X175.477 Y143.869 E16.53472
G1 X175.816 Y144.758 E16.57902
G1 X176.172 Y145.922 E16.6357
G1 X176.367 Y146.726 E16.67422
G1 X176.53 Y147.629 E16.71695
G1 X176.629 Y148.457 E16.75578
G1 X176.701 Y149.669 E16.81231
G1 X176.693 Y150.618 E16.8565
G1 X176.6 Y151.834 E16.91329
G1 X176.486 Y152.661 E16.95216
G1 X176.308 Y153.559 E16.99479
G1 X176.066 Y154.462 E17.03832
G1 X175.583 Y155.875 E17.10786
G1 X175.216 Y156.75 E17.15204
G1 X174.794 Y157.591 E17.19585
G1 X174.434 Y158.223 E17.22972
G1 X173.941 Y158.994 E17.27233
G1 X173.456 Y159.663 E17.31081
G1 X172.684 Y160.604 E17.36749
G1 X172.109 Y161.224 E17.40686
G1 X171.449 Y161.855 E17.44938
G1 X170.918 Y162.314 E17.48206
G1 X170.195 Y162.878 E17.52476
G1 X169.512 Y163.349 E17.56339
G1 X168.472 Y163.978 E17.61999
G1 X167.514 Y164.461 E17.66994
G1 X166.105 Y165.041 E17.74089
G1 X165.079 Y165.373 E17.79111
G1 X163.871 Y165.664 E17.84897
G1 X163.05 Y165.811 E17.8878
G1 X162.166 Y165.915 E17.92925
G1 X161.348 Y165.963 E17.9674
G1 X160.131 Y165.963 E18.02407
G1 X159.065 Y165.881 E18.07386
G1 X157.559 Y165.649 E18.14481
G1 X156.633 Y165.442 E18.18899
G1 X155.757 Y165.182 E18.23154
G1 X154.864 Y164.849 E18.27592
G1 X153.48 Y164.223 E18.34665
G1 X152.639 Y163.771 E18.39111
G1 X151.863 Y163.283 E18.43379
G1 X151.289 Y162.881 E18.46643
G1 X150.567 Y162.319 E18.50903
G1 X150.001 Y161.822 E18.5441
G1 X149.439 Y162.311 E18.57879
G1 X148.717 Y162.875 E18.62145
G1 X148.028 Y163.35 E18.66042
G1 X146.987 Y163.979 E18.71706
G1 X146.032 Y164.461 E18.76687
G1 X144.623 Y165.041 E18.83782
G1 X143.597 Y165.373 E18.88803
G1 X142.389 Y165.664 E18.94589
G1 X141.568 Y165.811 E18.98473
G1 X140.684 Y165.915 E19.02617
G1 X139.866 Y165.963 E19.06433
G1 X138.65 Y165.963 E19.12095
G1 X137.585 Y165.881 E19.17069
G1 X136.078 Y165.649 E19.24169
G1 X135.151 Y165.442 E19.28591
G1 X134.275 Y165.182 E19.32846
G1 X133.382 Y164.849 E19.37284
G1 X131.998 Y164.223 E19.44357
G1 X131.157 Y163.771 E19.48803
G1 X130.381 Y163.283 E19.53072
G1 X129.807 Y162.881 E19.56335
G1 X129.085 Y162.319 E19.60595
G1 X128.458 Y161.768 E19.64482
G1 X127.593 Y160.911 E19.70152
G1 X127.035 Y160.287 E19.7405
G1 X126.468 Y159.572 E19.78299
G1 X126.052 Y158.989 E19.81634
G1 X125.56 Y158.218 E19.85892
G1 X125.159 Y157.5 E19.89722
G1 X124.628 Y156.402 E19.95401
G1 X124.272 Y155.514 E19.99856
G1 X123.897 Y154.358 E20.05515
G1 X123.666 Y153.442 E20.09914
G1 X123.449 Y152.24 E20.15601
G1 X123.344 Y151.278 E20.20107
G1 X123.294 Y150.039 E20.25881
G1 X123.309 Y149.221 E20.29691
G1 X123.377 Y148.335 E20.33829
G1 X123.469 Y147.619 E20.3719
G1 X123.633 Y146.717 E20.41459
G1 X123.824 Y145.929 E20.45234
G1 X124.178 Y144.767 E20.50891
G1 X124.473 Y143.974 E20.5483
G1 X124.843 Y143.138 E20.59087
G1 X125.222 Y142.403 E20.62938
G1 X125.843 Y141.355 E20.6861
G1 X126.454 Y140.482 E20.73572
G1 X127.42 Y139.305 E20.80662
G1 X127.771 Y138.939 E20.83024
G0 F1080 X128.165 Y138.528
G0 F6000 X128.431 Y138.826
G1 F1200 X129.339 Y138.014 E20.88696
G1 X130.133 Y137.406 E20.93352
G1 X131.41 Y136.573 E21.00452
G1 X132.297 Y136.087 E21.05161
G1 X133.405 Y135.586 E21.10824
G1 X134.244 Y135.273 E21.14993
G1 X135.412 Y134.926 E21.20667
G1 X136.291 Y134.729 E21.24862
G1 X137.497 Y134.544 E21.30543
G1 X138.274 Y134.472 E21.34176
G1 X139.186 Y134.441 E21.38426
G1 X139.753 Y134.446 E21.41066
G1 X140.387 Y134.479 E21.44022
G1 X141.055 Y134.548 E21.47149
G1 X142.235 Y134.731 E21.52709
G1 X143.104 Y134.926 E21.56856
G1 X144.272 Y135.273 E21.6253
G1 X145.111 Y135.586 E21.667
G1 X146.219 Y136.087 E21.72362
G1 X147.106 Y136.573 E21.77072
G1 X148.383 Y137.406 E21.84171
G1 X149.176 Y138.014 E21.88824
G1 X149.999 Y138.75 E21.93965
G1 X150.818 Y138.017 E21.99083
G1 X151.616 Y137.405 E22.03766
G1 X152.894 Y136.572 E22.10869
G1 X153.779 Y136.087 E22.15568
G1 X154.887 Y135.586 E22.21231
G1 X155.725 Y135.274 E22.25394
G1 X156.892 Y134.927 E22.31064
G1 X157.772 Y134.729 E22.35264
G1 X158.978 Y134.544 E22.40945
G1 X159.755 Y134.472 E22.44578
G1 X160.668 Y134.441 E22.48832
G1 X161.235 Y134.446 E22.51473
G1 X161.869 Y134.479 E22.54429
G1 X162.537 Y134.548 E22.57556
G1 X163.717 Y134.731 E22.63116
G1 X164.587 Y134.927 E22.67269
G1 X165.754 Y135.274 E22.72938
G1 X166.592 Y135.586 E22.77102
G1 X167.7 Y136.087 E22.82764
