;FLAVOR:Marlin
;TIME:2563
;Filament used: 1.63475m
;Layer height: 0.2
;MINX:122.494
;MINY:113.741
;MINZ:0.28
;MAXX:196.959
;MAXY:186.263
;MAXZ:3.88
;Generated with Cura_SteamEngine 5.2.1
M140 S110
M105
M190 S110
M82 ;absolute extrusion mode
M201 X500.00 Y500.00 Z100.00 E5000.00 ;Setup machine max acceleration
M203 X500.00 Y500.00 Z10.00 E50.00 ;Setup machine max feedrate
M204 P500.00 R1000.00 T500.00 ;Setup Print/Retract/Travel acceleration
M205 X8.00 Y8.00 Z0.40 E5.00 ;Setup Jerk
M220 S100 ;Reset Feedrate
M221 S100 ;Reset Flowrate
M140 S110 ; set bed temp
M190 S110 ; wait for bed temp
G28; home all
G29;
G92 E0 ;Reset Extruder
G1 Z2.0 F3000 ;Move Z Axis up
G1 X10.1 Y20 Z0.28 F5000.0 ;Move to start position
M104 S240.0 ; wait for extruder printing temp
M109 S240.0 ; wait for extruder printing temp
G1 X10.1 Y200.0 Z0.28 F1500.0 E15 ;Draw the first line
G1 X10.4 Y200.0 Z0.28 F5000.0 ;Move to side a little
G1 X10.4 Y20 Z0.28 F1500.0 E30 ;Draw the second line
G92 E0 ;Reset Extruder
G1 Z2.0 F3000 ;Move Z Axis up
G92 E0
G92 E0
G1 F3000 E-2
;LAYER_COUNT:19
;LAYER:0
M107
G0 F6000 X127.333 Y118.713 Z0.28
;TYPE:SKIRT
G1 F3000 E0
G1 F1200 X127.631 Y118.432 E0.01907
G1 X128.539 Y117.62 E0.07579
G1 X129.477 Y116.901 E0.13083
G1 X130.754 Y116.068 E0.20182
G1 X131.437 Y115.671 E0.23861
G1 X131.802 Y115.494 E0.2575
G1 X132.91 Y114.993 E0.31412
G1 X133.903 Y114.623 E0.36346
G1 X135.071 Y114.276 E0.4202
G1 X136.109 Y114.043 E0.46973
G1 X137.315 Y113.858 E0.52655
G1 X138.233 Y113.773 E0.56948
G1 X139.145 Y113.742 E0.61197
G1 X139.815 Y113.748 E0.64317
G1 X140.449 Y113.781 E0.67273
G1 X141.239 Y113.862 E0.70971
G1 X142.419 Y114.045 E0.76531
G1 X143.445 Y114.276 E0.81428
G1 X144.613 Y114.623 E0.87102
G1 X145.606 Y114.993 E0.92036
G1 X146.714 Y115.494 E0.97698
G1 X147.416 Y115.855 E1.01374
G1 X147.762 Y116.068 E1.03266
G1 X149.039 Y116.901 E1.10365
G1 X149.999 Y117.639 E1.16004
G1 X150.632 Y117.126 E1.19798
G1 X150.961 Y116.9 E1.21656
G1 X152.239 Y116.067 E1.2876
G1 X152.921 Y115.669 E1.32437
G1 X153.284 Y115.494 E1.34313
G1 X154.392 Y114.993 E1.39975
G1 X155.383 Y114.624 E1.44899
G1 X156.55 Y114.277 E1.50568
G1 X157.59 Y114.043 E1.55532
G1 X158.796 Y113.858 E1.61213
G1 X159.714 Y113.772 E1.65507
G1 X160.627 Y113.741 E1.69761
G1 X161.297 Y113.748 E1.72881
G1 X161.931 Y113.781 E1.75837
G1 X162.721 Y113.862 E1.79535
G1 X163.901 Y114.045 E1.85095
G1 X164.929 Y114.277 E1.90002
G1 X166.096 Y114.624 E1.95671
G1 X167.087 Y114.993 E2.00595
G1 X168.195 Y115.494 E2.06257
G1 X168.897 Y115.855 E2.09933
G1 X169.24 Y116.067 E2.11811
G1 X170.518 Y116.9 E2.18914
G1 X171.157 Y117.364 E2.22591
G1 X171.461 Y117.622 E2.24448
G1 X172.366 Y118.432 E2.30103
G1 X173.018 Y119.09 E2.34417
G1 X173.622 Y119.776 E2.38673
G1 X174.266 Y120.615 E2.43598
G1 X175.11 Y121.886 E2.50702
G1 X175.513 Y122.565 E2.54379
G1 X175.768 Y123.092 E2.57105
G1 X176.616 Y122.879 E2.61176
G1 X177.818 Y122.662 E2.66863
G1 X178.89 Y122.544 E2.71885
G1 X180.13 Y122.494 E2.77664
G1 X181.042 Y122.511 E2.81911
G1 X181.927 Y122.579 E2.86044
G1 X182.724 Y122.682 E2.89786
G1 X183.626 Y122.846 E2.94055
G1 X184.506 Y123.059 E2.98271
G1 X185.67 Y123.414 E3.03938
G1 X186.551 Y123.742 E3.08315
G1 X187.385 Y124.111 E3.12562
G1 X188.205 Y124.534 E3.16858
G1 X189.253 Y125.155 E3.22531
G1 X189.911 Y125.591 E3.26206
G1 X190.225 Y125.836 E3.28061
G1 X191.402 Y126.802 E3.35151
G1 X191.987 Y127.333 E3.3883
G1 X192.268 Y127.631 E3.40737
G1 X193.08 Y128.539 E3.46409
G1 X193.799 Y129.477 E3.51912
G1 X194.632 Y130.754 E3.59012
G1 X195.029 Y131.437 E3.6269
G1 X195.206 Y131.802 E3.64579
G1 X195.707 Y132.91 E3.70241
G1 X196.077 Y133.903 E3.75176
G1 X196.424 Y135.071 E3.80849
G1 X196.657 Y136.107 E3.85794
G1 X196.842 Y137.311 E3.91466
G1 X196.928 Y138.231 E3.95769
G1 X196.959 Y139.144 E4.00022
G1 X196.952 Y139.814 E4.03142
G1 X196.919 Y140.449 E4.06103
G1 X196.838 Y141.239 E4.09801
G1 X196.655 Y142.419 E4.15361
G1 X196.425 Y143.443 E4.20248
G1 X196.079 Y144.609 E4.25912
G1 X195.708 Y145.604 E4.30856
G1 X195.206 Y146.714 E4.36529
G1 X194.845 Y147.416 E4.40205
G1 X194.632 Y147.762 E4.42097
G1 X193.799 Y149.039 E4.49196
G1 X193.061 Y149.999 E4.54834
G1 X193.574 Y150.632 E4.58628
G1 X193.8 Y150.961 E4.60487
G1 X194.633 Y152.239 E4.6759
G1 X195.031 Y152.921 E4.71267
G1 X195.206 Y153.284 E4.73144
G1 X195.707 Y154.392 E4.78806
G1 X196.076 Y155.383 E4.8373
G1 X196.423 Y156.55 E4.89399
G1 X196.657 Y157.588 E4.94354
G1 X196.842 Y158.792 E5.00026
G1 X196.928 Y159.713 E5.04333
G1 X196.959 Y160.627 E5.08592
G1 X196.952 Y161.296 E5.11707
G1 X196.919 Y161.931 E5.14668
G1 X196.838 Y162.721 E5.18366
G1 X196.655 Y163.901 E5.23926
G1 X196.424 Y164.927 E5.28823
G1 X196.078 Y166.092 E5.34482
G1 X195.708 Y167.085 E5.39416
G1 X195.206 Y168.195 E5.45089
G1 X194.845 Y168.897 E5.48764
G1 X194.633 Y169.24 E5.50642
G1 X193.8 Y170.518 E5.57745
G1 X193.336 Y171.157 E5.61423
G1 X193.078 Y171.461 E5.63279
G1 X192.268 Y172.366 E5.68935
G1 X191.61 Y173.018 E5.73248
G1 X190.924 Y173.622 E5.77504
G1 X190.085 Y174.266 E5.82429
G1 X188.814 Y175.11 E5.89533
G1 X188.135 Y175.513 E5.9321
G1 X187.77 Y175.693 E5.95105
G1 X186.666 Y176.203 E6.00768
G1 X185.676 Y176.581 E6.05702
G1 X184.512 Y176.937 E6.1137
G1 X183.617 Y177.154 E6.15658
G1 X182.714 Y177.317 E6.19931
G1 X181.79 Y177.427 E6.24264
G1 X180.577 Y177.499 E6.29922
G1 X179.52 Y177.49 E6.34844
G1 X178.305 Y177.397 E6.40518
G1 X177.383 Y177.271 E6.44851
G1 X176.485 Y177.093 E6.49114
G1 X175.783 Y176.905 E6.52498
G1 X175.509 Y177.45 E6.55338
G1 X175.108 Y178.154 E6.59111
G1 X174.615 Y178.925 E6.63372
G1 X174.074 Y179.67 E6.6766
G1 X173.302 Y180.611 E6.73327
G1 X172.662 Y181.302 E6.77713
G1 X172.002 Y181.933 E6.81965
G1 X171.41 Y182.445 E6.85609
G1 X170.687 Y183.009 E6.89879
G1 X169.926 Y183.533 E6.94181
G1 X168.886 Y184.162 E6.99841
G1 X168.19 Y184.536 E7.0352
G1 X167.818 Y184.701 E7.05415
G1 X166.409 Y185.281 E7.1251
G1 X165.665 Y185.544 E7.16184
G1 X165.267 Y185.651 E7.18103
G1 X164.059 Y185.942 E7.23889
G1 X163.143 Y186.106 E7.28222
G1 X162.259 Y186.21 E7.32367
G1 X161.348 Y186.263 E7.36616
G1 X160.131 Y186.263 E7.42283
G1 X159.342 Y186.223 E7.45962
G1 X158.943 Y186.172 E7.47835
G1 X157.437 Y185.94 E7.5493
G1 X156.406 Y185.709 E7.5985
G1 X155.53 Y185.449 E7.64105
G1 X154.534 Y185.078 E7.69054
G1 X153.15 Y184.452 E7.76127
G1 X152.213 Y183.948 E7.81081
G1 X151.437 Y183.46 E7.8535
G1 X150.798 Y183.012 E7.88983
G1 X149.995 Y182.387 E7.93722
G1 X149.21 Y183.006 E7.98377
G1 X148.442 Y183.535 E8.02719
G1 X147.401 Y184.164 E8.08382
G1 X146.705 Y184.538 E8.12062
G1 X146.336 Y184.701 E8.1394
G1 X144.927 Y185.281 E8.21035
G1 X144.183 Y185.544 E8.24709
G1 X143.785 Y185.651 E8.26628
G1 X142.577 Y185.942 E8.32414
G1 X141.661 Y186.106 E8.36747
G1 X140.777 Y186.21 E8.40892
G1 X139.866 Y186.263 E8.45141
G1 X138.65 Y186.263 E8.50803
G1 X137.861 Y186.223 E8.54482
G1 X137.463 Y186.172 E8.56351
G1 X135.956 Y185.94 E8.6345
G1 X134.924 Y185.709 E8.68375
G1 X134.048 Y185.449 E8.7263
G1 X133.052 Y185.078 E8.77579
G1 X131.668 Y184.452 E8.84652
G1 X130.731 Y183.948 E8.89606
G1 X129.955 Y183.46 E8.93874
G1 X129.316 Y183.012 E8.97508
G1 X128.594 Y182.45 E9.01769
G1 X127.895 Y181.836 E9.06101
G1 X127.03 Y180.979 E9.11771
G1 X126.408 Y180.285 E9.1611
G1 X125.841 Y179.57 E9.20359
G1 X125.378 Y178.919 E9.24079
G1 X124.886 Y178.148 E9.28338
G1 X124.439 Y177.348 E9.32605
G1 X123.908 Y176.25 E9.38285
G1 X123.511 Y175.261 E9.43247
G1 X123.136 Y174.105 E9.48906
G1 X122.879 Y173.084 E9.53808
G1 X122.662 Y171.882 E9.59496
G1 X122.544 Y170.811 E9.64513
G1 X122.494 Y169.572 E9.70287
G1 X122.511 Y168.66 E9.74534
G1 X122.579 Y167.774 E9.78672
G1 X122.682 Y166.976 E9.82419
G1 X122.846 Y166.074 E9.86688
G1 X123.059 Y165.196 E9.90895
G1 X123.413 Y164.034 E9.96551
G1 X123.741 Y163.15 E10.00941
G1 X124.111 Y162.314 E10.05198
G1 X124.534 Y161.495 E10.09491
G1 X125.155 Y160.447 E10.15163
G1 X125.617 Y159.755 E10.19037
G1 X125.378 Y159.419 E10.20957
G1 X124.886 Y158.648 E10.25216
G1 X124.439 Y157.848 E10.29483
G1 X123.908 Y156.75 E10.35163
G1 X123.511 Y155.761 E10.40125
G1 X123.136 Y154.605 E10.45784
G1 X122.879 Y153.584 E10.50686
G1 X122.662 Y152.382 E10.56374
G1 X122.544 Y151.311 E10.61391
G1 X122.494 Y150.072 E10.67165
G1 X122.511 Y149.16 E10.71412
G1 X122.579 Y148.274 E10.7555
G1 X122.682 Y147.476 E10.79297
G1 X122.846 Y146.574 E10.83566
G1 X123.059 Y145.696 E10.87773
G1 X123.413 Y144.534 E10.93429
G1 X123.741 Y143.65 E10.97819
G1 X124.111 Y142.814 E11.02076
G1 X124.534 Y141.995 E11.06369
G1 X125.155 Y140.947 E11.12041
G1 X125.617 Y140.255 E11.15915
G1 X125.378 Y139.919 E11.17835
G1 X124.886 Y139.148 E11.22094
G1 X124.439 Y138.348 E11.26361
G1 X123.908 Y137.25 E11.32041
G1 X123.511 Y136.261 E11.37003
G1 X123.136 Y135.105 E11.42662
G1 X122.879 Y134.084 E11.47564
G1 X122.662 Y132.882 E11.53252
G1 X122.544 Y131.811 E11.58269
G1 X122.494 Y130.572 E11.64043
G1 X122.511 Y129.66 E11.68291
G1 X122.579 Y128.774 E11.72428
G1 X122.682 Y127.976 E11.76175
G1 X122.846 Y127.074 E11.80444
G1 X123.059 Y126.196 E11.84651
G1 X123.413 Y125.034 E11.90307
G1 X123.741 Y124.15 E11.94698
G1 X124.111 Y123.314 E11.98955
G1 X124.534 Y122.495 E12.03247
G1 X125.155 Y121.447 E12.08919
G1 X125.591 Y120.789 E12.12595
G1 X125.836 Y120.475 E12.14449
G1 X126.802 Y119.298 E12.21539
G1 X127.333 Y118.713 E12.25218
G0 F6000 X127.898 Y118.73
G1 F1200 X128.806 Y117.918 E12.3089
G1 X129.696 Y117.236 E12.36111
G1 X130.973 Y116.403 E12.43211
G1 X131.967 Y115.858 E12.48489
G1 X133.075 Y115.357 E12.54151
G1 X134.017 Y115.006 E12.58832
G1 X135.185 Y114.659 E12.64506
G1 X136.17 Y114.439 E12.69206
G1 X137.376 Y114.254 E12.74887
G1 X138.247 Y114.172 E12.78961
G1 X139.159 Y114.141 E12.8321
G1 X139.795 Y114.147 E12.86171
G1 X140.429 Y114.18 E12.89127
G1 X141.178 Y114.257 E12.92634
G1 X142.358 Y114.44 E12.98194
G1 X143.331 Y114.659 E13.02838
G1 X144.499 Y115.006 E13.08511
G1 X145.441 Y115.357 E13.13192
G1 X146.549 Y115.858 E13.18855
G1 X147.543 Y116.403 E13.24133
G1 X148.82 Y117.236 E13.31233
G1 X149.709 Y117.917 E13.36447
G1 X149.999 Y118.176 E13.38258
G1 X150.284 Y117.921 E13.40038
G1 X151.179 Y117.235 E13.45289
G1 X152.457 Y116.402 E13.52393
G1 X153.449 Y115.858 E13.57661
G1 X154.557 Y115.357 E13.63323
G1 X155.497 Y115.007 E13.67994
G1 X156.664 Y114.66 E13.73663
G1 X157.651 Y114.439 E13.78373
G1 X158.857 Y114.254 E13.84054
G1 X159.728 Y114.172 E13.88128
G1 X160.641 Y114.141 E13.92381
G1 X161.277 Y114.147 E13.95343
G1 X161.911 Y114.18 E13.98299
G1 X162.66 Y114.257 E14.01805
G1 X163.84 Y114.44 E14.07365
G1 X164.815 Y114.66 E14.1202
G1 X165.982 Y115.007 E14.17689
G1 X166.922 Y115.357 E14.22359
G1 X168.03 Y115.858 E14.28022
G1 X169.022 Y116.402 E14.3329
G1 X170.3 Y117.235 E14.40393
G1 X171.194 Y117.92 E14.45637
G1 X172.099 Y118.73 E14.51293
G1 X172.718 Y119.354 E14.55386
G1 X173.322 Y120.04 E14.59642
G1 X173.933 Y120.836 E14.64314
G1 X174.777 Y122.107 E14.71418
G1 X175.33 Y123.098 E14.76703
G1 X175.544 Y123.56 E14.79074
G1 X176.687 Y123.273 E14.84561
G1 X177.889 Y123.056 E14.90249
G1 X178.906 Y122.944 E14.95013
G1 X180.146 Y122.894 E15.00791
G1 X181.011 Y122.91 E15.0482
G1 X181.896 Y122.978 E15.08953
G1 X182.653 Y123.075 E15.12507
G1 X183.555 Y123.239 E15.16776
G1 X184.39 Y123.442 E15.20777
G1 X185.554 Y123.797 E15.26444
G1 X186.389 Y124.108 E15.30593
G1 X187.223 Y124.477 E15.34839
G1 X188.001 Y124.878 E15.38915
G1 X189.049 Y125.499 E15.44587
G1 X189.972 Y126.145 E15.49833
G1 X191.149 Y127.111 E15.56923
G1 X191.97 Y127.898 E15.62219
G1 X192.782 Y128.806 E15.67891
G1 X193.464 Y129.696 E15.73112
G1 X194.297 Y130.973 E15.80212
G1 X194.842 Y131.967 E15.8549
G1 X195.343 Y133.075 E15.91152
G1 X195.694 Y134.017 E15.95833
G1 X196.041 Y135.185 E16.01507
G1 X196.261 Y136.168 E16.06197
G1 X196.446 Y137.372 E16.11869
G1 X196.528 Y138.245 E16.15952
G1 X196.559 Y139.158 E16.20206
G1 X196.553 Y139.793 E16.23163
G1 X196.52 Y140.428 E16.26124
G1 X196.443 Y141.178 E16.29635
G1 X196.26 Y142.358 E16.35195
G1 X196.041 Y143.329 E16.3983
G1 X195.695 Y144.495 E16.45493
G1 X195.344 Y145.439 E16.50183
G1 X194.842 Y146.549 E16.55856
G1 X194.297 Y147.543 E16.61134
G1 X193.464 Y148.82 E16.68234
G1 X192.783 Y149.709 E16.73448
G1 X192.524 Y149.999 E16.75259
G1 X192.779 Y150.284 E16.77039
G1 X193.465 Y151.179 E16.8229
G1 X194.298 Y152.457 E16.89394
G1 X194.842 Y153.449 E16.94662
G1 X195.343 Y154.557 E17.00324
G1 X195.693 Y155.497 E17.04995
G1 X196.04 Y156.664 E17.10664
G1 X196.261 Y157.649 E17.15364
G1 X196.446 Y158.853 E17.21036
G1 X196.528 Y159.726 E17.25119
G1 X196.559 Y160.64 E17.29378
G1 X196.553 Y161.275 E17.32335
G1 X196.52 Y161.91 E17.35296
G1 X196.443 Y162.66 E17.38806
G1 X196.26 Y163.84 E17.44367
G1 X196.041 Y164.813 E17.49011
G1 X195.695 Y165.978 E17.5467
G1 X195.344 Y166.92 E17.5935
G1 X194.842 Y168.03 E17.65023
G1 X194.298 Y169.022 E17.70291
G1 X193.465 Y170.3 E17.77395
G1 X192.78 Y171.194 E17.82639
G1 X191.97 Y172.099 E17.88294
G1 X191.346 Y172.718 E17.92387
G1 X190.66 Y173.322 E17.96643
G1 X189.864 Y173.933 E18.01316
G1 X188.593 Y174.777 E18.0842
G1 X187.602 Y175.33 E18.13704
G1 X186.498 Y175.84 E18.19367
G1 X185.559 Y176.198 E18.24046
G1 X184.395 Y176.554 E18.29714
G1 X183.546 Y176.76 E18.33782
G1 X182.643 Y176.923 E18.38055
G1 X181.766 Y177.028 E18.42168
G1 X180.553 Y177.1 E18.47826
G1 X179.55 Y177.091 E18.52497
G1 X178.335 Y176.998 E18.58171
G1 X177.461 Y176.879 E18.62278
G1 X176.563 Y176.701 E18.66541
G1 X175.572 Y176.432 E18.71322
G1 X175.151 Y177.271 E18.75693
G1 X174.771 Y177.938 E18.79268
G1 X174.278 Y178.709 E18.83529
G1 X173.765 Y179.417 E18.876
G1 X172.993 Y180.358 E18.93268
G1 X172.386 Y181.013 E18.97426
G1 X171.726 Y181.644 E19.01678
G1 X171.164 Y182.13 E19.05138
G1 X170.441 Y182.694 E19.09407
G1 X169.719 Y183.191 E19.13489
G1 X168.679 Y183.82 E19.19148
G1 X167.666 Y184.331 E19.24431
G1 X166.257 Y184.911 E19.31526
G1 X165.173 Y185.262 E19.36832
G1 X163.965 Y185.553 E19.42618
G1 X163.097 Y185.708 E19.46724
G1 X162.213 Y185.812 E19.50868
G1 X161.348 Y185.863 E19.54903
G1 X160.131 Y185.863 E19.6057
G1 X159.004 Y185.777 E19.65833
G1 X157.498 Y185.545 E19.72928
G1 X156.519 Y185.325 E19.77601
G1 X155.643 Y185.065 E19.81855
G1 X154.699 Y184.713 E19.86547
G1 X153.315 Y184.087 E19.9362
G1 X152.426 Y183.609 E19.9832
G1 X151.65 Y183.121 E20.02588
G1 X151.044 Y182.696 E20.06035
G1 X150.322 Y182.134 E20.10295
G1 X150.002 Y181.853 E20.12278
G1 X149.685 Y182.127 E20.14229
G1 X148.963 Y182.691 E20.18495
G1 X148.235 Y183.193 E20.22613
G1 X147.194 Y183.822 E20.28277
G1 X146.184 Y184.331 E20.33543
G1 X144.775 Y184.911 E20.40638
G1 X143.691 Y185.262 E20.45944
G1 X142.483 Y185.553 E20.51729
G1 X141.615 Y185.708 E20.55835
G1 X140.731 Y185.812 E20.5998
G1 X139.866 Y185.863 E20.64015
G1 X138.65 Y185.863 E20.69677
G1 X137.524 Y185.777 E20.74935
G1 X136.017 Y185.545 E20.82035
G1 X135.037 Y185.325 E20.86712
G1 X134.161 Y185.065 E20.90967
G1 X133.217 Y184.713 E20.95658
G1 X131.833 Y184.087 E21.02731
G1 X130.944 Y183.609 E21.07431
G1 X130.168 Y183.121 E21.117
G1 X129.562 Y182.696 E21.15146
G1 X128.84 Y182.134 E21.19407
G1 X128.177 Y181.552 E21.23515
G1 X127.312 Y180.695 E21.29185
G1 X126.722 Y180.036 E21.33303
G1 X126.155 Y179.321 E21.37552
G1 X125.715 Y178.704 E21.41081
G1 X125.223 Y177.933 E21.4534
G1 X124.799 Y177.174 E21.49388
G1 X124.268 Y176.076 E21.55067
G1 X123.891 Y175.137 E21.59779
G1 X123.516 Y173.981 E21.65438
G1 X123.273 Y173.013 E21.70085
G1 X123.056 Y171.811 E21.75773
G1 X122.944 Y170.794 E21.80537
G1 X122.894 Y169.555 E21.86311
G1 X122.91 Y168.691 E21.90335
G1 X122.978 Y167.805 E21.94473
G1 X123.075 Y167.047 E21.98031
G1 X123.239 Y166.145 E22.023
G1 X123.441 Y165.312 E22.06291
G1 X123.795 Y164.15 E22.11947
G1 X124.107 Y163.312 E22.16111
G1 X124.477 Y162.476 E22.20368
G1 X124.878 Y161.699 E22.2444
G1 X125.499 Y160.651 E22.30112
G1 X126.117 Y159.768 E22.3513
G1 X125.715 Y159.204 E22.38355
G1 X125.223 Y158.433 E22.42614
G1 X124.799 Y157.674 E22.46663
G1 X124.268 Y156.576 E22.52342
G1 X123.891 Y155.637 E22.57053
G1 X123.516 Y154.481 E22.62712
G1 X123.273 Y153.513 E22.6736
G1 X123.056 Y152.311 E22.73047
G1 X122.944 Y151.294 E22.77811
G1 X122.894 Y150.055 E22.83585
G1 X122.91 Y149.191 E22.87609
